assets/LUTs/chatgpt_morena_warm_natural_fcp.cube
TITLE "Morena Warm Natural - FCP"
# Morena / brown skin friendly creative LUT
# Target: Rec.709 SDR footage after exposure/WB correction
# Suggested FCP Custom LUT Mix: 30-70%, usually 40%
LUT_3D_SIZE 9
DOMAIN_MIN 0.0 0.0 0.0
DOMAIN_MAX 1.0 1.0 1.0
0.000000 0.000000 0.000000
0.119002 0.000911 0.000911
0.247243 0.001892 0.001892
0.375484 0.002873 0.002873
0.503724 0.003854 0.003854
0.631959 0.004820 0.004805
0.760290 0.005644 0.005508
0.889100 0.006235 0.005865
0.978643 0.005983 0.005278
0.002913 0.115215 0.002913
0.121916 0.116126 0.003824
0.249948 0.116957 0.004710
0.377679 0.117361 0.005301
0.505772 0.117360 0.005477
0.635853 0.117038 0.004857
0.768634 0.116265 0.003317
0.904492 0.114946 0.000819
0.998679 0.113088 0.000000
0.005670 0.244985 0.005670
0.122041 0.245025 0.005680
0.250158 0.245157 0.004749
0.379843 0.245587 0.002514
0.512345 0.245812 0.000000
0.647620 0.245208 0.000000
0.785750 0.244122 0.000000
0.926584 0.242616 0.000000
0.997428 0.241200 0.000000
0.002515 0.372768 0.002515
0.118317 0.372490 0.000000
0.249943 0.372301 0.000000
0.383485 0.372976 0.000000
0.519077 0.374507 0.000000
0.658248 0.375528 0.000000
0.799413 0.377076 0.000000
0.942004 0.376443 0.000000
0.996100 0.376070 0.000000
0.000000 0.498703 0.000000
0.111020 0.498518 0.000000
0.247064 0.498628 0.000000
0.385599 0.499237 0.000000
0.523966 0.502093 0.000000
0.663051 0.505241 0.000000
0.803829 0.507170 0.000000
0.943952 0.509119 0.000000
0.994935 0.511840 0.000000
0.000000 0.623373 0.000000
0.104900 0.623960 0.000000
0.244188 0.624865 0.000000
0.383983 0.626122 0.000000
0.523660 0.627645 0.000000
0.659876 0.631956 0.000000
0.797145 0.635372 0.000000
0.935979 0.637024 0.000000
0.994170 0.639349 0.000000
0.000000 0.748564 0.000000
0.098570 0.750125 0.000000
0.238038 0.751726 0.000000
0.377477 0.753271 0.000000
0.516677 0.754580 0.000000
0.655445 0.755732 0.000000
0.789734 0.760079 0.000000
0.925193 0.762913 0.000000
0.994000 0.764853 0.000000
0.000000 0.875594 0.000000
0.092040 0.876719 0.000000
0.231359 0.877618 0.000000
0.370281 0.878420 0.000000
0.508588 0.879328 0.000000
0.645028 0.881032 0.000000
0.778507 0.883194 0.000000
0.905399 0.888045 0.000000
0.994000 0.892466 0.000000
0.000000 0.999742 0.000000
0.087337 1.000000 0.000000
0.226789 1.000000 0.000000
0.364570 1.000000 0.000000
0.499921 1.000000 0.000000
0.632293 1.000000 0.000000
0.761848 0.999613 0.002761
0.889391 0.998564 0.013555
0.996459 0.999940 0.019209
0.000274 0.000274 0.104856
0.119276 0.001184 0.105766
0.247517 0.002166 0.106748
0.375758 0.003147 0.107729
0.503998 0.004128 0.108710
0.632217 0.005063 0.109601
0.760586 0.005820 0.110194
0.889806 0.006267 0.110338
0.980477 0.005769 0.109292
0.003187 0.115489 0.107769
0.122177 0.116391 0.108676
0.250043 0.117068 0.109490
0.377660 0.117342 0.109946
0.506111 0.117243 0.109812
0.636771 0.116792 0.108659
0.770196 0.115856 0.106424
0.906707 0.114360 0.103102
0.998563 0.112368 0.098824
0.005730 0.244997 0.110289
0.121782 0.245036 0.109831
0.250248 0.245213 0.108349
0.380175 0.245967 0.105333
0.513139 0.245674 0.101632
0.648900 0.244918 0.096934
0.787483 0.243710 0.091391
0.928681 0.242114 0.085221
0.997293 0.240697 0.079155
0.001626 0.373069 0.103727
0.117717 0.373051 0.099645
0.249763 0.373180 0.094906
0.383705 0.374262 0.088859
0.519596 0.376296 0.081892
0.659065 0.377771 0.076246
0.800497 0.377166 0.069941
0.943087 0.376297 0.064093
0.995972 0.375832 0.059477
0.000000 0.499893 0.083305
0.110280 0.500126 0.077132
0.246804 0.500678 0.071172
0.385731 0.501743 0.065906
0.524207 0.504930 0.059525
0.663024 0.508431 0.053779
0.803530 0.510484 0.050914
0.943206 0.512431 0.049425
0.994836 0.511827 0.048037
0.000000 0.625785 0.057035
0.104413 0.626711 0.052400
0.243759 0.627892 0.048749
0.383486 0.629328 0.046470
0.523021 0.630905 0.045676
0.659358 0.635100 0.042019
0.796341 0.638653 0.039183
0.935005 0.640234 0.039024
0.994124 0.642500 0.040238
0.000000 0.751819 0.037608
0.097976 0.753430 0.037067
0.237436 0.755022 0.036533
0.376828 0.756481 0.036239
0.515938 0.757711 0.036470
0.654590 0.758814 0.037195
0.788959 0.762964 0.034663
0.923804 0.765978 0.034451
0.994000 0.767722 0.041683
0.000000 0.878779 0.027817
0.091534 0.879809 0.028252
0.230805 0.880645 0.029136
0.369653 0.881414 0.030447
0.507688 0.882461 0.034025
0.643597 0.884102 0.043032
0.776485 0.885922 0.056053
0.903117 0.890031 0.068576
0.994000 0.894039 0.081783
0.000000 1.000000 0.022587
0.087447 1.000000 0.028664
0.226904 1.000000 0.040169
0.364531 1.000000 0.055516
0.499538 1.000000 0.072907
0.631533 1.000000 0.090402
0.760865 0.999126 0.106273
0.888470 0.998393 0.118808
0.996541 1.000000 0.124285
0.000607 0.000607 0.232448
0.119610 0.001518 0.233359
0.247850 0.002499 0.234340
0.376091 0.003480 0.235322
0.504329 0.004460 0.236302
0.632521 0.005343 0.237212
0.760931 0.006025 0.237948
0.890807 0.006265 0.238304
0.982517 0.005504 0.237760
0.003520 0.115822 0.235361
0.122428 0.116667 0.236270
0.250162 0.117160 0.237196
0.377697 0.117331 0.237781
0.506599 0.117137 0.237936
0.637822 0.116534 0.237379
0.771858 0.115412 0.235986
0.908977 0.113722 0.233700
0.998444 0.111580 0.230637
0.005760 0.245061 0.238231
0.121549 0.245150 0.238233
0.250437 0.245352 0.237693
0.380909 0.245598 0.235649
0.513925 0.245469 0.232646
0.650135 0.244556 0.229167
0.789119 0.243207 0.224920
0.930617 0.241504 0.220072
0.997158 0.240074 0.215342
0.000653 0.373529 0.234214
0.117066 0.373781 0.231473
0.249509 0.374228 0.228202
0.384052 0.375508 0.223893
0.519958 0.378221 0.218138
0.659768 0.377699 0.212932
0.801346 0.376885 0.207738
0.943844 0.375923 0.202844
0.995844 0.375355 0.199071
0.000000 0.501215 0.218393
0.109416 0.501835 0.213772
0.246385 0.502794 0.209293
0.385650 0.504270 0.205371
0.524139 0.507680 0.200077
0.662634 0.511484 0.195092
0.802835 0.513593 0.192991
0.942364 0.512198 0.190535
0.994741 0.511192 0.188994
0.000000 0.628149 0.196687
0.103621 0.629353 0.193101
0.242996 0.630744 0.190380
0.382635 0.632294 0.188859
0.522104 0.633886 0.188296
0.658580 0.637964 0.184779
0.795234 0.641648 0.181820
0.933746 0.643178 0.181712
0.994085 0.645408 0.182876
0.000000 0.754795 0.180198
0.097059 0.756411 0.179688
0.236516 0.757990 0.179171
0.375864 0.759359 0.178974
0.514897 0.760535 0.179202
0.653453 0.761613 0.179837
0.787933 0.765584 0.177357
0.921868 0.768755 0.177551
0.994000 0.770192 0.184993
0.000000 0.881581 0.170557
0.090713 0.882545 0.170958
0.229952 0.883347 0.171722
0.368741 0.884117 0.172891
0.506489 0.885291 0.177533
0.641951 0.886774 0.186560
0.774361 0.888217 0.198619
0.900831 0.891617 0.209644
0.994000 0.895245 0.220274
0.000000 1.000000 0.165537
0.087466 1.000000 0.172548
0.226965 1.000000 0.183826
0.364512 1.000000 0.198068
0.499186 1.000000 0.213452
0.630876 1.000000 0.228431
0.760063 0.998767 0.241507
0.887814 0.998355 0.251185
0.996731 1.000000 0.253938
0.000940 0.000940 0.360041
0.119943 0.001851 0.360952
0.248183 0.002832 0.361933
0.376424 0.003814 0.362914
0.504636 0.004778 0.363907
0.632806 0.005601 0.364932
0.761326 0.006188 0.365892
0.892026 0.006169 0.366650
0.984693 0.005138 0.366810
0.003853 0.116155 0.362954
0.122601 0.116888 0.363920
0.250201 0.117211 0.365029
0.378043 0.117102 0.366083
0.507185 0.116972 0.366539
0.638946 0.116215 0.366747
0.773574 0.114903 0.366337
0.911272 0.113018 0.365188
0.998322 0.110735 0.363399
0.005699 0.245148 0.366511
0.121286 0.245340 0.367221
0.250471 0.245309 0.367495
0.381905 0.244938 0.367066
0.514704 0.245200 0.364588
0.651336 0.244144 0.362359
0.790698 0.242662 0.359408
0.932461 0.240869 0.355842
0.997023 0.239449 0.352366
0.000000 0.374143 0.365658
0.116367 0.374695 0.364343
0.249212 0.375483 0.362574
0.384810 0.376593 0.360451
0.520922 0.377677 0.355015
0.660415 0.377429 0.350337
0.802099 0.376604 0.346189
0.944446 0.375503 0.342113
0.995720 0.374840 0.339081
0.000000 0.502752 0.354534
0.108558 0.503766 0.351390
0.245974 0.505130 0.348270
0.385481 0.506961 0.345500
0.524184 0.510359 0.341412
0.662111 0.514602 0.336827
0.802165 0.513404 0.333925
0.941546 0.511570 0.331484
0.994650 0.510553 0.329955
0.000000 0.630678 0.336979
0.102783 0.632120 0.334332
0.242180 0.633672 0.332398
0.381727 0.635275 0.331450
0.521186 0.636867 0.330916
0.657801 0.640812 0.327561
0.794089 0.644623 0.324446
0.932459 0.646111 0.324329
0.994053 0.645010 0.323984
0.000000 0.757776 0.322818
0.096141 0.759392 0.322308
0.235591 0.760923 0.321836
0.374895 0.762214 0.321668
0.513853 0.763346 0.321836
0.652315 0.764410 0.322332
0.786906 0.768200 0.319898
0.919689 0.771415 0.320494
0.994000 0.772423 0.327576
0.000000 0.884356 0.313234
0.089916 0.885265 0.313546
0.229120 0.886043 0.314146
0.367833 0.886868 0.315546
0.505301 0.888023 0.320717
0.640349 0.889225 0.329234
0.772323 0.890213 0.339942
0.898658 0.892897 0.349200
0.994000 0.896142 0.357194
0.000000 1.000000 0.308638
0.087704 1.000000 0.315950
0.227319 1.000000 0.326612
0.364618 1.000000 0.339254
0.498954 1.000000 0.352434
0.630355 0.999576 0.364856
0.759432 0.998523 0.375246
0.887390 0.998408 0.382318
0.996965 1.000000 0.382837
0.001274 0.001274 0.487634
0.120276 0.002184 0.488544
0.248517 0.003165 0.489525
0.376757 0.004147 0.490507
0.504936 0.005060 0.491598
0.633075 0.005829 0.492808
0.761930 0.006270 0.494109
0.893438 0.005976 0.495489
0.986982 0.004668 0.496532
0.004183 0.116479 0.490554
0.122695 0.117053 0.491676
0.250176 0.117209 0.493047
0.378308 0.116964 0.494595
0.508311 0.116362 0.496180
0.640149 0.115816 0.496862
0.775330 0.114327 0.497536
0.913576 0.112251 0.497599
0.998198 0.109839 0.497120
0.005544 0.245285 0.495264
0.120985 0.245368 0.496782
0.250483 0.245215 0.498075
0.382383 0.244640 0.498867
0.516824 0.243740 0.498837
0.652500 0.243681 0.496515
0.792212 0.242081 0.494836
0.934207 0.240217 0.492489
0.996888 0.238833 0.490162
0.000000 0.374927 0.498109
0.115620 0.375805 0.498278
0.248872 0.376952 0.498021
0.384917 0.376472 0.496517
0.523190 0.375839 0.494012
0.661000 0.377150 0.488467
0.802729 0.376277 0.485198
0.944887 0.375040 0.481846
0.995597 0.374293 0.479438
0.000000 0.504509 0.491690
0.107715 0.505916 0.489924
0.245581 0.507679 0.488019
0.385219 0.509793 0.486236
0.525547 0.511943 0.484664
0.662104 0.514098 0.477981
0.801374 0.512789 0.474842
0.940733 0.510939 0.472436
0.994565 0.509907 0.470926
0.000000 0.633355 0.477856
0.101909 0.634991 0.476019
0.241322 0.636647 0.474715
0.380809 0.638256 0.474071
0.520269 0.639848 0.473536
0.657233 0.643428 0.470612
0.792915 0.647581 0.467030
0.931325 0.645733 0.465442
0.994029 0.644218 0.464779
0.000000 0.760757 0.465438
0.095224 0.762373 0.464928
0.234666 0.763826 0.464493
0.373925 0.765051 0.464292
0.512809 0.766149 0.464346
0.651180 0.767206 0.464662
0.785694 0.770770 0.462511
0.917321 0.773896 0.462996
0.994000 0.774374 0.469222
0.000000 0.887107 0.455819
0.089142 0.887973 0.455994
0.228309 0.888737 0.456390
0.366955 0.889607 0.458212
0.504157 0.890594 0.463315
0.638818 0.891413 0.470863
0.770393 0.891891 0.479905
0.896615 0.893875 0.487201
0.993651 0.896752 0.492577
0.000000 1.000000 0.451576
0.088221 1.000000 0.458681
0.227837 1.000000 0.468229
0.364849 1.000000 0.478983
0.498840 1.000000 0.489842
0.629966 0.999103 0.499742
0.758969 0.998389 0.507627
0.887198 0.998540 0.512416
0.997203 1.000000 0.511653
0.001607 0.001607 0.615226
0.120609 0.002517 0.616137
0.248850 0.003499 0.617118
0.377085 0.004477 0.618108
0.505208 0.005319 0.619407
0.633456 0.005916 0.621015
0.762742 0.006253 0.622731
0.895020 0.005682 0.624919
0.989361 0.004095 0.627003
0.004493 0.116752 0.618216
0.122713 0.117161 0.619585
0.250131 0.117160 0.621318
0.378614 0.116799 0.623567
0.509138 0.115991 0.626122
0.642183 0.114698 0.628559
0.777128 0.113670 0.629643
0.915877 0.111424 0.630958
0.998072 0.108897 0.631802
0.005288 0.245357 0.624546
0.120645 0.245357 0.627060
0.250469 0.245071 0.629494
0.382778 0.244338 0.631527
0.517836 0.243123 0.632966
0.655394 0.241693 0.633400
0.793655 0.241469 0.631175
0.935846 0.239556 0.629961
0.996752 0.238236 0.628656
0.000000 0.375893 0.631600
0.114829 0.377120 0.633286
0.248532 0.376894 0.633755
0.385000 0.376194 0.633416
0.523963 0.375190 0.632338
0.664178 0.374659 0.629892
0.803229 0.375901 0.624713
0.945162 0.374538 0.621983
0.995477 0.373717 0.620068
0.000000 0.506485 0.629815
0.106898 0.508283 0.629302
0.245194 0.510424 0.628444
0.384863 0.512748 0.627518
0.525277 0.511810 0.625270
0.664786 0.510846 0.621990
0.800553 0.512163 0.615787
0.939924 0.510303 0.613393
0.994484 0.509245 0.611906
0.000000 0.636160 0.619252
0.101007 0.637942 0.618083
0.240429 0.639641 0.617233
0.379892 0.641237 0.616691
0.519351 0.642829 0.616157
0.658656 0.644335 0.615670
0.792503 0.646714 0.608747
0.930191 0.644959 0.606264
0.994011 0.643427 0.605408
0.000000 0.763738 0.608058
0.094309 0.765339 0.607552
0.233744 0.766702 0.607108
0.372957 0.767873 0.606816
0.511768 0.768947 0.606710
0.650052 0.770006 0.606807
0.784641 0.772922 0.605360
0.914818 0.776144 0.604805
0.994000 0.773470 0.608638
0.000000 0.889837 0.598286
0.088394 0.890673 0.598280
0.227527 0.891434 0.598472
0.366135 0.892259 0.600587
0.503081 0.892952 0.605094
0.637378 0.893307 0.611288
0.768590 0.893241 0.618426
0.894719 0.894559 0.623642
0.993225 0.897103 0.626495
0.000000 1.000000 0.594070
0.089034 1.000000 0.600546
0.228500 1.000000 0.608527
0.365199 1.000000 0.617198
0.498837 1.000000 0.625697
0.629702 0.998751 0.633185
0.758669 0.998356 0.638822
0.887234 0.998735 0.641724
0.997441 1.000000 0.640469
0.001940 0.001940 0.742819
0.120943 0.002851 0.743729
0.249183 0.003832 0.744711
0.377378 0.004788 0.745785
0.505449 0.005549 0.747380
0.633798 0.006022 0.749408
0.764066 0.005861 0.752199
0.896770 0.005270 0.755050
0.991808 0.003417 0.758289
0.004778 0.116971 0.745992
0.122655 0.117213 0.747689
0.250127 0.117078 0.749974
0.378969 0.116581 0.753126
0.509966 0.115594 0.756763
0.643629 0.114030 0.760491
0.780097 0.111983 0.763839
0.918166 0.110534 0.765284
0.997943 0.107913 0.767434
0.004930 0.245404 0.754474
0.120261 0.245305 0.758128
0.250426 0.244875 0.761805
0.383147 0.243979 0.765136
0.518636 0.242605 0.767879
0.656874 0.240801 0.769859
0.797179 0.239037 0.770540
0.937374 0.238895 0.768196
0.996618 0.237669 0.767763
0.000000 0.377052 0.766156
0.114022 0.377137 0.768695
0.248172 0.376698 0.770368
0.385060 0.375880 0.771152
0.524362 0.374806 0.771037
0.665512 0.373649 0.770092
0.806524 0.373036 0.767613
0.945266 0.374002 0.762459
0.995360 0.373120 0.760892
0.000000 0.508679 0.768849
0.106121 0.510859 0.769440
0.244736 0.513318 0.769470
0.384577 0.512703 0.767957
0.524930 0.511269 0.766012
0.665127 0.509402 0.763915
0.803381 0.508497 0.760381
0.939120 0.509665 0.754354
0.994409 0.508569 0.752862
0.000000 0.639072 0.761094
0.100084 0.640945 0.760435
0.239515 0.642626 0.759845
0.378974 0.644218 0.759311
0.518423 0.645802 0.758776
0.657801 0.643948 0.756847
0.795586 0.642533 0.753690
0.929043 0.644181 0.746939
0.994002 0.642638 0.745853
0.000000 0.766719 0.750678
0.093403 0.768270 0.750166
0.232827 0.769556 0.749651
0.371993 0.770682 0.749216
0.510733 0.771742 0.748906
0.648919 0.772804 0.748764
0.785245 0.773386 0.749602
0.913552 0.774265 0.745690
0.994000 0.772376 0.746847
0.000000 0.892552 0.740611
0.087672 0.893368 0.740386
0.226832 0.894124 0.740519
0.365402 0.894760 0.742400
0.502098 0.895053 0.745858
0.636047 0.894884 0.750388
0.766925 0.894260 0.755459
0.893959 0.894152 0.759530
0.992916 0.897233 0.759054
0.000000 1.000000 0.736021
0.090036 1.000000 0.741267
0.229304 1.000000 0.747406
0.365659 1.000000 0.753880
0.498937 0.999547 0.760056
0.629554 0.998513 0.765318
0.758524 0.998414 0.769036
0.887454 0.998969 0.770576
0.997679 1.000000 0.769285
0.002273 0.002273 0.870411
0.121276 0.003184 0.871322
0.249516 0.004165 0.872303
0.377631 0.005074 0.873592
0.505661 0.005748 0.875562
0.634298 0.006051 0.878207
0.765303 0.005574 0.882033
0.899266 0.004239 0.886558
0.994537 0.002443 0.890679
0.005037 0.117133 0.873929
0.122522 0.117207 0.876027
0.250155 0.116956 0.879132
0.379363 0.116306 0.883364
0.510831 0.115130 0.888217
0.645016 0.113362 0.893247
0.782146 0.110998 0.898069
0.921991 0.108287 0.902140
0.998483 0.106338 0.904667
0.004467 0.245420 0.885135
0.119832 0.245208 0.890049
0.250349 0.244625 0.895044
0.383486 0.243565 0.899709
0.519399 0.242036 0.903750
0.658016 0.240108 0.906943
0.799031 0.237913 0.909135
0.941281 0.236164 0.909617
0.997691 0.236126 0.908600
0.000000 0.377141 0.901220
0.113191 0.377035 0.905020
0.247795 0.376458 0.907863
0.385101 0.375536 0.909665
0.524729 0.374414 0.910369
0.666001 0.373209 0.910049
0.807862 0.371644 0.909089
0.948395 0.370769 0.906402
0.996716 0.371283 0.903293
0.000000 0.511087 0.908722
0.105396 0.513639 0.910242
0.244350 0.513366 0.909765
0.384236 0.512271 0.908606
0.524488 0.510678 0.906965
0.664434 0.508694 0.904966
0.804097 0.506591 0.902863
0.942208 0.505762 0.899224
0.995783 0.506680 0.895204
0.000000 0.642066 0.903305
0.099152 0.643971 0.902979
0.238597 0.645607 0.902465
0.378057 0.647199 0.901931
0.517649 0.645449 0.899972
0.656940 0.643157 0.897775
0.795716 0.640790 0.895571
0.932290 0.639731 0.891852
0.995217 0.640836 0.887320
0.000000 0.769700 0.893298
0.092508 0.771171 0.892735
0.231920 0.772390 0.892092
0.371038 0.773484 0.891468
0.509708 0.774537 0.890919
0.647664 0.775508 0.890544
0.783448 0.772570 0.889421
0.915143 0.769670 0.888404
0.995126 0.770421 0.884990
0.000000 0.895255 0.882772
0.086977 0.896061 0.882295
0.226259 0.896737 0.882288
0.364777 0.897054 0.883415
0.501224 0.896862 0.885443
0.634838 0.896131 0.888073
0.765409 0.894956 0.890988
0.893297 0.893555 0.893882
0.997291 0.892962 0.894785
0.000000 1.000000 0.877041
0.091217 1.000000 0.880699
0.230238 1.000000 0.884805
0.366220 1.000000 0.889042
0.499128 0.999081 0.893008
0.629511 0.998385 0.896306
0.758524 0.998549 0.898505
0.887692 0.999207 0.899392
0.999453 1.000000 0.899638
0.002527 0.002527 0.967527
0.121529 0.003438 0.968438
0.249760 0.004415 0.969443
0.377764 0.005255 0.971174
0.505770 0.005841 0.973750
0.634894 0.005924 0.977689
0.766601 0.005161 0.983446
0.901364 0.003475 0.990392
0.997895 0.000855 0.997895
0.005190 0.117163 0.971718
0.122277 0.117087 0.974560
0.250147 0.116731 0.979280
0.379746 0.115931 0.985624
0.511702 0.114578 0.992976
0.646419 0.112627 1.000000
0.784067 0.110091 1.000000
0.924591 0.107049 1.000000
0.999920 0.104040 0.999920
0.003865 0.245367 0.988258
0.119344 0.245050 0.995793
0.250248 0.244329 1.000000
0.383822 0.243125 1.000000
0.520167 0.241465 1.000000
0.659158 0.239441 1.000000
0.800432 0.237204 1.000000
0.943398 0.234970 1.000000
0.999875 0.233705 0.999875
0.000000 0.377165 1.000000
0.112392 0.376934 1.000000
0.247467 0.376238 1.000000
0.385194 0.375236 1.000000
0.525141 0.374093 1.000000
0.666450 0.372792 1.000000
0.808145 0.371108 1.000000
0.949547 0.369145 1.000000
0.999833 0.368045 0.999833
0.000000 0.513774 1.000000
0.104907 0.513853 1.000000
0.243998 0.513128 1.000000
0.383897 0.511855 1.000000
0.524028 0.510114 1.000000
0.663793 0.508053 1.000000
0.803456 0.505950 1.000000
0.943016 0.503830 1.000000
0.999804 0.502654 0.999804
0.000000 0.645172 1.000000
0.098285 0.647053 1.000000
0.237752 0.648660 1.000000
0.377394 0.646950 1.000000
0.516946 0.644757 1.000000
0.656129 0.642430 1.000000
0.794777 0.640055 1.000000
0.932781 0.637703 1.000000
0.999794 0.636276 0.999794
0.000000 0.772700 1.000000
0.091674 0.774090 1.000000
0.231078 0.775264 1.000000
0.370155 0.776341 1.000000
0.508763 0.777404 1.000000
0.646512 0.774883 1.000000
0.781634 0.771451 1.000000
0.913248 0.768096 1.000000
0.999794 0.765644 0.999794
0.000000 0.897968 1.000000
0.086358 0.898776 1.000000
0.225866 0.899243 1.000000
0.364323 0.899139 1.000000
0.500516 0.898397 1.000000
0.633791 0.897073 1.000000
0.764060 0.895355 1.000000
0.891813 0.892837 0.999233
0.998509 0.891472 0.998509
0.000000 1.000000 1.000000
0.092594 1.000000 1.000000
0.231308 1.000000 1.000000
0.366869 1.000000 1.000000
0.499374 0.998712 0.998712
0.629516 0.998314 0.998314
0.758605 0.998694 0.998694
0.887876 0.999392 0.999392
1.000000 1.000000 1.000000
