assets/LUTs/chatgpt_morena_warm_natural_fcp.cube
TITLE "Morena Warm Natural - FCP"
# Morena / brown skin friendly creative LUT
# Target: Rec.709 SDR footage after exposure/WB correction
# Suggested FCP Custom LUT Mix: 30-70%, usually 40%
LUT_3D_SIZE 5
DOMAIN_MIN 0.0 0.0 0.0
DOMAIN_MAX 1.0 1.0 1.0
0.000000 0.000000 0.000000
0.247243 0.001892 0.001892
0.503724 0.003854 0.003854
0.760290 0.005644 0.005508
0.978643 0.005983 0.005278
0.005670 0.244985 0.005670
0.250158 0.245157 0.004749
0.512345 0.245812 0.000000
0.785750 0.244122 0.000000
0.997428 0.241200 0.000000
0.000000 0.498703 0.000000
0.247064 0.498628 0.000000
0.523966 0.502093 0.000000
0.803829 0.507170 0.000000
0.994935 0.511840 0.000000
0.000000 0.748564 0.000000
0.238038 0.751726 0.000000
0.516677 0.754580 0.000000
0.789734 0.760079 0.000000
0.994000 0.764853 0.000000
0.000000 0.999742 0.000000
0.226789 1.000000 0.000000
0.499921 1.000000 0.000000
0.761848 0.999613 0.002761
0.996459 0.999940 0.019209
0.000607 0.000607 0.232448
0.247850 0.002499 0.234340
0.504329 0.004460 0.236302
0.760931 0.006025 0.237948
0.982517 0.005504 0.237760
0.005760 0.245061 0.238231
0.250437 0.245352 0.237693
0.513925 0.245469 0.232646
0.789119 0.243207 0.224920
0.997158 0.240074 0.215342
0.000000 0.501215 0.218393
0.246385 0.502794 0.209293
0.524139 0.507680 0.200077
0.802835 0.513593 0.192991
0.994741 0.511192 0.188994
0.000000 0.754795 0.180198
0.236516 0.757990 0.179171
0.514897 0.760535 0.179202
0.787933 0.765584 0.177357
0.994000 0.770192 0.184993
0.000000 1.000000 0.165537
0.226965 1.000000 0.183826
0.499186 1.000000 0.213452
0.760063 0.998767 0.241507
0.996731 1.000000 0.253938
0.001274 0.001274 0.487634
0.248517 0.003165 0.489525
0.504936 0.005060 0.491598
0.761930 0.006270 0.494109
0.986982 0.004668 0.496532
0.005544 0.245285 0.495264
0.250483 0.245215 0.498075
0.516824 0.243740 0.498837
0.792212 0.242081 0.494836
0.996888 0.238833 0.490162
0.000000 0.504509 0.491690
0.245581 0.507679 0.488019
0.525547 0.511943 0.484664
0.801374 0.512789 0.474842
0.994565 0.509907 0.470926
0.000000 0.760757 0.465438
0.234666 0.763826 0.464493
0.512809 0.766149 0.464346
0.785694 0.770770 0.462511
0.994000 0.774374 0.469222
0.000000 1.000000 0.451576
0.227837 1.000000 0.468229
0.498840 1.000000 0.489842
0.758969 0.998389 0.507627
0.997203 1.000000 0.511653
0.001940 0.001940 0.742819
0.249183 0.003832 0.744711
0.505449 0.005549 0.747380
0.764066 0.005861 0.752199
0.991808 0.003417 0.758289
0.004930 0.245404 0.754474
0.250426 0.244875 0.761805
0.518636 0.242605 0.767879
0.797179 0.239037 0.770540
0.996618 0.237669 0.767763
0.000000 0.508679 0.768849
0.244736 0.513318 0.769470
0.524930 0.511269 0.766012
0.803381 0.508497 0.760381
0.994409 0.508569 0.752862
0.000000 0.766719 0.750678
0.232827 0.769556 0.749651
0.510733 0.771742 0.748906
0.785245 0.773386 0.749602
0.994000 0.772376 0.746847
0.000000 1.000000 0.736021
0.229304 1.000000 0.747406
0.498937 0.999547 0.760056
0.758524 0.998414 0.769036
0.997679 1.000000 0.769285
0.002527 0.002527 0.967527
0.249760 0.004415 0.969443
0.505770 0.005841 0.973750
0.766601 0.005161 0.983446
0.997895 0.000855 0.997895
0.003865 0.245367 0.988258
0.250248 0.244329 1.000000
0.520167 0.241465 1.000000
0.800432 0.237204 1.000000
0.999875 0.233705 0.999875
0.000000 0.513774 1.000000
0.243998 0.513128 1.000000
0.524028 0.510114 1.000000
0.803456 0.505950 1.000000
0.999804 0.502654 0.999804
0.000000 0.772700 1.000000
0.231078 0.775264 1.000000
0.508763 0.777404 1.000000
0.781634 0.771451 1.000000
0.999794 0.765644 0.999794
0.000000 1.000000 1.000000
0.231308 1.000000 1.000000
0.499374 0.998712 0.998712
0.758605 0.998694 0.998694
1.000000 1.000000 1.000000
