assets/LUTs/chatgpt-morena_soft_neutral_fcp_tuned.cube
TITLE "Morena Soft Neutral - FCP Tuned"
# Tuned for warm/pink indoor morena skin footage
# Target: Rec.709 SDR footage after basic exposure/WB correction
# Suggested FCP Custom LUT Mix: 35-65%, usually 45%
LUT_3D_SIZE 9
DOMAIN_MIN 0.0 0.0 0.0
DOMAIN_MAX 1.0 1.0 1.0
0.000000 0.000000 0.000000
0.125625 0.000000 0.000000
0.253750 0.000000 0.000000
0.381875 0.000000 0.000000
0.509989 0.000000 0.000000
0.637830 0.000000 0.000000
0.765343 0.000000 0.000000
0.892558 0.000021 0.000000
0.999796 0.000081 0.000000
0.000000 0.124625 0.000000
0.125553 0.124560 0.000000
0.253267 0.124190 0.000000
0.380670 0.123549 0.000000
0.507851 0.122809 0.000000
0.635227 0.122339 0.000000
0.763055 0.122098 0.000000
0.891593 0.121986 0.000000
1.000000 0.121958 0.000000
0.000000 0.251382 0.000000
0.123329 0.250667 0.000000
0.250874 0.250256 0.000000
0.378398 0.250194 0.000000
0.506636 0.250366 0.000000
0.635482 0.250579 0.000000
0.765022 0.250854 0.000000
0.895291 0.251148 0.000000
1.000000 0.251485 0.000000
0.000000 0.377505 0.000000
0.122465 0.377016 0.000000
0.251153 0.376789 0.000000
0.379654 0.377250 0.000000
0.507640 0.378621 0.000000
0.637686 0.379960 0.000000
0.768328 0.381808 0.000000
0.899196 0.382071 0.000000
1.000000 0.381903 0.000000
0.000000 0.501795 0.000000
0.122268 0.501426 0.000000
0.252003 0.501560 0.000000
0.382290 0.502145 0.000000
0.510916 0.503561 0.000000
0.637550 0.505784 0.000000
0.767569 0.507200 0.000000
0.897783 0.508972 0.000000
1.000000 0.510621 0.000000
0.000000 0.623203 0.000000
0.120840 0.622925 0.000000
0.250455 0.622955 0.000000
0.380533 0.623577 0.000000
0.510955 0.624768 0.000000
0.638707 0.627472 0.000000
0.762821 0.630743 0.000000
0.889885 0.631325 0.000000
0.997377 0.631099 0.000000
0.000000 0.741874 0.000000
0.117005 0.742884 0.000000
0.247444 0.744536 0.000000
0.376755 0.745326 0.000000
0.504587 0.745216 0.000000
0.631053 0.744626 0.000000
0.753168 0.745098 0.000000
0.870918 0.747120 0.000000
0.990991 0.747951 0.000000
0.000000 0.862653 0.000000
0.111193 0.861941 0.000000
0.238691 0.860838 0.000000
0.365377 0.859715 0.000000
0.491533 0.859196 0.000000
0.617608 0.860914 0.000000
0.742815 0.864215 0.006579
0.862777 0.868648 0.016087
0.975296 0.874412 0.028632
0.000000 0.963023 0.000000
0.104098 0.964813 0.000000
0.233215 0.969383 0.001507
0.362084 0.974951 0.009818
0.488906 0.980622 0.020585
0.613114 0.985854 0.035949
0.734776 0.990162 0.051086
0.854524 0.993245 0.064082
0.971724 0.995743 0.072725
0.000000 0.000000 0.123625
0.125625 0.000000 0.123625
0.253750 0.000000 0.123625
0.381875 0.000000 0.123625
0.509933 0.000000 0.123572
0.637656 0.000000 0.123249
0.765067 0.000002 0.122682
0.892248 0.000037 0.121879
0.999724 0.000110 0.120771
0.000000 0.124625 0.123625
0.125451 0.124469 0.123486
0.253054 0.123999 0.123069
0.380352 0.123287 0.122422
0.507570 0.122616 0.121509
0.635051 0.122239 0.120298
0.763076 0.122049 0.118795
0.891823 0.121968 0.117033
1.000000 0.121958 0.115088
0.000000 0.251108 0.122140
0.123142 0.250486 0.121143
0.250836 0.250133 0.119859
0.378324 0.250284 0.118181
0.506690 0.250431 0.116339
0.635679 0.250672 0.114320
0.765363 0.250961 0.112202
0.895768 0.251257 0.110075
1.000000 0.251594 0.108106
0.000000 0.377424 0.117722
0.122446 0.377107 0.115898
0.251240 0.377120 0.113936
0.379789 0.377894 0.111741
0.507758 0.379629 0.109328
0.637899 0.381298 0.107357
0.768566 0.381992 0.105591
0.899324 0.382059 0.103896
1.000000 0.381747 0.102444
0.000000 0.502145 0.111208
0.122236 0.502081 0.109289
0.252074 0.502543 0.107551
0.382328 0.503352 0.105958
0.510769 0.504963 0.104057
0.637219 0.507441 0.101862
0.767250 0.509083 0.100396
0.897439 0.511013 0.099091
1.000000 0.511192 0.098225
0.000000 0.624105 0.105518
0.120413 0.624023 0.104085
0.250100 0.624358 0.102735
0.380246 0.625264 0.101473
0.510708 0.626682 0.100394
0.638283 0.629472 0.099096
0.761641 0.632437 0.098524
0.888175 0.632816 0.100311
0.996680 0.632542 0.103281
0.000000 0.743495 0.101284
0.116713 0.744808 0.100314
0.246948 0.746337 0.099950
0.375816 0.746787 0.100990
0.503281 0.746491 0.103273
0.629473 0.745860 0.106555
0.751447 0.746417 0.109934
0.869077 0.748768 0.113191
0.990322 0.750023 0.119149
0.000000 0.863946 0.101887
0.110244 0.863046 0.104555
0.237608 0.861922 0.108099
0.364250 0.860917 0.112267
0.490597 0.861026 0.117244
0.616890 0.863284 0.123720
0.741824 0.866536 0.133155
0.861365 0.870534 0.144887
0.973502 0.875816 0.157160
0.000000 0.964957 0.114036
0.104235 0.967613 0.119474
0.233823 0.972494 0.126696
0.362661 0.977912 0.137160
0.489193 0.983185 0.150026
0.613064 0.987830 0.163847
0.734467 0.991503 0.177008
0.854169 0.993989 0.187756
0.971613 0.996241 0.194652
0.000000 0.000000 0.251750
0.125625 0.000000 0.251750
0.253750 0.000000 0.251750
0.381875 0.000000 0.251750
0.509835 0.000000 0.251618
0.637446 0.000000 0.251207
0.764751 0.000009 0.250565
0.891965 0.000058 0.249660
0.999690 0.000129 0.248464
0.000000 0.124611 0.251737
0.125310 0.124341 0.251498
0.252810 0.123779 0.250998
0.380025 0.123021 0.250276
0.507317 0.122458 0.249253
0.634934 0.122158 0.247974
0.763150 0.122012 0.246497
0.892098 0.121955 0.244857
1.000000 0.121956 0.243121
0.000000 0.250867 0.249959
0.122990 0.250334 0.248871
0.250874 0.250050 0.247572
0.378683 0.250157 0.245999
0.506762 0.250505 0.244228
0.635887 0.250767 0.242444
0.765707 0.251062 0.240630
0.896237 0.251354 0.238868
1.000000 0.251686 0.237318
0.000000 0.377442 0.245531
0.122427 0.377349 0.243897
0.251324 0.377653 0.242198
0.380269 0.378652 0.240388
0.507856 0.380932 0.238258
0.638095 0.381690 0.236723
0.768716 0.382070 0.235329
0.899343 0.381966 0.233987
1.000000 0.381559 0.232849
0.000000 0.502755 0.239938
0.122183 0.503044 0.238420
0.252093 0.503853 0.237104
0.382276 0.504885 0.235855
0.510516 0.506702 0.234282
0.636837 0.509488 0.232328
0.766873 0.511343 0.231093
0.897067 0.511368 0.230014
1.000000 0.510983 0.229350
0.000000 0.625352 0.235553
0.119940 0.625516 0.234444
0.249712 0.626174 0.233344
0.379925 0.627350 0.232294
0.510426 0.628965 0.231382
0.637610 0.631637 0.230361
0.760266 0.634337 0.230050
0.886330 0.634539 0.231910
0.995970 0.634233 0.234746
0.000000 0.745539 0.232177
0.116420 0.747125 0.231350
0.246278 0.748304 0.231353
0.374748 0.748452 0.232590
0.501894 0.747996 0.234864
0.627869 0.747338 0.237950
0.749765 0.747987 0.240974
0.867311 0.750708 0.243937
0.989658 0.752188 0.249475
0.000000 0.865441 0.233493
0.109273 0.864377 0.236083
0.236547 0.863247 0.239366
0.363201 0.862386 0.243132
0.489853 0.863178 0.247832
0.616274 0.865703 0.254032
0.740840 0.868667 0.263079
0.860007 0.872143 0.273812
0.971827 0.876940 0.284547
0.000000 0.967369 0.244801
0.104667 0.970661 0.249822
0.234674 0.975567 0.256885
0.363343 0.980676 0.266755
0.489560 0.985449 0.278424
0.613089 0.989498 0.290583
0.734249 0.992572 0.301772
0.853952 0.994542 0.310402
0.971631 0.996778 0.316065
0.000000 0.000000 0.379875
0.125625 0.000000 0.379875
0.253750 0.000000 0.379875
0.381862 0.000000 0.379864
0.509696 0.000000 0.379632
0.637204 0.000000 0.379138
0.764415 0.000021 0.378420
0.891709 0.000083 0.377407
0.999711 0.000129 0.376160
0.000000 0.124556 0.379814
0.125131 0.124180 0.379480
0.252536 0.123532 0.378904
0.379802 0.122761 0.378106
0.507131 0.122317 0.376976
0.634869 0.122095 0.375678
0.763272 0.121986 0.374289
0.892414 0.121946 0.372824
1.000000 0.121955 0.371341
0.000000 0.250657 0.377743
0.122866 0.250212 0.376587
0.250848 0.250000 0.375320
0.379253 0.249964 0.373967
0.507026 0.250517 0.372313
0.636106 0.250866 0.370768
0.766057 0.251163 0.369291
0.896703 0.251448 0.367916
1.000000 0.251775 0.366800
0.000000 0.377568 0.373471
0.122409 0.377734 0.372072
0.251409 0.378353 0.370673
0.381051 0.379477 0.369336
0.509154 0.380813 0.367698
0.638260 0.381869 0.366348
0.768791 0.382092 0.365298
0.899270 0.381811 0.364297
1.000000 0.381365 0.363425
0.000000 0.503544 0.368918
0.122121 0.504195 0.367816
0.252052 0.505305 0.366888
0.382151 0.506542 0.365975
0.510891 0.508330 0.364831
0.636434 0.511655 0.362948
0.766509 0.511675 0.361941
0.896677 0.511209 0.361018
1.000000 0.510651 0.360596
0.000000 0.626728 0.365807
0.119466 0.627169 0.364976
0.249327 0.628123 0.364092
0.379608 0.629532 0.363214
0.510147 0.631299 0.362419
0.636749 0.633681 0.361700
0.758754 0.636162 0.361525
0.884403 0.636231 0.363347
0.995295 0.634094 0.365981
0.000000 0.747699 0.363150
0.116050 0.749373 0.362486
0.245489 0.750152 0.362777
0.373603 0.750047 0.364094
0.500475 0.749477 0.366256
0.626279 0.748835 0.369061
0.748152 0.749618 0.371671
0.865660 0.752700 0.374260
0.988933 0.754243 0.379409
0.000000 0.866872 0.364962
0.108318 0.865690 0.367378
0.235541 0.864599 0.370324
0.362333 0.864083 0.373702
0.489325 0.865426 0.377912
0.615768 0.868002 0.383811
0.739882 0.870523 0.392172
0.858721 0.873463 0.401688
0.970288 0.877807 0.410789
0.000000 0.970028 0.375207
0.105404 0.973703 0.379717
0.235669 0.978457 0.386445
0.364123 0.983171 0.395435
0.489999 0.987408 0.405732
0.613181 0.990874 0.416175
0.734117 0.993407 0.425462
0.853858 0.995024 0.432304
0.971784 0.997348 0.437002
0.000000 0.000000 0.508000
0.125625 0.000000 0.508000
0.253750 0.000000 0.508000
0.381804 0.000000 0.507943
0.509520 0.000000 0.507616
0.636926 0.000002 0.507044
0.764106 0.000038 0.506236
0.891481 0.000112 0.505124
0.999783 0.000110 0.503894
0.000000 0.124463 0.507856
0.124917 0.123988 0.507433
0.252235 0.123261 0.506788
0.379583 0.122546 0.505894
0.507256 0.122095 0.504747
0.634943 0.122010 0.503461
0.763437 0.121967 0.502199
0.892765 0.121940 0.500955
1.000000 0.121953 0.499766
0.000000 0.250477 0.505497
0.122764 0.250118 0.504324
0.250846 0.249967 0.503152
0.379426 0.249949 0.501988
0.508489 0.250062 0.500816
0.636565 0.250874 0.499355
0.766408 0.251262 0.498195
0.897162 0.251539 0.497226
1.000000 0.251844 0.496541
0.000000 0.377819 0.501566
0.122390 0.378274 0.500442
0.251492 0.379229 0.499375
0.381248 0.379680 0.498425
0.511423 0.380150 0.497602
0.638709 0.381859 0.496275
0.768785 0.382056 0.495490
0.899143 0.381627 0.494798
1.000000 0.381166 0.494152
0.000000 0.504517 0.498154
0.122050 0.505534 0.497478
0.251947 0.506893 0.496898
0.381950 0.508311 0.496310
0.512060 0.509802 0.495710
0.638151 0.511128 0.494158
0.766133 0.511518 0.492893
0.896263 0.511054 0.492064
1.000000 0.510212 0.491895
0.000000 0.628226 0.496266
0.118997 0.628971 0.495664
0.248948 0.630189 0.494960
0.379298 0.631791 0.494207
0.509754 0.633570 0.493535
0.636790 0.635237 0.493262
0.757127 0.637926 0.492893
0.882445 0.635824 0.494607
0.994643 0.633202 0.496934
0.000000 0.749954 0.494177
0.115545 0.751467 0.493712
0.244602 0.751897 0.494166
0.372400 0.751587 0.495451
0.499043 0.750948 0.497408
0.624724 0.750365 0.499858
0.746625 0.751362 0.502044
0.864156 0.754684 0.504056
0.987103 0.756127 0.508772
0.000000 0.868256 0.496249
0.107397 0.867000 0.498404
0.234605 0.865994 0.500943
0.361680 0.865970 0.503884
0.488987 0.867672 0.507487
0.615290 0.870063 0.512926
0.738967 0.872092 0.520332
0.857520 0.874504 0.528475
0.968902 0.878449 0.535912
0.000000 0.972835 0.505139
0.106461 0.976635 0.509138
0.236795 0.981124 0.515237
0.364992 0.985382 0.523119
0.490502 0.989069 0.531934
0.613330 0.991985 0.540672
0.734064 0.994054 0.548195
0.853869 0.995543 0.553724
0.972081 0.997948 0.557517
0.000000 0.000000 0.636125
0.125625 0.000000 0.636125
0.253750 0.000000 0.636125
0.381703 0.000000 0.635988
0.509308 0.000000 0.635572
0.636631 0.000001 0.634930
0.763846 0.000051 0.634019
0.891322 0.000129 0.632841
0.999901 0.000069 0.631696
0.000000 0.124333 0.635866
0.124671 0.123766 0.635361
0.251932 0.122988 0.634645
0.379395 0.122364 0.633649
0.507239 0.121968 0.632509
0.635620 0.121714 0.631447
0.763787 0.121895 0.630280
0.893146 0.121936 0.629272
1.000000 0.121950 0.628410
0.000000 0.250327 0.633226
0.122682 0.250047 0.632116
0.250864 0.249949 0.631097
0.379569 0.249963 0.630159
0.508915 0.250030 0.629308
0.638737 0.250200 0.628515
0.767038 0.251247 0.627408
0.897612 0.251625 0.626802
1.000000 0.251865 0.626513
0.000000 0.378210 0.629836
0.122369 0.378979 0.629023
0.251577 0.379417 0.628321
0.381443 0.379810 0.627773
0.511969 0.380166 0.627431
0.642357 0.380493 0.627088
0.769098 0.381799 0.625979
0.898985 0.381435 0.625466
1.000000 0.380965 0.625010
0.000000 0.505678 0.627651
0.121944 0.507038 0.627388
0.251775 0.508607 0.627129
0.381674 0.510183 0.626847
0.511850 0.509805 0.626494
0.641874 0.509342 0.625896
0.766311 0.511132 0.624026
0.895708 0.510839 0.623169
1.000000 0.509681 0.623188
0.000000 0.629873 0.626902
0.118534 0.630908 0.626489
0.248579 0.632355 0.625922
0.378999 0.634105 0.625246
0.509164 0.635706 0.624725
0.637659 0.636354 0.624972
0.759185 0.636096 0.624890
0.880454 0.634906 0.625624
0.994010 0.632349 0.627565
0.000000 0.752280 0.625227
0.114922 0.753427 0.624964
0.243634 0.753557 0.625463
0.371158 0.753089 0.626615
0.497616 0.752425 0.628284
0.623222 0.751942 0.630313
0.747010 0.752521 0.632361
0.862753 0.756592 0.633305
0.985175 0.756220 0.637424
0.000000 0.869608 0.627310
0.106525 0.868324 0.629127
0.233771 0.867464 0.631204
0.361259 0.867973 0.633565
0.488807 0.869821 0.636546
0.614846 0.871854 0.641244
0.738111 0.873373 0.647483
0.856419 0.875286 0.654164
0.967683 0.878906 0.659972
0.000000 0.975700 0.634504
0.107799 0.979406 0.637924
0.238044 0.983539 0.643148
0.365939 0.987300 0.649757
0.491054 0.990445 0.657043
0.613523 0.992865 0.664154
0.734082 0.994568 0.670117
0.853991 0.996096 0.674702
0.972528 0.998573 0.677673
0.000000 0.000000 0.764250
0.125625 0.000000 0.764250
0.253735 0.000000 0.764238
0.381563 0.000000 0.764000
0.509064 0.000000 0.763501
0.636328 0.000000 0.762790
0.763769 0.000005 0.761799
0.891306 0.000103 0.760609
1.000000 0.000006 0.759598
0.000000 0.124170 0.763846
0.124395 0.123518 0.763266
0.251670 0.122746 0.762464
0.379244 0.122211 0.761381
0.507249 0.121864 0.760329
0.635871 0.121614 0.759457
0.765122 0.121448 0.758717
0.893757 0.121849 0.757834
1.000000 0.121943 0.757288
0.000000 0.250206 0.760975
0.122615 0.249997 0.759992
0.250899 0.249944 0.759178
0.379729 0.249982 0.758513
0.509210 0.250057 0.757988
0.639399 0.250131 0.757612
0.769960 0.250313 0.757340
0.898374 0.251579 0.756711
1.000000 0.251835 0.756711
0.000000 0.378754 0.758300
0.122347 0.379149 0.757833
0.251660 0.379553 0.757517
0.381632 0.379936 0.757385
0.512233 0.380255 0.757462
0.643084 0.380206 0.757550
0.773257 0.379914 0.757460
0.899266 0.381050 0.756379
1.000000 0.380764 0.755977
0.000000 0.507026 0.757413
0.121779 0.508680 0.757522
0.251535 0.510438 0.757572
0.381398 0.510198 0.757585
0.511633 0.509587 0.757417
0.642192 0.508902 0.757044
0.771959 0.508563 0.756302
0.895550 0.510245 0.754463
0.999913 0.509073 0.754415
0.000000 0.631670 0.757691
0.118082 0.632964 0.757430
0.248223 0.634601 0.756954
0.378713 0.636447 0.756299
0.508400 0.637723 0.755926
0.636439 0.635731 0.756215
0.762485 0.633184 0.756952
0.879925 0.633410 0.756653
0.993400 0.631546 0.757847
0.000000 0.754521 0.756328
0.114200 0.755267 0.756182
0.242606 0.755147 0.756617
0.369896 0.754567 0.757546
0.496214 0.753922 0.758852
0.621794 0.753582 0.760403
0.746958 0.753861 0.762038
0.867568 0.754090 0.763229
0.983177 0.756106 0.765243
0.000000 0.870945 0.758108
0.105715 0.869676 0.759519
0.233157 0.869115 0.761067
0.361081 0.870026 0.762652
0.488779 0.871818 0.764928
0.614450 0.873360 0.768656
0.737324 0.874372 0.773582
0.857146 0.875156 0.779116
0.966646 0.879226 0.783059
0.001792 0.978510 0.763302
0.109315 0.981972 0.765961
0.239403 0.985682 0.770095
0.366947 0.988927 0.775328
0.491639 0.991560 0.781103
0.613748 0.993557 0.786731
0.734172 0.995052 0.791464
0.854231 0.996680 0.795289
0.973127 0.999216 0.797551
0.000000 0.000000 0.892375
0.125625 0.000000 0.892375
0.253675 0.000000 0.892315
0.381384 0.000000 0.891982
0.508791 0.000000 0.891407
0.636062 0.000000 0.890612
0.763630 0.000000 0.889534
0.891761 0.000000 0.888528
1.000000 0.000000 0.887668
0.000000 0.123976 0.891798
0.124092 0.123246 0.891149
0.251446 0.122535 0.890249
0.379140 0.122078 0.889137
0.507306 0.121771 0.888243
0.636108 0.121540 0.887601
0.765654 0.121335 0.887173
0.895821 0.121190 0.886901
1.000000 0.121715 0.886519
0.000000 0.250113 0.888780
0.122562 0.249965 0.887982
0.250948 0.249950 0.887422
0.379901 0.250006 0.887066
0.509514 0.250084 0.886898
0.639833 0.250150 0.886916
0.770855 0.250182 0.887131
0.902034 0.250341 0.887462
1.000000 0.251375 0.887317
0.000000 0.378883 0.886978
0.122321 0.379287 0.886883
0.251739 0.379687 0.886970
0.381815 0.380057 0.887263
0.512436 0.380292 0.887720
0.643193 0.380076 0.888116
0.773925 0.379375 0.888423
0.904090 0.378840 0.888340
1.000000 0.380013 0.887306
0.000000 0.508562 0.887439
0.121553 0.510453 0.887876
0.251249 0.510528 0.888241
0.381117 0.510002 0.888481
0.511408 0.509361 0.888453
0.641989 0.508661 0.888153
0.772665 0.507959 0.887593
0.901200 0.507143 0.886966
1.000000 0.507672 0.885893
0.000000 0.633604 0.888615
0.117645 0.635124 0.888464
0.247885 0.636905 0.888028
0.378322 0.638710 0.887384
0.507522 0.637277 0.887120
0.635114 0.634845 0.887305
0.761226 0.632052 0.887864
0.885633 0.629452 0.888615
0.995254 0.629834 0.888247
0.000000 0.756612 0.887454
0.113398 0.757007 0.887311
0.241535 0.756683 0.887583
0.368632 0.756036 0.888205
0.494853 0.755452 0.889085
0.620483 0.755286 0.890069
0.745808 0.753311 0.890849
0.869861 0.752413 0.891918
0.984397 0.754744 0.892775
0.000000 0.872282 0.888609
0.104983 0.871072 0.889556
0.232797 0.870900 0.890429
0.361129 0.872032 0.891125
0.488813 0.873554 0.892526
0.614111 0.874575 0.895084
0.736615 0.875105 0.898613
0.856617 0.875351 0.902768
0.973278 0.876379 0.906763
0.004372 0.981177 0.891465
0.110991 0.984300 0.893134
0.240856 0.987541 0.896020
0.368000 0.990275 0.899839
0.492241 0.992445 0.904189
0.613989 0.994113 0.908545
0.734347 0.995572 0.912393
0.854594 0.997290 0.915547
0.975297 0.999245 0.917654
0.000000 0.000000 1.000000
0.125625 0.000000 1.000000
0.253572 0.000000 1.000000
0.381171 0.000000 1.000000
0.508490 0.000000 1.000000
0.635836 0.000000 1.000000
0.763550 0.000000 1.000000
0.891975 0.000000 1.000000
1.000000 0.000000 1.000000
0.000000 0.123753 1.000000
0.123792 0.122973 1.000000
0.251260 0.122355 1.000000
0.379081 0.121962 1.000000
0.507407 0.121689 1.000000
0.636386 0.121473 1.000000
0.766114 0.121268 1.000000
0.896639 0.121041 1.000000
1.000000 0.120878 1.000000
0.000000 0.250044 1.000000
0.122523 0.249951 1.000000
0.251013 0.249967 1.000000
0.380088 0.250037 1.000000
0.509832 0.250116 1.000000
0.640277 0.250173 1.000000
0.771409 0.250192 1.000000
0.903075 0.250087 1.000000
1.000000 0.249766 1.000000
0.000000 0.379020 1.000000
0.122298 0.379431 1.000000
0.251821 0.379825 1.000000
0.382000 0.380181 1.000000
0.512586 0.380285 1.000000
0.643236 0.379898 1.000000
0.773918 0.379107 1.000000
0.904848 0.378255 1.000000
1.000000 0.377702 1.000000
0.000000 0.510157 1.000000
0.121296 0.510658 1.000000
0.250914 0.510383 1.000000
0.380844 0.509807 1.000000
0.511190 0.509142 1.000000
0.641791 0.508435 1.000000
0.772315 0.507676 1.000000
0.901114 0.506175 1.000000
1.000000 0.504341 1.000000
0.000000 0.635516 1.000000
0.117245 0.637216 1.000000
0.247588 0.639090 1.000000
0.377813 0.638508 1.000000
0.506530 0.636532 1.000000
0.633717 0.633934 1.000000
0.759525 0.631104 1.000000
0.884202 0.628408 1.000000
1.000000 0.626442 1.000000
0.000000 0.758408 1.000000
0.112552 0.758474 1.000000
0.240458 0.757962 1.000000
0.367402 0.757254 1.000000
0.493568 0.756728 1.000000
0.619336 0.754507 1.000000
0.744763 0.752884 0.999555
0.868394 0.752235 0.997426
0.988482 0.752231 0.995393
0.000000 0.873361 1.000000
0.104379 0.872222 1.000000
0.232706 0.872410 1.000000
0.361382 0.873577 0.998767
0.488881 0.874693 0.996626
0.613775 0.875228 0.994838
0.735893 0.875367 0.993722
0.855667 0.875244 0.993443
0.974151 0.875784 0.994055
0.007285 0.983329 0.997908
0.112767 0.986066 0.995692
0.242307 0.988854 0.994087
0.368963 0.991148 0.993305
0.492692 0.992961 0.993435
0.614057 0.994418 0.994418
0.734415 0.995933 0.995933
0.854878 0.997717 0.997717
0.975906 0.999621 0.999621
