assets/LUTs/chatgpt-morena_soft_neutral_fcp_tuned.cube
TITLE "Morena Soft Neutral - FCP Tuned"
# Tuned for warm/pink indoor morena skin footage
# Target: Rec.709 SDR footage after basic exposure/WB correction
# Suggested FCP Custom LUT Mix: 35-65%, usually 45%
LUT_3D_SIZE 5
DOMAIN_MIN 0.0 0.0 0.0
DOMAIN_MAX 1.0 1.0 1.0
0.000000 0.000000 0.000000
0.253750 0.000000 0.000000
0.509989 0.000000 0.000000
0.765343 0.000000 0.000000
0.999796 0.000081 0.000000
0.000000 0.251382 0.000000
0.250874 0.250256 0.000000
0.506636 0.250366 0.000000
0.765022 0.250854 0.000000
1.000000 0.251485 0.000000
0.000000 0.501795 0.000000
0.252003 0.501560 0.000000
0.510916 0.503561 0.000000
0.767569 0.507200 0.000000
1.000000 0.510621 0.000000
0.000000 0.741874 0.000000
0.247444 0.744536 0.000000
0.504587 0.745216 0.000000
0.753168 0.745098 0.000000
0.990991 0.747951 0.000000
0.000000 0.963023 0.000000
0.233215 0.969383 0.001507
0.488906 0.980622 0.020585
0.734776 0.990162 0.051086
0.971724 0.995743 0.072725
0.000000 0.000000 0.251750
0.253750 0.000000 0.251750
0.509835 0.000000 0.251618
0.764751 0.000009 0.250565
0.999690 0.000129 0.248464
0.000000 0.250867 0.249959
0.250874 0.250050 0.247572
0.506762 0.250505 0.244228
0.765707 0.251062 0.240630
1.000000 0.251686 0.237318
0.000000 0.502755 0.239938
0.252093 0.503853 0.237104
0.510516 0.506702 0.234282
0.766873 0.511343 0.231093
1.000000 0.510983 0.229350
0.000000 0.745539 0.232177
0.246278 0.748304 0.231353
0.501894 0.747996 0.234864
0.749765 0.747987 0.240974
0.989658 0.752188 0.249475
0.000000 0.967369 0.244801
0.234674 0.975567 0.256885
0.489560 0.985449 0.278424
0.734249 0.992572 0.301772
0.971631 0.996778 0.316065
0.000000 0.000000 0.508000
0.253750 0.000000 0.508000
0.509520 0.000000 0.507616
0.764106 0.000038 0.506236
0.999783 0.000110 0.503894
0.000000 0.250477 0.505497
0.250846 0.249967 0.503152
0.508489 0.250062 0.500816
0.766408 0.251262 0.498195
1.000000 0.251844 0.496541
0.000000 0.504517 0.498154
0.251947 0.506893 0.496898
0.512060 0.509802 0.495710
0.766133 0.511518 0.492893
1.000000 0.510212 0.491895
0.000000 0.749954 0.494177
0.244602 0.751897 0.494166
0.499043 0.750948 0.497408
0.746625 0.751362 0.502044
0.987103 0.756127 0.508772
0.000000 0.972835 0.505139
0.236795 0.981124 0.515237
0.490502 0.989069 0.531934
0.734064 0.994054 0.548195
0.972081 0.997948 0.557517
0.000000 0.000000 0.764250
0.253735 0.000000 0.764238
0.509064 0.000000 0.763501
0.763769 0.000005 0.761799
1.000000 0.000006 0.759598
0.000000 0.250206 0.760975
0.250899 0.249944 0.759178
0.509210 0.250057 0.757988
0.769960 0.250313 0.757340
1.000000 0.251835 0.756711
0.000000 0.507026 0.757413
0.251535 0.510438 0.757572
0.511633 0.509587 0.757417
0.771959 0.508563 0.756302
0.999913 0.509073 0.754415
0.000000 0.754521 0.756328
0.242606 0.755147 0.756617
0.496214 0.753922 0.758852
0.746958 0.753861 0.762038
0.983177 0.756106 0.765243
0.001792 0.978510 0.763302
0.239403 0.985682 0.770095
0.491639 0.991560 0.781103
0.734172 0.995052 0.791464
0.973127 0.999216 0.797551
0.000000 0.000000 1.000000
0.253572 0.000000 1.000000
0.508490 0.000000 1.000000
0.763550 0.000000 1.000000
1.000000 0.000000 1.000000
0.000000 0.250044 1.000000
0.251013 0.249967 1.000000
0.509832 0.250116 1.000000
0.771409 0.250192 1.000000
1.000000 0.249766 1.000000
0.000000 0.510157 1.000000
0.250914 0.510383 1.000000
0.511190 0.509142 1.000000
0.772315 0.507676 1.000000
1.000000 0.504341 1.000000
0.000000 0.758408 1.000000
0.240458 0.757962 1.000000
0.493568 0.756728 1.000000
0.744763 0.752884 0.999555
0.988482 0.752231 0.995393
0.007285 0.983329 0.997908
0.242307 0.988854 0.994087
0.492692 0.992961 0.993435
0.734415 0.995933 0.995933
0.975906 0.999621 0.999621
