assets/LUTs/chatgpt_morena_warm_natural_fcp.cube
TITLE "Morena Warm Natural - FCP"
# Morena / brown skin friendly creative LUT
# Target: Rec.709 SDR footage after exposure/WB correction
# Suggested FCP Custom LUT Mix: 30-70%, usually 40%
LUT_3D_SIZE 33
DOMAIN_MIN 0.0 0.0 0.0
DOMAIN_MAX 1.0 1.0 1.0
0.000000 0.000000 0.000000
0.022822 0.000175 0.000175
0.054882 0.000420 0.000420
0.086942 0.000665 0.000665
0.119002 0.000911 0.000911
0.151063 0.001156 0.001156
0.183123 0.001401 0.001401
0.215183 0.001647 0.001647
0.247243 0.001892 0.001892
0.279303 0.002137 0.002137
0.311363 0.002383 0.002383
0.343424 0.002628 0.002628
0.375484 0.002873 0.002873
0.407544 0.003118 0.003118
0.439604 0.003364 0.003364
0.471664 0.003609 0.003609
0.503724 0.003854 0.003854
0.535785 0.004100 0.004100
0.567845 0.004345 0.004345
0.599902 0.004587 0.004583
0.631959 0.004820 0.004805
0.664020 0.005044 0.005010
0.696092 0.005257 0.005196
0.728180 0.005457 0.005362
0.760290 0.005644 0.005508
0.792426 0.005818 0.005633
0.824594 0.005976 0.005736
0.856796 0.006120 0.005818
0.889100 0.006235 0.005865
0.921600 0.006306 0.005861
0.954306 0.006329 0.005803
0.977573 0.006244 0.005631
0.978643 0.005983 0.005278
0.000437 0.017295 0.000437
0.023259 0.017469 0.000612
0.055319 0.017715 0.000857
0.087380 0.017960 0.001103
0.119440 0.018205 0.001348
0.151500 0.018451 0.001593
0.183560 0.018696 0.001839
0.215620 0.018941 0.002084
0.247680 0.019186 0.002329
0.279741 0.019432 0.002574
0.311801 0.019677 0.002820
0.343861 0.019922 0.003065
0.375921 0.020168 0.003310
0.407981 0.020413 0.003556
0.440041 0.020658 0.003801
0.472101 0.020902 0.004046
0.504150 0.021120 0.004278
0.536191 0.021304 0.004495
0.568231 0.021454 0.004693
0.600276 0.021570 0.004873
0.632332 0.021651 0.005033
0.664404 0.021697 0.005172
0.696498 0.021710 0.005291
0.728617 0.021689 0.005389
0.760773 0.021634 0.005463
0.793065 0.021547 0.005497
0.825539 0.021426 0.005481
0.858204 0.021269 0.005413
0.891068 0.021074 0.005291
0.924138 0.020838 0.005115
0.957420 0.020561 0.004881
0.981883 0.020197 0.004546
0.983308 0.019693 0.004055
0.001263 0.049935 0.001263
0.024085 0.050109 0.001437
0.056145 0.050355 0.001683
0.088205 0.050600 0.001928
0.120265 0.050845 0.002173
0.152325 0.051091 0.002418
0.184385 0.051336 0.002664
0.216446 0.051581 0.002909
0.248506 0.051827 0.003154
0.280566 0.052072 0.003400
0.312626 0.052317 0.003645
0.344686 0.052563 0.003890
0.376741 0.052801 0.004132
0.408776 0.053010 0.004359
0.440796 0.053187 0.004569
0.472809 0.053333 0.004760
0.504822 0.053447 0.004933
0.536839 0.053528 0.005086
0.568867 0.053577 0.005218
0.600912 0.053595 0.005329
0.632978 0.053581 0.005419
0.665094 0.053536 0.005481
0.697357 0.053465 0.005497
0.729785 0.053365 0.005462
0.762388 0.053234 0.005375
0.795173 0.053070 0.005234
0.828149 0.052870 0.005036
0.861323 0.052634 0.004782
0.894700 0.052359 0.004470
0.928285 0.052044 0.004099
0.962083 0.051689 0.003668
0.987423 0.051263 0.003148
0.989095 0.050735 0.002507
0.002088 0.082575 0.002088
0.024910 0.082749 0.002262
0.056970 0.082995 0.002508
0.089030 0.083240 0.002753
0.121090 0.083485 0.002998
0.153150 0.083731 0.003244
0.185211 0.083976 0.003489
0.217271 0.084221 0.003734
0.249331 0.084467 0.003980
0.281374 0.084697 0.004217
0.313388 0.084899 0.004437
0.345383 0.085071 0.004641
0.377364 0.085214 0.004826
0.409339 0.085328 0.004991
0.441313 0.085411 0.005136
0.473293 0.085465 0.005261
0.505285 0.085489 0.005364
0.537293 0.085483 0.005446
0.569376 0.085453 0.005493
0.601596 0.085402 0.005490
0.633964 0.085327 0.005437
0.666491 0.085226 0.005330
0.699186 0.085097 0.005168
0.732056 0.084936 0.004951
0.765110 0.084743 0.004675
0.798354 0.084516 0.004342
0.831793 0.084253 0.003949
0.865434 0.083953 0.003496
0.899278 0.083615 0.002984
0.933330 0.083240 0.002411
0.967591 0.082825 0.001778
0.993501 0.082357 0.001072
0.995330 0.081834 0.000290
0.002913 0.115215 0.002913
0.025735 0.115390 0.003088
0.057795 0.115635 0.003333
0.089855 0.115880 0.003578
0.121916 0.116126 0.003824
0.153972 0.116369 0.004068
0.185996 0.116591 0.004300
0.217985 0.116788 0.004514
0.249948 0.116957 0.004710
0.281892 0.117100 0.004888
0.313824 0.117214 0.005046
0.345751 0.117302 0.005184
0.377679 0.117361 0.005301
0.409613 0.117393 0.005397
0.441566 0.117398 0.005468
0.473609 0.117387 0.005498
0.505772 0.117360 0.005477
0.538068 0.117314 0.005404
0.570507 0.117247 0.005277
0.603099 0.117156 0.005096
0.635853 0.117038 0.004857
0.668776 0.116892 0.004561
0.701877 0.116715 0.004206
0.735161 0.116507 0.003791
0.768634 0.116265 0.003317
0.802300 0.115989 0.002782
0.836164 0.115677 0.002187
0.870227 0.115330 0.001533
0.904492 0.114946 0.000819
0.938960 0.114526 0.000046
0.973630 0.114070 0.000000
0.998762 0.113580 0.000000
0.998679 0.113088 0.000000
0.003738 0.147855 0.003738
0.026560 0.148030 0.003913
0.058607 0.148267 0.004155
0.090611 0.148479 0.004386
0.122578 0.148665 0.004603
0.154512 0.148827 0.004800
0.186411 0.148972 0.004968
0.218283 0.149101 0.005106
0.250151 0.149200 0.005229
0.282022 0.149266 0.005338
0.313895 0.149307 0.005426
0.345796 0.149327 0.005485
0.377786 0.149340 0.005496
0.409880 0.149341 0.005456
0.442090 0.149328 0.005364
0.474429 0.149298 0.005218
0.506907 0.149249 0.005015
0.539533 0.149177 0.004756
0.572315 0.149081 0.004438
0.605263 0.148958 0.004062
0.638383 0.148807 0.003625
0.671680 0.148625 0.003129
0.705160 0.148413 0.002572
0.738828 0.148168 0.001956
0.772686 0.147890 0.001280
0.806738 0.147579 0.000544
0.840984 0.147233 0.000000
0.875426 0.146854 0.000000
0.910063 0.146440 0.000000
0.944894 0.145993 0.000000
0.979917 0.145513 0.000000
0.998475 0.145022 0.000000
0.998386 0.144583 0.000000
0.004538 0.180442 0.004538
0.027139 0.180552 0.004680
0.059039 0.180708 0.004878
0.090914 0.180838 0.005061
0.122771 0.180941 0.005228
0.154607 0.181026 0.005367
0.186414 0.181104 0.005466
0.218188 0.181184 0.005511
0.249997 0.181254 0.005515
0.281899 0.181303 0.005487
0.313910 0.181331 0.005429
0.346023 0.181357 0.005317
0.378251 0.181381 0.005151
0.410603 0.181378 0.004928
0.443090 0.181356 0.004647
0.475722 0.181312 0.004308
0.508508 0.181246 0.003910
0.541454 0.181155 0.003452
0.574567 0.181037 0.002933
0.607853 0.180890 0.002355
0.641318 0.180714 0.001717
0.674965 0.180508 0.001019
0.708797 0.180270 0.000262
0.742817 0.180001 0.000000
0.777025 0.179699 0.000000
0.811423 0.179366 0.000000
0.846009 0.179000 0.000000
0.880783 0.178603 0.000000
0.915742 0.178175 0.000000
0.950883 0.177717 0.000000
0.986201 0.177230 0.000000
0.998171 0.176759 0.000000
0.998078 0.176394 0.000000
0.005196 0.212805 0.005196
0.027157 0.212841 0.005284
0.058944 0.212925 0.005428
0.090722 0.212983 0.005553
0.122501 0.213018 0.005658
0.154322 0.213039 0.005721
0.186178 0.213074 0.005709
0.218056 0.213145 0.005593
0.249982 0.213244 0.005384
0.282002 0.213346 0.005113
0.314179 0.213410 0.004830
0.346518 0.213440 0.004528
0.378990 0.213472 0.004168
0.411604 0.213506 0.003749
0.444369 0.213545 0.003270
0.477290 0.213499 0.002730
0.510376 0.213421 0.002129
0.543631 0.213316 0.001469
0.577060 0.213183 0.000750
0.610667 0.213021 0.000000
0.644455 0.212829 0.000000
0.678426 0.212607 0.000000
0.712580 0.212355 0.000000
0.746918 0.212072 0.000000
0.781440 0.211758 0.000000
0.816143 0.211415 0.000000
0.851025 0.211043 0.000000
0.886083 0.210643 0.000000
0.921311 0.210216 0.000000
0.956706 0.209763 0.000000
0.992261 0.209287 0.000000
0.997853 0.208857 0.000000
0.997757 0.208583 0.000000
0.005670 0.244985 0.005670
0.026650 0.244958 0.005686
0.058394 0.244993 0.005732
0.090186 0.245014 0.005731
0.122041 0.245025 0.005680
0.153972 0.245026 0.005577
0.185994 0.245020 0.005422
0.218065 0.245053 0.005159
0.250158 0.245157 0.004749
0.282317 0.245309 0.004223
0.314606 0.245461 0.003638
0.347120 0.245548 0.003075
0.379843 0.245587 0.002514
0.412721 0.245631 0.001893
0.445761 0.245682 0.001213
0.478968 0.245742 0.000473
0.512345 0.245812 0.000000
0.545896 0.245720 0.000000
0.579625 0.245578 0.000000
0.613533 0.245408 0.000000
0.647620 0.245208 0.000000
0.681887 0.244979 0.000000
0.716332 0.244722 0.000000
0.750954 0.244435 0.000000
0.785750 0.244122 0.000000
0.820716 0.243782 0.000000
0.855848 0.243416 0.000000
0.891139 0.243027 0.000000
0.926584 0.242616 0.000000
0.962176 0.242185 0.000000
0.997624 0.241736 0.000000
0.997526 0.241369 0.000000
0.997428 0.241200 0.000000
0.005791 0.277061 0.005791
0.025816 0.277005 0.005647
0.057615 0.277012 0.005525
0.089493 0.277009 0.005349
0.121461 0.276998 0.005120
0.153533 0.276980 0.004834
0.185718 0.276958 0.004493
0.218029 0.276933 0.004095
0.250386 0.276979 0.003553
0.282748 0.277139 0.002816
0.315183 0.277366 0.001944
0.347785 0.277587 0.001027
0.380683 0.277702 0.000186
0.413827 0.277758 0.000000
0.447139 0.277824 0.000000
0.480623 0.277901 0.000000
0.514281 0.277992 0.000000
0.548115 0.278098 0.000000
0.582123 0.278219 0.000000
0.616309 0.278094 0.000000
0.650670 0.277894 0.000000
0.685204 0.277667 0.000000
0.719908 0.277414 0.000000
0.754777 0.277135 0.000000
0.789807 0.276833 0.000000
0.824992 0.276507 0.000000
0.860324 0.276162 0.000000
0.895798 0.275797 0.000000
0.931403 0.275416 0.000000
0.967131 0.275022 0.000000
0.997293 0.274617 0.000000
0.997193 0.274334 0.000000
0.997094 0.274283 0.000000
0.005334 0.309064 0.005334
0.024668 0.308989 0.005018
0.056563 0.308969 0.004712
0.088562 0.308943 0.004350
0.120676 0.308912 0.003931
0.152916 0.308878 0.003455
0.185290 0.308841 0.002922
0.217808 0.308805 0.002332
0.250474 0.308771 0.001686
0.283168 0.308849 0.000853
0.315833 0.309090 0.000000
0.348570 0.309416 0.000000
0.381513 0.309721 0.000000
0.414828 0.309870 0.000000
0.448408 0.309954 0.000000
0.482162 0.310054 0.000000
0.516089 0.310170 0.000000
0.550188 0.310304 0.000000
0.584458 0.310458 0.000000
0.618895 0.310633 0.000000
0.653496 0.310832 0.000000
0.688264 0.310704 0.000000
0.723191 0.310464 0.000000
0.758269 0.310202 0.000000
0.793490 0.309921 0.000000
0.828847 0.309623 0.000000
0.864331 0.309309 0.000000
0.899932 0.308982 0.000000
0.935640 0.308646 0.000000
0.971443 0.308304 0.000000
0.996958 0.307958 0.000000
0.996858 0.307781 0.000000
0.996759 0.307857 0.000000
0.004247 0.340973 0.004247
0.023158 0.340886 0.003759
0.055187 0.340843 0.003262
0.087342 0.340796 0.002709
0.119634 0.340747 0.002099
0.152070 0.340699 0.001433
0.184657 0.340653 0.000713
0.217401 0.340610 0.000000
0.250307 0.340572 0.000000
0.283378 0.340542 0.000000
0.316432 0.340677 0.000000
0.349415 0.341025 0.000000
0.382463 0.341475 0.000000
0.415760 0.341878 0.000000
0.449505 0.342067 0.000000
0.483518 0.342193 0.000000
0.517700 0.342340 0.000000
0.552048 0.342509 0.000000
0.586557 0.342701 0.000000
0.621223 0.342919 0.000000
0.656040 0.343164 0.000000
0.691002 0.343438 0.000000
0.726100 0.343742 0.000000
0.761341 0.343655 0.000000
0.796709 0.343406 0.000000
0.832190 0.343145 0.000000
0.867773 0.342876 0.000000
0.903446 0.342600 0.000000
0.939197 0.342323 0.000000
0.975012 0.342047 0.000000
0.996623 0.341775 0.000000
0.996525 0.341723 0.000000
0.996426 0.341901 0.000000
0.002515 0.372768 0.002515
0.021273 0.372679 0.001859
0.053473 0.372615 0.001175
0.085819 0.372552 0.000435
0.118317 0.372490 0.000000
0.150975 0.372433 0.000000
0.183796 0.372381 0.000000
0.216784 0.372336 0.000000
0.249943 0.372301 0.000000
0.283275 0.372277 0.000000
0.316776 0.372269 0.000000
0.350193 0.372490 0.000000
0.383485 0.372976 0.000000
0.416837 0.373573 0.000000
0.450485 0.374085 0.000000
0.484656 0.374321 0.000000
0.519077 0.374507 0.000000
0.553653 0.374718 0.000000
0.588379 0.374958 0.000000
0.623246 0.375227 0.000000
0.658248 0.375528 0.000000
0.693375 0.375861 0.000000
0.728619 0.376229 0.000000
0.763969 0.376634 0.000000
0.799413 0.377076 0.000000
0.834959 0.377082 0.000000
0.870587 0.376868 0.000000
0.906274 0.376656 0.000000
0.942004 0.376443 0.000000
0.977760 0.376205 0.000000
0.996293 0.375939 0.000000
0.996196 0.375898 0.000000
0.996100 0.376070 0.000000
0.000154 0.404439 0.000154
0.019032 0.404356 0.000000
0.051439 0.404277 0.000000
0.084006 0.404203 0.000000
0.116740 0.404134 0.000000
0.149643 0.404073 0.000000
0.182718 0.404023 0.000000
0.215967 0.403983 0.000000
0.249391 0.403958 0.000000
0.282989 0.403948 0.000000
0.316761 0.403955 0.000000
0.350693 0.403991 0.000000
0.384450 0.404335 0.000000
0.418024 0.404991 0.000000
0.451657 0.405758 0.000000
0.485641 0.406387 0.000000
0.520209 0.406681 0.000000
0.554992 0.406946 0.000000
0.589907 0.407243 0.000000
0.624945 0.407574 0.000000
0.660098 0.407941 0.000000
0.695354 0.408345 0.000000
0.730702 0.408789 0.000000
0.766129 0.409274 0.000000
0.801622 0.409801 0.000000
0.837160 0.410355 0.000000
0.872724 0.410918 0.000000
0.908329 0.410979 0.000000
0.943956 0.410722 0.000000
0.979583 0.410438 0.000000
0.995971 0.410128 0.000000
0.995877 0.410080 0.000000
0.995785 0.410235 0.000000
0.000000 0.435981 0.000000
0.016486 0.435912 0.000000
0.049133 0.435825 0.000000
0.081952 0.435747 0.000000
0.114946 0.435679 0.000000
0.148116 0.435623 0.000000
0.181462 0.435582 0.000000
0.214985 0.435558 0.000000
0.248682 0.435552 0.000000
0.282553 0.435566 0.000000
0.316592 0.435602 0.000000
0.350798 0.435663 0.000000
0.385137 0.435771 0.000000
0.419189 0.436276 0.000000
0.453001 0.437135 0.000000
0.486874 0.438091 0.000000
0.521163 0.438844 0.000000
0.556076 0.439215 0.000000
0.591152 0.439581 0.000000
0.626329 0.439987 0.000000
0.661597 0.440433 0.000000
0.696939 0.440919 0.000000
0.732326 0.441424 0.000000
0.767744 0.441940 0.000000
0.803184 0.442466 0.000000
0.838636 0.442999 0.000000
0.874090 0.443538 0.000000
0.909535 0.444081 0.000000
0.944961 0.444626 0.000000
0.980382 0.444645 0.000000
0.995660 0.444287 0.000000
0.995571 0.444220 0.000000
0.995483 0.444345 0.000000
0.000000 0.467398 0.000000
0.013716 0.467351 0.000000
0.046633 0.467264 0.000000
0.079730 0.467191 0.000000
0.113006 0.467134 0.000000
0.146462 0.467094 0.000000
0.180094 0.467074 0.000000
0.213901 0.467075 0.000000
0.247878 0.467099 0.000000
0.282023 0.467150 0.000000
0.316329 0.467227 0.000000
0.350790 0.467335 0.000000
0.385400 0.467473 0.000000
0.420098 0.467689 0.000000
0.454377 0.468399 0.000000
0.488365 0.469490 0.000000
0.522425 0.470653 0.000000
0.556972 0.471536 0.000000
0.592141 0.472000 0.000000
0.627382 0.472458 0.000000
0.662659 0.472929 0.000000
0.697963 0.473411 0.000000
0.733284 0.473903 0.000000
0.768613 0.474403 0.000000
0.803941 0.474910 0.000000
0.839255 0.475422 0.000000
0.874544 0.475936 0.000000
0.909798 0.476451 0.000000
0.945003 0.476964 0.000000
0.980148 0.477472 0.000000
0.995365 0.477974 0.000000
0.995281 0.478260 0.000000
0.995198 0.478340 0.000000
0.000000 0.498703 0.000000
0.010828 0.498683 0.000000
0.044044 0.498609 0.000000
0.077442 0.498553 0.000000
0.111020 0.498518 0.000000
0.144776 0.498506 0.000000
0.178705 0.498519 0.000000
0.212803 0.498559 0.000000
0.247064 0.498628 0.000000
0.281482 0.498729 0.000000
0.316049 0.498862 0.000000
0.350758 0.499031 0.000000
0.385599 0.499237 0.000000
0.420562 0.499482 0.000000
0.455542 0.499848 0.000000
0.489941 0.500786 0.000000
0.523966 0.502093 0.000000
0.558044 0.503405 0.000000
0.592653 0.504316 0.000000
0.627840 0.504777 0.000000
0.663051 0.505241 0.000000
0.698266 0.505714 0.000000
0.733475 0.506194 0.000000
0.768666 0.506680 0.000000
0.803829 0.507170 0.000000
0.838952 0.507661 0.000000
0.874022 0.508151 0.000000
0.909027 0.508638 0.000000
0.943952 0.509119 0.000000
0.978785 0.509591 0.000000
0.995089 0.510058 0.000000
0.995011 0.510851 0.000000
0.994935 0.511840 0.000000
0.000000 0.529916 0.000000
0.007954 0.529931 0.000000
0.041493 0.529882 0.000000
0.075212 0.529857 0.000000
0.109109 0.529859 0.000000
0.143177 0.529890 0.000000
0.177411 0.529952 0.000000
0.211803 0.530046 0.000000
0.246348 0.530176 0.000000
0.281035 0.530343 0.000000
0.315856 0.530549 0.000000
0.350794 0.530793 0.000000
0.385802 0.531061 0.000000
0.420862 0.531347 0.000000
0.455969 0.531651 0.000000
0.490959 0.532100 0.000000
0.525233 0.533186 0.000000
0.559107 0.534635 0.000000
0.593062 0.536038 0.000000
0.627627 0.536945 0.000000
0.662726 0.537406 0.000000
0.697806 0.537873 0.000000
0.732854 0.538345 0.000000
0.767857 0.538820 0.000000
0.802804 0.539294 0.000000
0.837682 0.539767 0.000000
0.872484 0.540236 0.000000
0.907271 0.540702 0.000000
0.942061 0.541167 0.000000
0.976854 0.541630 0.000000
0.994835 0.542090 0.000000
0.994765 0.542877 0.000000
0.994697 0.543859 0.000000
0.000000 0.561069 0.000000
0.005251 0.561128 0.000000
0.039133 0.561119 0.000000
0.073190 0.561142 0.000000
0.107417 0.561197 0.000000
0.141806 0.561287 0.000000
0.176349 0.561414 0.000000
0.211037 0.561581 0.000000
0.245840 0.561782 0.000000
0.280710 0.562006 0.000000
0.315639 0.562250 0.000000
0.350620 0.562514 0.000000
0.385644 0.562797 0.000000
0.420703 0.563099 0.000000
0.455789 0.563418 0.000000
0.490891 0.563752 0.000000
0.525782 0.564284 0.000000
0.559850 0.565512 0.000000
0.593494 0.567093 0.000000
0.627241 0.568577 0.000000
0.661658 0.569479 0.000000
0.696556 0.569945 0.000000
0.731393 0.570413 0.000000
0.766182 0.570880 0.000000
0.800971 0.571346 0.000000
0.835761 0.571810 0.000000
0.870554 0.572272 0.000000
0.905350 0.572732 0.000000
0.940147 0.573190 0.000000
0.974947 0.573646 0.000000
0.994609 0.574100 0.000000
0.994547 0.574872 0.000000
0.994488 0.575829 0.000000
0.000000 0.592204 0.000000
0.002895 0.592314 0.000000
0.037138 0.592365 0.000000
0.071546 0.592452 0.000000
0.106111 0.592579 0.000000
0.140778 0.592736 0.000000
0.175515 0.592916 0.000000
0.210317 0.593120 0.000000
0.245177 0.593346 0.000000
0.280087 0.593594 0.000000
0.315039 0.593863 0.000000
0.350024 0.594153 0.000000
0.385034 0.594461 0.000000
0.420059 0.594786 0.000000
0.455089 0.595128 0.000000
0.490113 0.595485 0.000000
0.525121 0.595855 0.000000
0.559821 0.596471 0.000000
0.593603 0.597826 0.000000
0.626932 0.599525 0.000000
0.660411 0.601082 0.000000
0.694670 0.601989 0.000000
0.729462 0.602452 0.000000
0.764255 0.602914 0.000000
0.799052 0.603373 0.000000
0.833850 0.603831 0.000000
0.868651 0.604286 0.000000
0.903448 0.604737 0.000000
0.938213 0.605176 0.000000
0.972940 0.605602 0.000000
0.994412 0.606018 0.000000
0.994360 0.606746 0.000000
0.994311 0.607661 0.000000
0.000000 0.623373 0.000000
0.001075 0.623542 0.000000
0.035608 0.623655 0.000000
0.070219 0.623794 0.000000
0.104900 0.623960 0.000000
0.139644 0.624150 0.000000
0.174446 0.624365 0.000000
0.209297 0.624604 0.000000
0.244188 0.624865 0.000000
0.279112 0.625149 0.000000
0.314059 0.625454 0.000000
0.349020 0.625779 0.000000
0.383983 0.626122 0.000000
0.418940 0.626482 0.000000
0.453878 0.626857 0.000000
0.488787 0.627246 0.000000
0.523660 0.627645 0.000000
0.558527 0.628045 0.000000
0.593065 0.628719 0.000000
0.626674 0.630169 0.000000
0.659876 0.631956 0.000000
0.693288 0.633569 0.000000
0.727553 0.634471 0.000000
0.762355 0.634926 0.000000
0.797145 0.635372 0.000000
0.831905 0.635803 0.000000
0.866632 0.636222 0.000000
0.901324 0.636628 0.000000
0.935979 0.637024 0.000000
0.970595 0.637412 0.000000
0.994249 0.637791 0.000000
0.994208 0.638474 0.000000
0.994170 0.639349 0.000000
0.000000 0.654575 0.000000
0.000000 0.654769 0.000000
0.034025 0.654926 0.000000
0.068725 0.655110 0.000000
0.103481 0.655320 0.000000
0.138285 0.655558 0.000000
0.173130 0.655820 0.000000
0.208007 0.656107 0.000000
0.242905 0.656417 0.000000
0.277816 0.656750 0.000000
0.312730 0.657103 0.000000
0.347635 0.657475 0.000000
0.382520 0.657865 0.000000
0.417387 0.658265 0.000000
0.452254 0.658665 0.000000
0.487121 0.659066 0.000000
0.521988 0.659466 0.000000
0.556856 0.659866 0.000000
0.591723 0.660267 0.000000
0.626215 0.660979 0.000000
0.659729 0.662505 0.000000
0.692821 0.664355 0.000000
0.726133 0.665984 0.000000
0.760331 0.666836 0.000000
0.795030 0.667233 0.000000
0.829697 0.667618 0.000000
0.864328 0.667993 0.000000
0.898922 0.668360 0.000000
0.933478 0.668718 0.000000
0.967993 0.669071 0.000000
0.994124 0.669418 0.000000
0.994095 0.670058 0.000000
0.994069 0.670894 0.000000
0.000000 0.685782 0.000000
0.000000 0.686016 0.000000
0.032319 0.686230 0.000000
0.067092 0.686474 0.000000
0.101906 0.686745 0.000000
0.136751 0.687044 0.000000
0.171617 0.687369 0.000000
0.206496 0.687718 0.000000
0.241376 0.688091 0.000000
0.276248 0.688485 0.000000
0.311115 0.688885 0.000000
0.345982 0.689285 0.000000
0.380849 0.689686 0.000000
0.415716 0.690086 0.000000
0.450583 0.690486 0.000000
0.485450 0.690887 0.000000
0.520317 0.691287 0.000000
0.555180 0.691683 0.000000
0.590022 0.692064 0.000000
0.624840 0.692431 0.000000
0.659212 0.693134 0.000000
0.692545 0.694668 0.000000
0.725451 0.696520 0.000000
0.758608 0.698126 0.000000
0.792696 0.698920 0.000000
0.827277 0.699264 0.000000
0.861822 0.699602 0.000000
0.896329 0.699933 0.000000
0.930796 0.700260 0.000000
0.965224 0.700583 0.000000
0.994041 0.700904 0.000000
0.994024 0.701500 0.000000
0.994012 0.702300 0.000000
0.000000 0.717079 0.000000
0.000000 0.717372 0.000000
0.030560 0.717662 0.000000
0.065391 0.717982 0.000000
0.100243 0.718330 0.000000
0.135108 0.718707 0.000000
0.169975 0.719105 0.000000
0.204842 0.719505 0.000000
0.239709 0.719905 0.000000
0.274577 0.720306 0.000000
0.309444 0.720706 0.000000
0.344311 0.721106 0.000000
0.379178 0.721507 0.000000
0.414045 0.721907 0.000000
0.448904 0.722297 0.000000
0.483747 0.722670 0.000000
0.518570 0.723027 0.000000
0.553370 0.723371 0.000000
0.588145 0.723703 0.000000
0.622891 0.724024 0.000000
0.657607 0.724336 0.000000
0.691830 0.725024 0.000000
0.724988 0.726563 0.000000
0.757728 0.728415 0.000000
0.790745 0.730000 0.000000
0.824726 0.730747 0.000000
0.859194 0.731053 0.000000
0.893624 0.731355 0.000000
0.928015 0.731655 0.000000
0.962366 0.731954 0.000000
0.994002 0.732252 0.000000
0.994000 0.732808 0.000000
0.994000 0.733579 0.000000
0.000000 0.748564 0.000000
0.000000 0.748941 0.000000
0.028836 0.749324 0.000000
0.063703 0.749725 0.000000
0.098570 0.750125 0.000000
0.133437 0.750525 0.000000
0.168304 0.750926 0.000000
0.203171 0.751326 0.000000
0.238038 0.751726 0.000000
0.272905 0.752127 0.000000
0.307772 0.752525 0.000000
0.342631 0.752907 0.000000
0.377477 0.753271 0.000000
0.412309 0.753619 0.000000
0.447121 0.753952 0.000000
0.481911 0.754272 0.000000
0.516677 0.754580 0.000000
0.551416 0.754879 0.000000
0.586125 0.755170 0.000000
0.620802 0.755454 0.000000
0.655445 0.755732 0.000000
0.690053 0.756007 0.000000
0.724131 0.756689 0.000000
0.757134 0.758232 0.000000
0.789734 0.760079 0.000000
0.822633 0.761643 0.000000
0.856517 0.762354 0.000000
0.890881 0.762632 0.000000
0.925193 0.762913 0.000000
0.959295 0.763214 0.000000
0.993132 0.763535 0.000000
0.994000 0.764091 0.000000
0.994000 0.764853 0.000000
0.000000 0.780321 0.000000
0.000000 0.780745 0.000000
0.027165 0.781145 0.000000
0.062032 0.781546 0.000000
0.096899 0.781946 0.000000
0.131766 0.782346 0.000000
0.166633 0.782747 0.000000
0.201499 0.783140 0.000000
0.236362 0.783513 0.000000
0.271216 0.783867 0.000000
0.306058 0.784204 0.000000
0.340886 0.784525 0.000000
0.375695 0.784833 0.000000
0.410484 0.785129 0.000000
0.445248 0.785414 0.000000
0.479986 0.785690 0.000000
0.514696 0.785958 0.000000
0.549375 0.786221 0.000000
0.584020 0.786479 0.000000
0.618632 0.786734 0.000000
0.653207 0.786986 0.000000
0.687746 0.787238 0.000000
0.722246 0.787490 0.000000
0.756188 0.788175 0.000000
0.789062 0.789720 0.000000
0.821511 0.791561 0.000000
0.854107 0.793139 0.000000
0.887479 0.793904 0.000000
0.921126 0.794259 0.000000
0.954517 0.794630 0.000000
0.987645 0.795011 0.000000
0.994000 0.795555 0.000000
0.994000 0.796293 0.000000
0.000000 0.812142 0.000000
0.000000 0.812566 0.000000
0.025493 0.812966 0.000000
0.060361 0.813366 0.000000
0.095230 0.813751 0.000000
0.130099 0.814115 0.000000
0.164964 0.814458 0.000000
0.199821 0.814783 0.000000
0.234667 0.815092 0.000000
0.269498 0.815386 0.000000
0.304312 0.815668 0.000000
0.339105 0.815938 0.000000
0.373875 0.816199 0.000000
0.408619 0.816452 0.000000
0.443336 0.816698 0.000000
0.478022 0.816940 0.000000
0.512676 0.817177 0.000000
0.547297 0.817412 0.000000
0.581883 0.817645 0.000000
0.616433 0.817879 0.000000
0.650945 0.818113 0.000000
