assets/LUTs/chatgpt-morena_soft_neutral_fcp_tuned.cube
TITLE "Morena Soft Neutral - FCP Tuned"
# Tuned for warm/pink indoor morena skin footage
# Target: Rec.709 SDR footage after basic exposure/WB correction
# Suggested FCP Custom LUT Mix: 35-65%, usually 45%
LUT_3D_SIZE 33
DOMAIN_MIN 0.0 0.0 0.0
DOMAIN_MAX 1.0 1.0 1.0
0.000000 0.000000 0.000000
0.029531 0.000000 0.000000
0.061563 0.000000 0.000000
0.093594 0.000000 0.000000
0.125625 0.000000 0.000000
0.157656 0.000000 0.000000
0.189688 0.000000 0.000000
0.221719 0.000000 0.000000
0.253750 0.000000 0.000000
0.285781 0.000000 0.000000
0.317813 0.000000 0.000000
0.349844 0.000000 0.000000
0.381875 0.000000 0.000000
0.413906 0.000000 0.000000
0.445937 0.000000 0.000000
0.477969 0.000000 0.000000
0.509989 0.000000 0.000000
0.541983 0.000000 0.000000
0.573955 0.000000 0.000000
0.605903 0.000000 0.000000
0.637830 0.000000 0.000000
0.669736 0.000000 0.000000
0.701623 0.000000 0.000000
0.733492 0.000000 0.000000
0.765343 0.000000 0.000000
0.797175 0.000001 0.000000
0.828985 0.000005 0.000000
0.860774 0.000011 0.000000
0.892558 0.000021 0.000000
0.924358 0.000032 0.000000
0.956173 0.000046 0.000000
0.988003 0.000063 0.000000
0.999796 0.000081 0.000000
0.000000 0.028531 0.000000
0.029531 0.028531 0.000000
0.061563 0.028531 0.000000
0.093594 0.028531 0.000000
0.125625 0.028531 0.000000
0.157656 0.028531 0.000000
0.189688 0.028531 0.000000
0.221719 0.028531 0.000000
0.253750 0.028531 0.000000
0.285781 0.028531 0.000000
0.317813 0.028531 0.000000
0.349844 0.028531 0.000000
0.381874 0.028530 0.000000
0.413884 0.028512 0.000000
0.445871 0.028471 0.000000
0.477833 0.028409 0.000000
0.509774 0.028328 0.000000
0.541693 0.028227 0.000000
0.573592 0.028108 0.000000
0.605472 0.027972 0.000000
0.637334 0.027820 0.000000
0.669179 0.027652 0.000000
0.701003 0.027472 0.000000
0.732805 0.027282 0.000000
0.764589 0.027083 0.000000
0.796379 0.026897 0.000000
0.828184 0.026730 0.000000
0.860004 0.026583 0.000000
0.891840 0.026454 0.000000
0.923689 0.026345 0.000000
0.955554 0.026253 0.000000
0.987461 0.026172 0.000000
0.999694 0.026098 0.000000
0.000000 0.060563 0.000000
0.029531 0.060563 0.000000
0.061563 0.060563 0.000000
0.093594 0.060563 0.000000
0.125625 0.060563 0.000000
0.157656 0.060563 0.000000
0.189688 0.060563 0.000000
0.221719 0.060563 0.000000
0.253750 0.060563 0.000000
0.285775 0.060557 0.000000
0.317777 0.060531 0.000000
0.349755 0.060482 0.000000
0.381709 0.060413 0.000000
0.413642 0.060324 0.000000
0.445554 0.060217 0.000000
0.477446 0.060092 0.000000
0.509319 0.059950 0.000000
0.541175 0.059792 0.000000
0.573012 0.059619 0.000000
0.604828 0.059436 0.000000
0.636623 0.059242 0.000000
0.668405 0.059044 0.000000
0.700201 0.058865 0.000000
0.732012 0.058705 0.000000
0.763838 0.058565 0.000000
0.795678 0.058444 0.000000
0.827533 0.058341 0.000000
0.859408 0.058254 0.000000
0.891328 0.058178 0.000000
0.923296 0.058109 0.000000
0.955316 0.058047 0.000000
0.987388 0.057991 0.000000
0.999897 0.057944 0.000000
0.000000 0.092594 0.000000
0.029531 0.092594 0.000000
0.061563 0.092594 0.000000
0.093594 0.092594 0.000000
0.125625 0.092594 0.000000
0.157656 0.092594 0.000000
0.189674 0.092581 0.000000
0.221666 0.092547 0.000000
0.253635 0.092491 0.000000
0.285582 0.092414 0.000000
0.317507 0.092319 0.000000
0.349411 0.092205 0.000000
0.381296 0.092073 0.000000
0.413163 0.091925 0.000000
0.445013 0.091762 0.000000
0.476843 0.091585 0.000000
0.508651 0.091397 0.000000
0.540438 0.091200 0.000000
0.572224 0.091008 0.000000
0.604025 0.090836 0.000000
0.635841 0.090683 0.000000
0.667673 0.090550 0.000000
0.699518 0.090435 0.000000
0.731379 0.090339 0.000000
0.763265 0.090258 0.000000
0.795195 0.090186 0.000000
0.827169 0.090124 0.000000
0.859189 0.090070 0.000000
0.891259 0.090023 0.000000
0.923378 0.089982 0.000000
0.955550 0.089946 0.000000
0.987775 0.089914 0.000000
1.000000 0.089893 0.000000
0.000000 0.124625 0.000000
0.029531 0.124625 0.000000
0.061560 0.124623 0.000000
0.093569 0.124602 0.000000
0.125553 0.124560 0.000000
0.157513 0.124496 0.000000
0.189452 0.124413 0.000000
0.221369 0.124310 0.000000
0.253267 0.124190 0.000000
0.285145 0.124052 0.000000
0.317005 0.123899 0.000000
0.348848 0.123730 0.000000
0.380670 0.123549 0.000000
0.412471 0.123358 0.000000
0.444253 0.123159 0.000000
0.476045 0.122974 0.000000
0.507851 0.122809 0.000000
0.539673 0.122664 0.000000
0.571510 0.122537 0.000000
0.603361 0.122429 0.000000
0.635227 0.122339 0.000000
0.667125 0.122263 0.000000
0.699060 0.122198 0.000000
0.731036 0.122143 0.000000
0.763055 0.122098 0.000000
0.795118 0.122060 0.000000
0.827228 0.122030 0.000000
0.859385 0.122005 0.000000
0.891593 0.121986 0.000000
0.923851 0.121971 0.000000
0.956161 0.121959 0.000000
0.988524 0.121951 0.000000
1.000000 0.121958 0.000000
0.000000 0.156621 0.000000
0.029436 0.156570 0.000000
0.061388 0.156500 0.000000
0.093319 0.156409 0.000000
0.125229 0.156300 0.000000
0.157119 0.156173 0.000000
0.188991 0.156029 0.000000
0.220845 0.155870 0.000000
0.252681 0.155697 0.000000
0.284495 0.155512 0.000000
0.316288 0.155317 0.000000
0.348070 0.155121 0.000000
0.379867 0.154943 0.000000
0.411680 0.154785 0.000000
0.443507 0.154647 0.000000
0.475349 0.154527 0.000000
0.507205 0.154426 0.000000
0.539079 0.154342 0.000000
0.570984 0.154272 0.000000
0.602922 0.154214 0.000000
0.634897 0.154168 0.000000
0.666910 0.154132 0.000000
0.698964 0.154104 0.000000
0.731061 0.154085 0.000000
0.763202 0.154073 0.000000
0.795389 0.154066 0.000000
0.827624 0.154065 0.000000
0.859908 0.154068 0.000000
0.892241 0.154075 0.000000
0.924625 0.154085 0.000000
0.957060 0.154096 0.000000
0.989547 0.154109 0.000000
1.000000 0.154145 0.000000
0.000000 0.188403 0.000000
0.029086 0.188287 0.000000
0.060970 0.188154 0.000000
0.092835 0.188004 0.000000
0.124683 0.187840 0.000000
0.156514 0.187660 0.000000
0.188326 0.187469 0.000000
0.220116 0.187270 0.000000
0.251900 0.187081 0.000000
0.283695 0.186913 0.000000
0.315510 0.186764 0.000000
0.347342 0.186632 0.000000
0.379190 0.186519 0.000000
0.411051 0.186425 0.000000
0.442932 0.186347 0.000000
0.474841 0.186284 0.000000
0.506778 0.186235 0.000000
0.538748 0.186198 0.000000
0.570753 0.186172 0.000000
0.602795 0.186156 0.000000
0.634876 0.186148 0.000000
0.666998 0.186149 0.000000
0.699163 0.186157 0.000000
0.731372 0.186170 0.000000
0.763627 0.186188 0.000000
0.795929 0.186211 0.000000
0.828278 0.186237 0.000000
0.860676 0.186266 0.000000
0.893123 0.186297 0.000000
0.925619 0.186329 0.000000
0.958165 0.186363 0.000000
0.990761 0.186396 0.000000
1.000000 0.186461 0.000000
0.000000 0.219977 0.000000
0.028518 0.219807 0.000000
0.060345 0.219623 0.000000
0.092157 0.219425 0.000000
0.123958 0.219219 0.000000
0.155776 0.219026 0.000000
0.187603 0.218855 0.000000
0.219430 0.218710 0.000000
0.251254 0.218591 0.000000
0.283076 0.218497 0.000000
0.314910 0.218421 0.000000
0.346785 0.218352 0.000000
0.378693 0.218294 0.000000
0.410627 0.218254 0.000000
0.442590 0.218233 0.000000
0.474583 0.218218 0.000000
0.506610 0.218214 0.000000
0.538672 0.218220 0.000000
0.570773 0.218234 0.000000
0.602912 0.218256 0.000000
0.635093 0.218285 0.000000
0.667317 0.218319 0.000000
0.699585 0.218359 0.000000
0.731897 0.218402 0.000000
0.764256 0.218449 0.000000
0.796662 0.218498 0.000000
0.829114 0.218549 0.000000
0.861614 0.218601 0.000000
0.894162 0.218654 0.000000
0.926758 0.218708 0.000000
0.959401 0.218761 0.000000
0.992090 0.218813 0.000000
1.000000 0.218907 0.000000
0.000000 0.251382 0.000000
0.027785 0.251177 0.000000
0.059612 0.250990 0.000000
0.091460 0.250821 0.000000
0.123329 0.250667 0.000000
0.155219 0.250531 0.000000
0.187124 0.250413 0.000000
0.219012 0.250321 0.000000
0.250874 0.250256 0.000000
0.282719 0.250217 0.000000
0.314563 0.250201 0.000000
0.346441 0.250199 0.000000
0.378398 0.250194 0.000000
0.410407 0.250203 0.000000
0.442448 0.250235 0.000000
0.474524 0.250292 0.000000
0.506636 0.250366 0.000000
0.538786 0.250411 0.000000
0.570977 0.250462 0.000000
0.603208 0.250518 0.000000
0.635482 0.250579 0.000000
0.667800 0.250644 0.000000
0.700162 0.250712 0.000000
0.732569 0.250782 0.000000
0.765022 0.250854 0.000000
0.797521 0.250927 0.000000
0.830065 0.251001 0.000000
0.862655 0.251075 0.000000
0.895291 0.251148 0.000000
0.927972 0.251220 0.000000
0.960697 0.251292 0.000000
0.993465 0.251362 0.000000
1.000000 0.251485 0.000000
0.000000 0.282794 0.000000
0.027181 0.282647 0.000000
0.059079 0.282517 0.000000
0.090995 0.282402 0.000000
0.122928 0.282293 0.000000
0.154878 0.282187 0.000000
0.186847 0.282087 0.000000
0.218829 0.282000 0.000000
0.250765 0.281953 0.000000
0.282651 0.281950 0.000000
0.314507 0.281988 0.000000
0.346367 0.282056 0.000000
0.378287 0.282135 0.000000
0.410333 0.282200 0.000000
0.442450 0.282277 0.000000
0.474605 0.282380 0.000000
0.506799 0.282512 0.000000
0.539032 0.282674 0.000000
0.571307 0.282853 0.000000
0.603624 0.282940 0.000000
0.635984 0.283030 0.000000
0.668388 0.283122 0.000000
0.700836 0.283215 0.000000
0.733328 0.283309 0.000000
0.765864 0.283404 0.000000
0.798445 0.283498 0.000000
0.831069 0.283592 0.000000
0.863737 0.283684 0.000000
0.896447 0.283776 0.000000
0.929199 0.283865 0.000000
0.961991 0.283953 0.000000
0.994823 0.284039 0.000000
1.000000 0.284190 0.000000
0.000000 0.314392 0.000000
0.026796 0.314279 0.000000
0.058742 0.314164 0.000000
0.090704 0.314052 0.000000
0.122685 0.313944 0.000000
0.154688 0.313844 0.000000
0.186717 0.313754 0.000000
0.218774 0.313677 0.000000
0.250843 0.313623 0.000000
0.282828 0.313633 0.000000
0.314730 0.313708 0.000000
0.346586 0.313837 0.000000
0.378453 0.313999 0.000000
0.410409 0.314167 0.000000
0.442547 0.314304 0.000000
0.474778 0.314450 0.000000
0.507048 0.314626 0.000000
0.539360 0.314832 0.000000
0.571713 0.315070 0.000000
0.604108 0.315341 0.000000
0.636546 0.315633 0.000000
0.669028 0.315748 0.000000
0.701553 0.315864 0.000000
0.734120 0.315979 0.000000
0.766729 0.316093 0.000000
0.799381 0.316205 0.000000
0.832073 0.316316 0.000000
0.864805 0.316426 0.000000
0.897576 0.316533 0.000000
0.930384 0.316637 0.000000
0.963226 0.316737 0.000000
0.996080 0.316815 0.000000
1.000000 0.316947 0.000000
0.000000 0.346005 0.000000
0.026516 0.345877 0.000000
0.058502 0.345755 0.000000
0.090510 0.345639 0.000000
0.122543 0.345533 0.000000
0.154603 0.345439 0.000000
0.186694 0.345360 0.000000
0.218816 0.345297 0.000000
0.250973 0.345253 0.000000
0.283138 0.345241 0.000000
0.315168 0.345319 0.000000
0.347076 0.345485 0.000000
0.378920 0.345716 0.000000
0.410782 0.345982 0.000000
0.442768 0.346244 0.000000
0.474998 0.346457 0.000000
0.507341 0.346672 0.000000
0.539725 0.346919 0.000000
0.572151 0.347199 0.000000
0.604618 0.347511 0.000000
0.637126 0.347857 0.000000
0.669676 0.348236 0.000000
0.702266 0.348648 0.000000
0.734898 0.348784 0.000000
0.767570 0.348914 0.000000
0.800280 0.349042 0.000000
0.833028 0.349168 0.000000
0.865803 0.349284 0.000000
0.898587 0.349373 0.000000
0.931375 0.349435 0.000000
0.964164 0.349468 0.000000
0.996952 0.349471 0.000000
1.000000 0.349538 0.000000
0.000000 0.377505 0.000000
0.026288 0.377363 0.000000
0.058319 0.377235 0.000000
0.090377 0.377118 0.000000
0.122465 0.377016 0.000000
0.154584 0.376929 0.000000
0.186737 0.376862 0.000000
0.218926 0.376814 0.000000
0.251153 0.376789 0.000000
0.283417 0.376787 0.000000
0.315682 0.376826 0.000000
0.347752 0.376984 0.000000
0.379654 0.377250 0.000000
0.411472 0.377593 0.000000
0.443315 0.377971 0.000000
0.475322 0.378332 0.000000
0.507640 0.378621 0.000000
0.540091 0.378906 0.000000
0.572583 0.379224 0.000000
0.605115 0.379576 0.000000
0.637686 0.379960 0.000000
0.670295 0.380377 0.000000
0.702943 0.380827 0.000000
0.735626 0.381309 0.000000
0.768328 0.381808 0.000000
0.801041 0.381944 0.000000
0.833758 0.382016 0.000000
0.866478 0.382059 0.000000
0.899196 0.382071 0.000000
0.931909 0.382052 0.000000
0.964614 0.382000 0.000000
0.997307 0.381915 0.000000
1.000000 0.381903 0.000000
0.000000 0.408854 0.000000
0.026082 0.408702 0.000000
0.058162 0.408571 0.000000
0.090273 0.408457 0.000000
0.122419 0.408361 0.000000
0.154599 0.408285 0.000000
0.186817 0.408231 0.000000
0.219073 0.408201 0.000000
0.251368 0.408196 0.000000
0.283703 0.408217 0.000000
0.316080 0.408267 0.000000
0.348444 0.408366 0.000000
0.380546 0.408612 0.000000
0.412428 0.408988 0.000000
0.444204 0.409451 0.000000
0.476014 0.409947 0.000000
0.508030 0.410411 0.000000
0.540428 0.410777 0.000000
0.572979 0.411132 0.000000
0.605567 0.411521 0.000000
0.638189 0.411939 0.000000
0.670823 0.412368 0.000000
0.703463 0.412805 0.000000
0.736107 0.413248 0.000000
0.768753 0.413695 0.000000
0.801396 0.414144 0.000000
0.834035 0.414594 0.000000
0.866670 0.414626 0.000000
0.899296 0.414548 0.000000
0.931911 0.414438 0.000000
0.964538 0.414318 0.000000
0.997181 0.414193 0.000000
1.000000 0.414179 0.000000
0.000000 0.440026 0.000000
0.025873 0.439868 0.000000
0.058007 0.439740 0.000000
0.090176 0.439633 0.000000
0.122381 0.439547 0.000000
0.154625 0.439486 0.000000
0.186907 0.439450 0.000000
0.219230 0.439441 0.000000
0.251593 0.439460 0.000000
0.283998 0.439508 0.000000
0.316444 0.439586 0.000000
0.348931 0.439695 0.000000
0.381391 0.439862 0.000000
0.413513 0.440204 0.000000
0.445360 0.440698 0.000000
0.477076 0.441287 0.000000
0.508837 0.441905 0.000000
0.540837 0.442466 0.000000
0.573267 0.442877 0.000000
0.605840 0.443246 0.000000
0.638417 0.443621 0.000000
0.670995 0.444000 0.000000
0.703572 0.444383 0.000000
0.736144 0.444767 0.000000
0.768708 0.445150 0.000000
0.801262 0.445530 0.000000
0.833814 0.445916 0.000000
0.866383 0.446325 0.000000
0.898969 0.446754 0.000000
0.931575 0.446760 0.000000
0.964194 0.446640 0.000000
0.996822 0.446516 0.000000
1.000000 0.446512 0.000000
0.000000 0.471007 0.000000
0.025647 0.470850 0.000000
0.057838 0.470731 0.000000
0.090067 0.470637 0.000000
0.122335 0.470568 0.000000
0.154642 0.470527 0.000000
0.186990 0.470514 0.000000
0.219379 0.470530 0.000000
0.251810 0.470578 0.000000
0.284281 0.470656 0.000000
0.316793 0.470767 0.000000
0.349346 0.470911 0.000000
0.381940 0.471088 0.000000
0.414485 0.471329 0.000000
0.446593 0.471759 0.000000
0.478341 0.472335 0.000000
0.509905 0.472989 0.000000
0.541493 0.473640 0.000000
0.573346 0.474198 0.000000
0.605699 0.474573 0.000000
0.638207 0.474893 0.000000
0.670707 0.475213 0.000000
0.703198 0.475533 0.000000
0.735701 0.475869 0.000000
0.768223 0.476230 0.000000
0.800763 0.476615 0.000000
0.833319 0.477023 0.000000
0.865888 0.477451 0.000000
0.898467 0.477899 0.000000
0.931052 0.478364 0.000000
0.963642 0.478846 0.000000
0.996240 0.478890 0.000000
1.000000 0.478894 0.000000
0.000000 0.501795 0.000000
0.025394 0.501648 0.000000
0.057645 0.501545 0.000000
0.089936 0.501471 0.000000
0.122268 0.501426 0.000000
0.154640 0.501412 0.000000
0.187054 0.501429 0.000000
0.219508 0.501478 0.000000
0.252003 0.501560 0.000000
0.284539 0.501675 0.000000
0.317110 0.501820 0.000000
0.349695 0.501978 0.000000
0.382290 0.502145 0.000000
0.414894 0.502321 0.000000
0.447399 0.502544 0.000000
0.479370 0.502972 0.000000
0.510916 0.503561 0.000000
0.542246 0.504229 0.000000
0.573606 0.504885 0.000000
0.605277 0.505428 0.000000
0.637550 0.505784 0.000000
0.670027 0.506100 0.000000
0.702524 0.506442 0.000000
0.735039 0.506809 0.000000
0.767569 0.507200 0.000000
0.800111 0.507614 0.000000
0.832663 0.508048 0.000000
0.865221 0.508501 0.000000
0.897783 0.508972 0.000000
0.930345 0.509458 0.000000
0.962903 0.509956 0.000000
0.995454 0.510466 0.000000
1.000000 0.510621 0.000000
0.000000 0.532399 0.000000
0.025109 0.532273 0.000000
0.057424 0.532196 0.000000
0.089779 0.532151 0.000000
0.122176 0.532139 0.000000
0.154613 0.532159 0.000000
0.187091 0.532214 0.000000
0.219597 0.532292 0.000000
0.252116 0.532382 0.000000
0.284645 0.532482 0.000000
0.317183 0.532591 0.000000
0.349727 0.532710 0.000000
0.382275 0.532836 0.000000
0.414824 0.532968 0.000000
0.447371 0.533106 0.000000
0.479792 0.533292 0.000000
0.511604 0.533718 0.000000
0.542960 0.534350 0.000000
0.574108 0.535094 0.000000
0.605328 0.535846 0.000000
0.636934 0.536491 0.000000
0.669221 0.536922 0.000000
0.701729 0.537303 0.000000
0.734249 0.537709 0.000000
0.766778 0.538137 0.000000
0.799314 0.538585 0.000000
0.831853 0.539053 0.000000
0.864392 0.539537 0.000000
0.896926 0.540037 0.000000
0.929453 0.540548 0.000000
0.961968 0.541070 0.000000
0.994413 0.541568 0.000000
1.000000 0.541635 0.000000
0.000000 0.562843 0.000000
0.024796 0.562751 0.000000
0.057175 0.562710 0.000000
0.089595 0.562703 0.000000
0.122035 0.562713 0.000000
0.154487 0.562735 0.000000
0.186951 0.562768 0.000000
0.219424 0.562812 0.000000
0.251903 0.562866 0.000000
0.284388 0.562928 0.000000
0.316874 0.562999 0.000000
0.349359 0.563076 0.000000
0.381843 0.563159 0.000000
0.414347 0.563270 0.000000
0.446879 0.563413 0.000000
0.479436 0.563589 0.000000
0.511879 0.563846 0.000000
0.543647 0.564387 0.000000
0.574897 0.565151 0.000000
0.605915 0.566032 0.000000
0.637015 0.566914 0.000000
0.668545 0.567670 0.000000
0.700828 0.568183 0.000000
0.733347 0.568635 0.000000
0.765868 0.569109 0.000000
0.798389 0.569601 0.000000
0.830906 0.570110 0.000000
0.863410 0.570630 0.000000
0.895806 0.571100 0.000000
0.928056 0.571500 0.000000
0.960162 0.571835 0.000000
0.992128 0.572113 0.000000
1.000000 0.571994 0.000000
0.000000 0.593155 0.000000
0.024423 0.593084 0.000000
0.056810 0.593039 0.000000
0.089209 0.593006 0.000000
0.121617 0.592984 0.000000
0.154033 0.592974 0.000000
0.186455 0.592974 0.000000
0.218879 0.592984 0.000000
0.251304 0.593002 0.000000
0.283735 0.593033 0.000000
0.316194 0.593099 0.000000
0.348684 0.593200 0.000000
0.381201 0.593337 0.000000
0.413744 0.593508 0.000000
0.446310 0.593713 0.000000
0.478899 0.593952 0.000000
0.511506 0.594223 0.000000
0.543976 0.594580 0.000000
0.575685 0.595246 0.000000
0.606817 0.596151 0.000000
0.637692 0.597177 0.000000
0.668658 0.598197 0.000000
0.700097 0.599071 0.000000
0.732355 0.599671 0.000000
0.764836 0.600181 0.000000
0.797188 0.600621 0.000000
0.829406 0.600991 0.000000
0.861489 0.601296 0.000000
0.893440 0.601544 0.000000
0.925263 0.601740 0.000000
0.956959 0.601891 0.000000
0.988532 0.602003 0.000000
0.999033 0.601764 0.000000
0.000000 0.623203 0.000000
0.023763 0.623109 0.000000
0.056116 0.623036 0.000000
0.088476 0.622975 0.000000
0.120840 0.622925 0.000000
0.153206 0.622885 0.000000
0.185590 0.622870 0.000000
0.218007 0.622893 0.000000
0.250455 0.622955 0.000000
0.282934 0.623054 0.000000
0.315441 0.623191 0.000000
0.347975 0.623366 0.000000
0.380533 0.623577 0.000000
0.413112 0.623824 0.000000
0.445711 0.624105 0.000000
0.478326 0.624420 0.000000
0.510955 0.624768 0.000000
0.543594 0.625147 0.000000
0.576072 0.625616 0.000000
0.607707 0.626417 0.000000
0.638707 0.627472 0.000000
0.669366 0.628600 0.000000
0.700004 0.629612 0.000000
0.731032 0.630369 0.000000
0.762821 0.630743 0.000000
0.794765 0.630959 0.000000
0.826588 0.631124 0.000000
0.858294 0.631244 0.000000
0.889885 0.631325 0.000000
0.921364 0.631373 0.000000
0.952737 0.631394 0.000000
0.984006 0.631394 0.000000
0.997377 0.631099 0.000000
0.000000 0.652936 0.000000
0.022758 0.652822 0.000000
0.055069 0.652728 0.000000
0.087409 0.652670 0.000000
0.119785 0.652653 0.000000
0.152195 0.652676 0.000000
0.184638 0.652741 0.000000
0.217111 0.652847 0.000000
0.249614 0.652993 0.000000
0.282143 0.653179 0.000000
0.314697 0.653405 0.000000
0.347273 0.653669 0.000000
0.379869 0.653970 0.000000
0.412482 0.654308 0.000000
0.445109 0.654682 0.000000
0.477747 0.655089 0.000000
0.510393 0.655529 0.000000
0.543036 0.655992 0.000000
0.575583 0.656397 0.000000
0.607828 0.656791 0.000000
0.639045 0.657441 0.000000
0.669469 0.658269 0.000000
0.699489 0.659143 0.000000
0.729514 0.659925 0.000000
0.759974 0.660466 0.000000
0.791270 0.660629 0.000000
0.822781 0.660646 0.000000
0.854191 0.660636 0.000000
0.885506 0.660605 0.000000
0.916729 0.660560 0.000000
0.947865 0.660505 0.000000
0.978918 0.660447 0.000000
0.995709 0.660159 0.000000
0.000000 0.682441 0.000000
0.021531 0.682379 0.000000
0.053904 0.682367 0.000000
0.086313 0.682400 0.000000
0.118755 0.682476 0.000000
0.151228 0.682597 0.000000
0.183732 0.682761 0.000000
0.216263 0.682968 0.000000
0.248819 0.683217 0.000000
0.281399 0.683508 0.000000
0.313999 0.683840 0.000000
0.346616 0.684211 0.000000
0.379249 0.684621 0.000000
0.411892 0.685068 0.000000
0.444514 0.685519 0.000000
0.477028 0.685893 0.000000
0.509431 0.686189 0.000000
0.541722 0.686415 0.000000
0.573902 0.686579 0.000000
0.605973 0.686686 0.000000
0.637760 0.686806 0.000000
0.668488 0.687226 0.000000
0.698399 0.687864 0.000000
0.727903 0.688582 0.000000
0.757432 0.689232 0.000000
0.787434 0.689660 0.000000
0.818337 0.689720 0.000000
0.849537 0.689636 0.000000
0.880660 0.689549 0.000000
0.911713 0.689465 0.000000
0.942699 0.689390 0.000000
0.973626 0.689329 0.000000
0.994105 0.689109 0.000000
0.000000 0.712038 0.000000
0.020373 0.712081 0.000000
0.052820 0.712178 0.000000
0.085300 0.712323 0.000000
0.117811 0.712514 0.000000
0.150350 0.712752 0.000000
0.182916 0.713036 0.000000
0.215506 0.713365 0.000000
0.248117 0.713737 0.000000
0.280746 0.714153 0.000000
0.313391 0.714610 0.000000
0.345982 0.715034 0.000000
0.378470 0.715374 0.000000
0.410856 0.715637 0.000000
0.443138 0.715831 0.000000
0.475319 0.715961 0.000000
0.507399 0.716035 0.000000
0.539379 0.716059 0.000000
0.571262 0.716040 0.000000
0.603049 0.715984 0.000000
0.634743 0.715898 0.000000
0.666188 0.715845 0.000000
0.696563 0.716127 0.000000
0.726098 0.716669 0.000000
0.755222 0.717325 0.000000
0.784385 0.717940 0.000000
0.814050 0.718355 0.000000
0.844671 0.718414 0.000000
0.875689 0.718327 0.000000
0.906657 0.718260 0.000000
0.937583 0.718219 0.000000
0.968471 0.718210 0.000000
0.992609 0.718147 0.000000
0.000000 0.741874 0.000000
0.019342 0.742046 0.000000
0.051868 0.742275 0.000000
0.084423 0.742555 0.000000
0.117005 0.742884 0.000000
0.149613 0.743262 0.000000
0.182243 0.743687 0.000000
0.214881 0.744146 0.000000
0.247444 0.744536 0.000000
0.279913 0.744842 0.000000
0.312287 0.745071 0.000000
0.344568 0.745230 0.000000
0.376755 0.745326 0.000000
0.408849 0.745366 0.000000
0.440851 0.745357 0.000000
0.472763 0.745304 0.000000
0.504587 0.745216 0.000000
0.536326 0.745097 0.000000
0.567981 0.744956 0.000000
0.599555 0.744796 0.000000
0.631053 0.744626 0.000000
0.662477 0.744451 0.000000
0.693702 0.744323 0.000000
0.723866 0.744560 0.000000
0.753168 0.745098 0.000000
0.782056 0.745783 0.000000
0.810995 0.746456 0.000000
0.840458 0.746955 0.000000
0.870918 0.747120 0.000000
0.901864 0.747192 0.000000
0.932754 0.747370 0.000000
0.963588 0.747646 0.000000
0.990991 0.747951 0.000000
0.000000 0.772075 0.000000
0.018499 0.772400 0.000000
0.051106 0.772786 0.000000
0.083739 0.773225 0.000000
0.116362 0.773668 0.000000
0.148903 0.774023 0.000000
0.181359 0.774294 0.000000
0.213729 0.774488 0.000000
0.246013 0.774612 0.000000
0.278212 0.774674 0.000000
0.310326 0.774679 0.000000
0.342356 0.774636 0.000000
0.374303 0.774550 0.000000
0.406169 0.774428 0.000000
0.437956 0.774277 0.000000
0.469666 0.774103 0.000000
0.501302 0.773912 0.000000
0.532868 0.773712 0.000000
0.564366 0.773507 0.000000
0.595800 0.773303 0.000000
0.627175 0.773108 0.000000
0.658495 0.772926 0.000000
0.689764 0.772764 0.000000
0.720890 0.772662 0.000000
0.750987 0.772946 0.000000
0.780203 0.773596 0.000000
0.808991 0.774511 0.000000
0.837816 0.775517 0.000000
0.867152 0.776436 0.000000
0.897474 0.777085 0.000000
0.928376 0.777603 0.000000
0.959205 0.778199 0.000000
0.989321 0.778833 0.000368
0.000000 0.802774 0.000000
0.017838 0.803177 0.000000
0.050364 0.803496 0.000000
0.082812 0.803731 0.000000
0.115184 0.803889 0.000000
0.147478 0.803977 0.000000
0.179694 0.804003 0.000000
0.211833 0.803974 0.000000
0.243896 0.803895 0.000000
0.275882 0.803775 0.000000
0.307795 0.803620 0.000000
0.339635 0.803435 0.000000
0.371405 0.803229 0.000000
0.403107 0.803007 0.000000
0.434745 0.802775 0.000000
0.466320 0.802541 0.000000
0.497837 0.802309 0.000000
0.529300 0.802086 0.000000
0.560712 0.801877 0.000000
0.592079 0.801690 0.000000
0.623405 0.801529 0.000000
