assets/LUTs/rescue_flat_boost_33.cube
TITLE "Rescue Flat Boost"
LUT_3D_SIZE 9
DOMAIN_MIN 0.0 0.0 0.0
DOMAIN_MAX 1.0 1.0 1.0
0.000000 0.000000 0.000000
0.081627 0.000000 0.000000
0.232210 0.000000 0.000000
0.400568 0.000000 0.000000
0.575651 0.000000 0.000000
0.747388 0.000000 0.000000
0.906780 0.000000 0.000000
1.000000 0.000000 0.000000
1.000000 0.000000 0.000000
0.000000 0.070760 0.000000
0.066163 0.066163 0.000000
0.217552 0.057907 0.000000
0.386833 0.049557 0.000000
0.562904 0.041938 0.000000
0.735637 0.035612 0.000000
0.895981 0.030848 0.000000
1.000000 0.027642 0.000000
1.000000 0.025761 0.000000
0.000000 0.202585 0.000000
0.038583 0.198228 0.000000
0.190054 0.190054 0.000000
0.361067 0.181014 0.000000
0.538989 0.172658 0.000000
0.713592 0.165587 0.000000
0.875722 0.160112 0.000000
1.000000 0.156267 0.000000
1.000000 0.153861 0.000000
0.000000 0.352073 0.000000
0.010714 0.347990 0.000000
0.160278 0.340331 0.000000
0.331559 0.331559 0.000000
0.511601 0.322359 0.000000
0.688345 0.314435 0.000000
0.852522 0.308145 0.000000
0.995893 0.303569 0.000000
1.000000 0.300562 0.000000
0.000000 0.510073 0.000000
0.000000 0.506284 0.000000
0.132844 0.499175 0.000000
0.301791 0.491034 0.000000
0.482334 0.482334 0.000000
0.661365 0.473499 0.000000
0.827729 0.466339 0.000000
0.973063 0.460981 0.000000
1.000000 0.457331 0.000000
0.000000 0.667791 0.000000
0.000000 0.664298 0.000000
0.109740 0.657745 0.000000
0.276330 0.650240 0.000000
0.454354 0.642220 0.000000
0.634122 0.634122 0.000000
0.802694 0.626082 0.000000
0.950009 0.619935 0.000000
1.000000 0.615636 0.000000
0.000000 0.816818 0.000000
0.000000 0.813609 0.000000
0.091976 0.807586 0.000000
0.256313 0.800690 0.000000
0.431929 0.793320 0.000000
0.609266 0.785878 0.000000
0.778765 0.778765 0.000000
0.927973 0.771864 0.000000
1.000000 0.766944 0.000000
0.000000 0.949120 0.000000
0.000000 0.946164 0.000000
0.079628 0.940618 0.000000
0.241944 0.934268 0.000000
0.415399 0.927481 0.000000
0.590555 0.920628 0.000000
0.757968 0.914078 0.000000
0.908200 0.908200 0.000000
1.000000 0.902723 0.000000
0.000000 1.000000 0.000000
0.000000 1.000000 0.000000
0.072017 1.000000 0.000000
0.232670 1.000000 0.000000
0.404348 1.000000 0.000000
0.577708 1.000000 0.000000
0.743406 1.000000 0.000000
0.892098 1.000000 0.000000
1.000000 1.000000 0.000000
0.000000 0.000000 0.084663
0.080066 0.000000 0.080066
0.230730 0.000000 0.071085
0.399181 0.000000 0.061905
0.574364 0.000000 0.053399
0.746202 0.000000 0.046176
0.905690 0.000000 0.040557
1.000000 0.000000 0.036582
1.000000 0.000000 0.034069
0.000000 0.069198 0.069198
0.064602 0.064602 0.064602
0.216960 0.056188 0.056188
0.387351 0.047657 0.047657
0.564608 0.039844 0.039844
0.738539 0.033322 0.033322
0.900028 0.028371 0.028371
1.000000 0.024997 0.024997
1.000000 0.022979 0.022979
0.000000 0.201105 0.041460
0.036297 0.197069 0.036297
0.188655 0.188655 0.027883
0.360779 0.179435 0.021084
0.539886 0.170885 0.015123
0.715687 0.163618 0.010470
0.878963 0.157956 0.007306
1.000000 0.153943 0.005535
1.000000 0.151399 0.004836
0.000000 0.350686 0.013410
0.007598 0.347292 0.007598
0.158049 0.339393 0.000000
0.330347 0.330347 0.000000
0.511575 0.320953 0.000000
0.689517 0.312834 0.000000
0.854839 0.306357 0.000000
0.999237 0.301613 0.000000
1.000000 0.298468 0.000000
0.000000 0.508787 0.000000
0.000000 0.506079 0.000000
0.129728 0.498730 0.000000
0.299692 0.490315 0.000000
0.481321 0.481321 0.000000
0.661551 0.472291 0.000000
0.829059 0.464943 0.000000
0.975420 0.459418 0.000000
1.000000 0.455630 0.000000
0.000000 0.666605 0.000000
0.000000 0.664590 0.000000
0.105728 0.657798 0.000000
0.273335 0.650018 0.000000
0.452445 0.641705 0.000000
0.633310 0.633310 0.000000
0.803027 0.625083 0.000000
0.951369 0.618769 0.000000
1.000000 0.614332 0.000000
0.000000 0.815728 0.000000
0.000000 0.814376 0.000000
0.087108 0.808114 0.000000
0.252462 0.800943 0.000000
0.429164 0.793280 0.000000
0.607598 0.785542 0.000000
0.778146 0.778146 0.000000
0.928382 0.771077 0.000000
1.000000 0.766019 0.000000
0.000000 0.948116 0.000000
0.000000 0.947358 0.000000
0.073992 0.941573 0.000000
0.237324 0.934948 0.000000
0.411866 0.927868 0.000000
0.588119 0.920719 0.000000
0.756581 0.913885 0.000000
0.907753 0.907753 0.000000
1.000000 0.902138 0.000000
0.000000 1.000000 0.000000
0.000000 1.000000 0.000000
0.065749 1.000000 0.000000
0.227418 1.000000 0.000000
0.400183 1.000000 0.000000
0.574640 1.000000 0.000000
0.741387 1.000000 0.000000
0.891020 1.000000 0.000000
1.000000 1.000000 0.000000
0.000000 0.000000 0.240486
0.076483 0.000000 0.236129
0.227954 0.000000 0.227954
0.396580 0.000000 0.216527
0.571950 0.000000 0.205619
0.743976 0.000000 0.195971
0.903644 0.000000 0.188034
1.000000 0.000000 0.181979
1.000000 0.000000 0.177755
0.000000 0.066183 0.225828
0.061744 0.061744 0.222517
0.214103 0.053330 0.214103
0.384669 0.044974 0.203325
0.562112 0.037348 0.193110
0.736232 0.031015 0.184163
0.897901 0.026245 0.176894
1.000000 0.023032 0.171440
1.000000 0.021147 0.167710
0.000000 0.198329 0.198329
0.033439 0.194212 0.194212
0.185798 0.185798 0.185798
0.360003 0.176237 0.176237
0.541336 0.167324 0.167324
0.719384 0.159690 0.159690
0.884807 0.153677 0.153677
1.000000 0.149350 0.149350
1.000000 0.146547 0.146547
0.000000 0.348085 0.168032
0.004915 0.344610 0.163266
0.153634 0.337401 0.153634
0.327840 0.327840 0.144073
0.511293 0.318082 0.137280
0.691481 0.309596 0.131787
0.858951 0.302768 0.127821
1.000000 0.297710 0.125330
1.000000 0.294305 0.124038
0.000000 0.506372 0.140041
0.000000 0.503583 0.134582
0.123649 0.497662 0.123649
0.295520 0.488731 0.114718
0.479188 0.479188 0.105175
0.661664 0.469790 0.101970
0.831320 0.462092 0.100190
0.979607 0.456252 0.099661
1.000000 0.452204 0.099984
0.000000 0.664379 0.116374
0.000000 0.662284 0.110214
0.097968 0.657662 0.097968
0.267482 0.649368 0.089674
0.448631 0.640504 0.080810
0.631554 0.631554 0.071860
0.803418 0.622976 0.072289
0.953688 0.616347 0.073741
1.000000 0.611651 0.075694
0.000000 0.813683 0.098072
0.000000 0.812250 0.091243
0.077741 0.808871 0.077741
0.245002 0.801185 0.070055
0.423743 0.792971 0.061842
0.604235 0.784678 0.053548
0.776750 0.776750 0.045620
0.928913 0.769367 0.048967
1.000000 0.764050 0.052478
0.000000 0.946232 0.085242
0.000000 0.945393 0.077812
0.063183 0.943130 0.063183
0.228423 0.935990 0.056043
0.405004 0.928359 0.048413
0.583314 0.920654 0.040708
0.753744 0.913290 0.033344
0.906681 0.906681 0.026735
1.000000 0.900807 0.031645
0.000000 1.000000 0.077235
0.000000 1.000000 0.069310
0.053755 1.000000 0.053755
0.217331 1.000000 0.047064
0.392134 1.000000 0.039913
0.568649 1.000000 0.032693
0.737363 1.000000 0.025792
0.888762 1.000000 0.019599
1.000000 1.000000 0.014503
0.000000 0.000000 0.414114
0.072756 0.000000 0.410032
0.222320 0.000000 0.402373
0.393601 0.000000 0.393601
0.569185 0.000000 0.379943
0.741428 0.000000 0.367518
0.901302 0.000000 0.356925
1.000000 0.000000 0.348488
1.000000 0.000000 0.342304
0.000000 0.063104 0.400380
0.058847 0.058847 0.398541
0.209298 0.050948 0.390643
0.381597 0.041902 0.381597
0.559254 0.034490 0.368632
0.733590 0.028373 0.356907
0.895466 0.023809 0.346984
1.000000 0.020782 0.339148
1.000000 0.019050 0.333458
0.000000 0.194561 0.374614
0.032274 0.190625 0.371969
0.182551 0.182551 0.366317
0.356756 0.172990 0.356756
0.538303 0.164291 0.345093
0.716567 0.156873 0.334681
0.882197 0.151067 0.326014
1.000000 0.146925 0.319305
1.000000 0.144274 0.314542
0.000000 0.345106 0.345106
0.001843 0.341538 0.341538
0.150387 0.334154 0.334154
0.324593 0.324593 0.324593
0.510594 0.314419 0.314419
0.693356 0.305512 0.305512
0.863285 0.298283 0.298283
1.000000 0.292864 0.292864
1.000000 0.289163 0.289163
0.000000 0.503608 0.314365
0.000000 0.500725 0.310103
0.120616 0.494629 0.301418
0.290367 0.486543 0.290367
0.476369 0.476369 0.280193
0.661418 0.466551 0.273575
0.833534 0.458451 0.268532
0.984028 0.452250 0.265075
1.000000 0.447906 0.262989
0.000000 0.661831 0.287921
0.000000 0.659642 0.282959
0.095151 0.654845 0.272960
0.260405 0.648248 0.260405
0.443887 0.638754 0.250911
0.629167 0.629167 0.241324
0.803491 0.620188 0.238490
0.955967 0.613198 0.237014
1.000000 0.608205 0.236558
0.000000 0.811341 0.266964
0.000000 0.809814 0.261333
0.075131 0.806261 0.250078
0.236085 0.801086 0.236085
0.417160 0.792243 0.227241
0.600009 0.783312 0.218311
0.774777 0.774777 0.209775
0.929147 0.767033 0.210194
1.000000 0.761419 0.211296
0.000000 0.944076 0.251752
0.000000 0.943143 0.245520
0.060759 0.940705 0.233138
0.217855 0.936808 0.217855
0.396769 0.928547 0.209594
0.577437 0.920206 0.201253
0.750119 0.912233 0.193280
0.905079 0.905079 0.186126
1.000000 0.898908 0.188626
0.000000 1.000000 0.241784
0.000000 1.000000 0.235058
0.051482 1.000000 0.221750
0.205404 1.000000 0.205404
0.382541 1.000000 0.197624
0.561414 1.000000 0.189767
0.732381 1.000000 0.182257
0.885800 1.000000 0.175519
1.000000 1.000000 0.169974
0.000000 0.000000 0.593970
0.069216 0.000000 0.590181
0.216741 0.000000 0.583072
0.385688 0.000000 0.574931
0.566231 0.000000 0.566231
0.738704 0.000000 0.550838
0.898799 0.000000 0.537409
1.000000 0.000000 0.526426
1.000000 0.000000 0.518147
0.000000 0.060257 0.581223
0.056194 0.056194 0.580958
0.204607 0.048845 0.573609
0.374571 0.040429 0.565193
0.556200 0.031436 0.556200
0.730767 0.025550 0.541507
0.892863 0.021207 0.528747
1.000000 0.018378 0.518365
1.000000 0.016808 0.510581
0.000000 0.190977 0.557308
0.031473 0.187234 0.556236
0.179524 0.179524 0.553537
0.351395 0.170593 0.544606
0.535062 0.161050 0.535062
0.713557 0.153863 0.521683
0.879407 0.148277 0.510179
1.000000 0.144334 0.500924
1.000000 0.141846 0.494067
0.000000 0.340678 0.529920
0.003162 0.337303 0.527925
0.149481 0.330282 0.523493
0.321138 0.321138 0.517313
0.507139 0.310964 0.507139
0.690131 0.302288 0.495264
0.860281 0.295280 0.485198
1.000000 0.290059 0.477234
1.000000 0.286521 0.471438
0.000000 0.500653 0.500653
0.000000 0.497671 0.497671
0.117375 0.491388 0.491388
0.286912 0.483087 0.483087
0.472914 0.472914 0.472914
0.660713 0.462647 0.462647
0.835457 0.454117 0.454117
0.988310 0.447532 0.447532
1.000000 0.442871 0.442871
0.000000 0.659107 0.471241
0.000000 0.656818 0.467559
0.092141 0.651835 0.459962
0.257180 0.645024 0.450157
0.438375 0.636441 0.438375
0.626174 0.626174 0.428108
0.803126 0.616766 0.421787
0.957961 0.609391 0.417183
1.000000 0.604081 0.414152
0.000000 0.808838 0.447447
0.000000 0.807212 0.443096
0.072342 0.803471 0.434243
0.233082 0.798083 0.423000
0.409682 0.791021 0.409682
0.595050 0.781411 0.400072
0.772225 0.772225 0.390886
0.928954 0.764096 0.388176
1.000000 0.758165 0.386703
0.000000 0.941771 0.429689
0.000000 0.940739 0.424738
0.058167 0.938114 0.414758
0.215049 0.934002 0.402225
0.387527 0.928305 0.387527
0.570714 0.919284 0.378506
0.745803 0.910661 0.369883
0.902923 0.902923 0.362145
1.000000 0.896436 0.362071
0.000000 1.000000 0.417627
0.000000 1.000000 0.412181
0.049054 1.000000 0.401275
0.202762 1.000000 0.387679
0.371848 1.000000 0.371848
0.553239 1.000000 0.363311
0.726613 1.000000 0.355151
0.882193 1.000000 0.347829
1.000000 1.000000 0.341805
0.000000 0.000000 0.769623
0.066105 0.000000 0.766130
0.211572 0.000000 0.759577
0.378162 0.000000 0.752072
0.556186 0.000000 0.744052
0.735954 0.000000 0.735954
0.896272 0.000000 0.719660
1.000000 0.000000 0.706107
1.000000 0.000000 0.695713
0.000000 0.057847 0.757872
0.053979 0.053979 0.759196
0.200334 0.047186 0.752403
0.367941 0.039407 0.744624
0.547051 0.031093 0.736310
0.727916 0.022699 0.727916
0.890235 0.018579 0.712292
1.000000 0.015950 0.699339
1.000000 0.014545 0.689440
0.000000 0.187822 0.735827
0.031127 0.184275 0.736344
0.176931 0.176931 0.736625
0.346446 0.168637 0.728331
0.527594 0.159774 0.719468
0.710517 0.150823 0.710517
0.876591 0.145461 0.696149
1.000000 0.141717 0.684323
1.000000 0.139394 0.675351
0.000000 0.336670 0.710580
0.004957 0.333491 0.710174
0.149029 0.326837 0.708723
0.318113 0.318113 0.705956
0.501596 0.308619 0.696463
0.686876 0.299032 0.686876
0.857248 0.292247 0.673945
1.000000 0.287226 0.663410
1.000000 0.283852 0.655499
0.000000 0.495734 0.683601
0.000000 0.492948 0.682208
0.119211 0.487032 0.678905
0.286175 0.479152 0.674019
0.469427 0.469427 0.667493
0.657226 0.459160 0.657226
0.832193 0.450854 0.645832
0.985246 0.444468 0.636676
1.000000 0.439972 0.629900
0.000000 0.656357 0.656357
0.000000 0.653968 0.653968
0.089102 0.648796 0.648796
0.253925 0.641768 0.641768
0.434889 0.632954 0.632954
0.622687 0.622687 0.622687
0.802294 0.612845 0.612845
0.959510 0.605082 0.605082
1.000000 0.599451 0.599451
0.000000 0.806311 0.629699
0.000000 0.804584 0.626640
0.069525 0.800655 0.620213
0.230049 0.795050 0.611747
0.406418 0.787757 0.601397
0.589578 0.779026 0.589578
0.769184 0.769184 0.579736
0.928294 0.760666 0.573866
1.000000 0.754415 0.569794
0.000000 0.939444 0.609370
0.000000 0.938311 0.605711
0.055551 0.935497 0.598157
0.212217 0.931170 0.588401
0.384464 0.925241 0.576671
0.563460 0.917888 0.563460
0.740981 0.908609 0.554181
0.900282 0.900282 0.545854
1.000000 0.893475 0.543181
0.000000 1.000000 0.595193
0.000000 1.000000 0.591040
0.046602 1.000000 0.582558
0.200094 1.000000 0.571741
0.368948 1.000000 0.558877
0.544520 1.000000 0.544520
0.720325 1.000000 0.535704
0.878087 1.000000 0.527793
1.000000 1.000000 0.521284
0.000000 0.000000 0.931910
0.063567 0.000000 0.928700
0.207067 0.000000 0.922678
0.371405 0.000000 0.915782
0.547021 0.000000 0.908412
0.724358 0.000000 0.900970
0.893856 0.000000 0.893856
1.000000 0.000000 0.877846
1.000000 0.000000 0.865431
0.000000 0.055979 0.921112
0.052298 0.052298 0.923954
0.196685 0.046036 0.917692
0.362039 0.038865 0.910521
0.538742 0.031202 0.902858
0.717176 0.023463 0.895120
0.887723 0.016067 0.887723
1.000000 0.013630 0.872314
1.000000 0.012382 0.860393
0.000000 0.185242 0.900853
0.031233 0.181882 0.902889
0.174890 0.174890 0.906019
0.342151 0.167204 0.898333
0.520892 0.158990 0.890120
0.701384 0.150696 0.881826
0.873898 0.142769 0.873898
1.000000 0.139216 0.859616
1.000000 0.137050 0.848622
0.000000 0.333276 0.877653
0.007109 0.330283 0.878765
0.149033 0.323981 0.880163
0.315658 0.315658 0.880659
0.496733 0.306814 0.871816
0.679582 0.297884 0.862885
0.854350 0.289348 0.854350
1.000000 0.284518 0.841357
1.000000 0.281302 0.831425
0.000000 0.491469 0.852860
0.000000 0.488870 0.852986
0.121403 0.483304 0.852532
0.285907 0.475826 0.850909
0.466530 0.466530 0.847869
0.651898 0.456920 0.838259
0.829073 0.447734 0.829073
0.982318 0.441540 0.817460
1.000000 0.437201 0.808663
0.000000 0.651212 0.827824
0.000000 0.649010 0.826954
0.093501 0.644189 0.824631
0.255865 0.637563 0.820866
0.434200 0.629178 0.815539
0.619345 0.619345 0.808793
0.798951 0.609503 0.798951
0.956359 0.601930 0.788730
1.000000 0.596457 0.781079
0.000000 0.803895 0.803895
0.000000 0.802072 0.802072
0.066833 0.797963 0.797963
0.227150 0.792152 0.792152
0.403299 0.784638 0.784638
0.586236 0.775684 0.775684
0.765842 0.765842 0.765842
0.927228 0.756952 0.756952
1.000000 0.750395 0.750395
0.000000 0.937219 0.781110
0.000000 0.935991 0.778686
0.053050 0.932996 0.773450
0.209509 0.928462 0.766348
0.381535 0.922313 0.757456
0.560309 0.914737 0.747109
0.735936 0.906212 0.735936
0.897322 0.897322 0.727046
1.000000 0.890209 0.721888
0.000000 1.000000 0.764911
0.000000 1.000000 0.761993
0.044258 1.000000 0.755830
0.197543 1.000000 0.747667
0.366177 1.000000 0.737639
0.541526 1.000000 0.726147
0.713879 1.000000 0.713879
0.873726 1.000000 0.705405
1.000000 1.000000 0.698432
0.000000 0.000000 1.000000
0.061653 0.000000 1.000000
0.203388 0.000000 1.000000
0.365703 0.000000 1.000000
0.539159 0.000000 1.000000
0.714314 0.000000 1.000000
0.881728 0.000000 1.000000
1.000000 0.000000 1.000000
1.000000 0.000000 1.000000
0.000000 0.054665 1.000000
0.051152 0.051152 1.000000
0.193774 0.045367 1.000000
0.357107 0.038741 1.000000
0.531649 0.031662 1.000000
0.707901 0.024512 1.000000
0.876364 0.017679 1.000000
1.000000 0.011547 1.000000
1.000000 0.010440 1.000000
0.000000 0.183290 1.000000
0.031690 0.180098 1.000000
0.173420 0.173420 1.000000
0.338660 0.166280 1.000000
0.515240 0.158650 1.000000
0.693551 0.150945 1.000000
0.863980 0.143580 1.000000
1.000000 0.136972 1.000000
1.000000 0.134947 1.000000
0.000000 0.330592 1.000000
0.009403 0.327768 1.000000
0.149400 0.321780 1.000000
0.313818 0.313818 1.000000
0.492732 0.305557 1.000000
0.673400 0.297216 1.000000
0.846082 0.289243 1.000000
1.000000 0.282089 1.000000
1.000000 0.279014 0.989295
0.000000 0.488004 1.000000
0.000000 0.485573 1.000000
0.123731 0.480322 1.000000
0.286029 0.473204 1.000000
0.464294 0.464294 1.000000
0.647480 0.455272 0.996050
0.822570 0.446650 0.987428
0.979690 0.438912 0.979690
1.000000 0.434714 0.969078
0.000000 0.646958 0.977032
0.000000 0.644924 0.977524
0.097812 0.640417 0.977758
0.257968 0.634152 0.976921
0.433945 0.626153 0.974723
0.616708 0.616708 0.971137
0.794229 0.607429 0.961858
0.953531 0.599103 0.953531
1.000000 0.593771 0.944065
0.000000 0.798887 0.954997
0.000000 0.797232 0.954536
0.073037 0.793437 0.952983
0.231147 0.787986 0.950100
0.404938 0.780858 0.945716
0.585493 0.772293 0.939921
0.762823 0.762823 0.933099
0.924209 0.753933 0.924209
1.000000 0.747517 0.915838
0.000000 0.935223 0.935223
0.000000 0.933908 0.933908
0.050805 0.930752 0.930752
0.207079 0.926032 0.926032
0.378907 0.919685 0.919685
0.557481 0.911909 0.911909
0.732917 0.903193 0.903193
0.894303 0.894303 0.894303
1.000000 0.886915 0.886915
0.000000 1.000000 0.917210
0.000000 1.000000 0.915401
0.042155 1.000000 0.911318
0.195255 1.000000 0.905537
0.363691 1.000000 0.898055
0.538839 1.000000 0.889133
0.711001 1.000000 0.879322
0.869450 1.000000 0.869450
1.000000 1.000000 0.862062
0.000000 0.000000 1.000000
0.060335 0.000000 1.000000
0.200617 0.000000 1.000000
0.361270 0.000000 1.000000
0.532948 0.000000 1.000000
0.706308 0.000000 1.000000
0.872006 0.000000 1.000000
1.000000 0.000000 1.000000
1.000000 0.000000 1.000000
0.000000 0.053841 1.000000
0.050466 0.050466 1.000000
0.191636 0.045073 1.000000
0.353305 0.038897 1.000000
0.526070 0.032297 1.000000
0.700527 0.025633 1.000000
0.867274 0.019263 1.000000
1.000000 0.013546 1.000000
1.000000 0.008843 1.000000
0.000000 0.181941 1.000000
0.032324 0.178887 1.000000
0.172468 0.172468 1.000000
0.336044 0.165777 1.000000
0.510847 0.158627 1.000000
0.687363 0.151406 1.000000
0.856077 0.144505 1.000000
1.000000 0.138312 1.000000
1.000000 0.133217 1.000000
0.000000 0.328642 1.000000
0.011547 0.325955 1.000000
0.149959 0.320226 1.000000
0.312561 0.312561 1.000000
0.489698 0.304780 1.000000
0.668570 0.296923 1.000000
0.839537 0.289414 1.000000
0.992957 0.282675 1.000000
1.000000 0.277131 1.000000
0.000000 0.485411 1.000000
0.000000 0.483117 1.000000
0.125905 0.478126 1.000000
0.286387 0.471304 1.000000
0.462711 0.462711 1.000000
0.644102 0.454174 1.000000
0.817477 0.446015 1.000000
0.973057 0.438693 1.000000
1.000000 0.432668 1.000000
0.000000 0.643716 1.000000
0.000000 0.641819 1.000000
0.101615 0.637572 1.000000
0.259956 0.631603 1.000000
0.433993 0.623921 1.000000
0.614796 0.614796 1.000000
0.790602 0.605980 1.000000
0.948364 0.598069 1.000000
1.000000 0.591560 1.000000
0.000000 0.795024 1.000000
0.000000 0.793507 1.000000
0.078399 0.789971 1.000000
0.234694 0.784817 1.000000
0.406543 0.778005 1.000000
0.585139 0.769760 1.000000
0.760596 0.760596 1.000000
0.920443 0.752122 1.000000
1.000000 0.745150 1.000000
0.000000 0.930803 1.000000
0.000000 0.929626 1.000000
0.057566 0.926729 1.000000
0.212024 0.922306 1.000000
0.381912 0.916276 1.000000
0.558526 0.908820 1.000000
0.732089 0.900410 1.000000
0.891794 0.891794 1.000000
1.000000 0.884406 1.000000
0.000000 1.000000 1.000000
0.000000 1.000000 1.000000
0.040425 1.000000 1.000000
0.193372 1.000000 1.000000
0.361645 1.000000 1.000000
0.536629 1.000000 1.000000
0.708633 1.000000 1.000000
0.866941 1.000000 1.000000
1.000000 1.000000 1.000000
