assets/LUTs/rescue_punch_33.cube
TITLE "Rescue Punch"
LUT_3D_SIZE 9
DOMAIN_MIN 0.0 0.0 0.0
DOMAIN_MAX 1.0 1.0 1.0
0.007912 0.000000 0.000000
0.137679 0.000000 0.000000
0.275056 0.000000 0.000000
0.414716 0.000000 0.000000
0.551934 0.000000 0.000000
0.682657 0.000000 0.000000
0.803527 0.000000 0.000000
0.911850 0.000000 0.000000
1.000000 0.000000 0.000000
0.000000 0.117820 0.000000
0.122179 0.113127 0.000000
0.261734 0.108572 0.000000
0.403699 0.105310 0.000000
0.543285 0.103630 0.000000
0.676371 0.103640 0.000000
0.799534 0.105262 0.000000
0.910014 0.108235 0.000000
1.000000 0.111875 0.000000
0.000000 0.246022 0.000000
0.107002 0.241990 0.000000
0.247072 0.237536 0.000000
0.391575 0.233263 0.000000
0.533765 0.230545 0.000000
0.669453 0.229520 0.000000
0.795139 0.230137 0.000000
0.907992 0.232165 0.000000
1.000000 0.235000 0.000000
0.000000 0.379957 0.000000
0.096090 0.376613 0.000000
0.233403 0.372942 0.000000
0.378712 0.369010 0.000000
0.523666 0.365192 0.000000
0.662113 0.363068 0.000000
0.790477 0.362619 0.000000
0.905848 0.363644 0.000000
1.000000 0.365625 0.000000
0.000000 0.515506 0.000000
0.090469 0.512870 0.000000
0.224902 0.509977 0.000000
0.367223 0.506914 0.000000
0.513278 0.503704 0.000000
0.654563 0.500450 0.000000
0.785680 0.498903 0.000000
0.903642 0.498898 0.000000
1.000000 0.500000 0.000000
0.000000 0.648792 0.000000
0.090529 0.646865 0.000000
0.222082 0.644749 0.000000
0.361355 0.642509 0.000000
0.504360 0.640209 0.000000
0.647012 0.637831 0.000000
0.780884 0.635188 0.000000
0.901436 0.634151 0.000000
1.000000 0.634375 0.000000
0.000000 0.776190 0.000000
0.096034 0.774951 0.000000
0.224788 0.773591 0.000000
0.361097 0.772152 0.000000
0.501059 0.770673 0.000000
0.640772 0.769198 0.000000
0.776221 0.767670 0.000000
0.899291 0.765630 0.000000
1.000000 0.765000 0.000000
0.000000 0.894315 0.000000
0.106139 0.893725 0.000000
0.232254 0.893078 0.000000
0.365770 0.892393 0.000000
0.502864 0.891689 0.000000
0.639713 0.890986 0.000000
0.772494 0.890305 0.000000
0.897270 0.889560 0.000000
1.000000 0.888125 0.000000
0.006751 1.000000 0.000000
0.119458 1.000000 0.000000
0.243175 1.000000 0.000000
0.374153 1.000000 0.000000
0.508640 1.000000 0.000000
0.642887 1.000000 0.000000
0.773144 1.000000 0.000000
0.895662 1.000000 0.000000
1.000000 1.000000 0.000000
0.006314 0.000000 0.123130
0.136220 0.000000 0.118171
0.273802 0.000000 0.111848
0.413679 0.000000 0.106715
0.551120 0.000000 0.103113
0.682066 0.000000 0.101206
0.803151 0.000000 0.100966
0.911677 0.000000 0.102189
1.000000 0.000000 0.104338
0.000000 0.116382 0.107362
0.120869 0.111644 0.102474
0.262865 0.106690 0.097725
0.407415 0.103005 0.094258
0.549654 0.100892 0.092367
0.685390 0.100469 0.092167
0.811122 0.101671 0.093585
0.924020 0.104250 0.096367
1.000000 0.107553 0.099844
0.000000 0.244841 0.091994
0.103862 0.241502 0.085851
0.246182 0.236458 0.081042
0.393269 0.231763 0.080112
0.538114 0.228612 0.080827
0.676450 0.227154 0.083228
0.804706 0.227351 0.087169
0.919977 0.228985 0.092325
1.000000 0.231483 0.097822
0.000000 0.379047 0.080907
0.091023 0.377196 0.073446
0.230572 0.372922 0.069171
0.378262 0.368364 0.065104
0.525870 0.364113 0.068583
0.666966 0.361556 0.073744
0.797899 0.360687 0.080362
0.915688 0.361318 0.088036
1.000000 0.362962 0.095678
0.000000 0.514876 0.075103
0.083418 0.514555 0.066288
0.220087 0.511058 0.062791
0.364776 0.507355 0.059089
0.513275 0.503503 0.055988
0.657209 0.499816 0.063987
0.790897 0.497850 0.073360
0.911276 0.497450 0.083624
1.000000 0.498216 0.093472
0.000000 0.648441 0.074982
0.081495 0.649650 0.064812
0.215284 0.646931 0.062092
0.356924 0.644052 0.059213
0.502360 0.641095 0.056257
0.647453 0.638076 0.054231
0.783894 0.635014 0.066357
0.906864 0.633582 0.079211
1.000000 0.633469 0.091266
0.000000 0.776111 0.080311
0.085072 0.778807 0.068824
0.216062 0.776843 0.066860
0.354738 0.774764 0.064781
0.497131 0.772630 0.062647
0.639270 0.770499 0.060516
0.777087 0.768349 0.059550
0.902575 0.765915 0.074923
1.000000 0.764948 0.089121
0.000000 0.894492 0.090250
0.093360 0.898590 0.077521
0.221711 0.897339 0.076270
0.357594 0.896014 0.074945
0.497118 0.894654 0.073585
0.636394 0.893297 0.072228
0.771530 0.891980 0.070910
0.898532 0.890649 0.070880
1.000000 0.888878 0.087100
0.005685 1.000000 0.103418
0.105027 1.000000 0.089560
0.230981 1.000000 0.088957
0.364325 1.000000 0.088317
0.501243 1.000000 0.087661
0.637917 1.000000 0.087006
0.770529 1.000000 0.086370
0.895260 1.000000 0.085772
1.000000 1.000000 0.085263
0.004869 0.000000 0.262412
0.132671 0.000000 0.258336
0.272329 0.000000 0.253292
0.412461 0.000000 0.244883
0.550163 0.000000 0.237918
0.681371 0.000000 0.232654
0.802710 0.000000 0.229157
0.911474 0.000000 0.227316
1.000000 0.000000 0.226856
0.000000 0.114285 0.248994
0.119004 0.109945 0.247312
0.261347 0.104954 0.241909
0.406323 0.101478 0.235120
0.548999 0.099579 0.229819
0.685171 0.099370 0.226214
0.811328 0.100780 0.224329
0.924623 0.103554 0.224004
1.000000 0.107023 0.224834
0.000000 0.243339 0.233812
0.101870 0.239894 0.230165
0.244696 0.234751 0.224844
0.394817 0.229561 0.219888
0.542778 0.225901 0.216469
0.684224 0.223935 0.214744
0.815499 0.223639 0.214681
0.933608 0.224809 0.216071
1.000000 0.226912 0.218361
0.000000 0.377800 0.219457
0.088974 0.375966 0.214183
0.226805 0.372456 0.207394
0.377292 0.367164 0.202363
0.528016 0.362404 0.201708
0.672222 0.359339 0.202742
0.806174 0.357977 0.205356
0.926801 0.358144 0.209264
1.000000 0.359394 0.213699
0.000000 0.513889 0.210293
0.081310 0.513713 0.203344
0.213991 0.511885 0.195062
0.361460 0.507432 0.190609
0.512831 0.502826 0.186522
0.659875 0.498631 0.190395
0.796581 0.496172 0.195763
0.919799 0.495308 0.202261
1.000000 0.495679 0.208902
0.000000 0.647717 0.206812
0.079329 0.649198 0.198188
0.206860 0.649051 0.188413
0.351280 0.645421 0.184783
0.499570 0.641694 0.181057
0.647528 0.637923 0.178048
0.786988 0.634367 0.186170
0.912796 0.632471 0.195259
1.000000 0.631964 0.204106
0.000000 0.775640 0.208874
0.082850 0.778732 0.198623
0.205374 0.780220 0.187396
0.346830 0.777391 0.184567
0.492077 0.774486 0.181661
0.637065 0.771586 0.178761
0.777663 0.768705 0.176845
0.905989 0.765807 0.188452
1.000000 0.764446 0.199443
0.000000 0.894261 0.215734
0.091085 0.898872 0.203948
0.208889 0.901901 0.191353
0.347552 0.899826 0.189278
0.489930 0.897695 0.187147
0.632055 0.895568 0.185020
0.769956 0.893505 0.182957
0.899573 0.891487 0.182036
1.000000 0.889321 0.195048
0.005672 1.000000 0.226104
0.102703 1.000000 0.212924
0.216220 1.000000 0.199085
0.352344 1.000000 0.197696
0.492116 1.000000 0.196269
0.631639 1.000000 0.194844
0.767015 1.000000 0.193462
0.894347 1.000000 0.192162
1.000000 1.000000 0.191055
0.003856 0.000000 0.403771
0.129115 0.000000 0.400382
0.266610 0.000000 0.396662
0.411166 0.000000 0.391780
0.549147 0.000000 0.381240
0.680632 0.000000 0.372406
0.802240 0.000000 0.365445
0.911258 0.000000 0.360347
1.000000 0.000000 0.357113
0.000000 0.112539 0.392826
0.117509 0.108667 0.394626
0.257402 0.104300 0.390259
0.404796 0.099951 0.384991
0.547751 0.098331 0.376114
0.684201 0.098400 0.368941
0.810627 0.100079 0.363592
0.924176 0.103107 0.360010
1.000000 0.106792 0.358066
0.000000 0.240675 0.380241
0.102721 0.237641 0.380234
0.242716 0.232962 0.378659
0.393234 0.227727 0.372967
0.541662 0.224295 0.365921
0.683576 0.222555 0.360575
0.815304 0.222479 0.357000
0.933839 0.223856 0.355085
1.000000 0.226136 0.354562
0.000000 0.376473 0.366760
0.087414 0.374406 0.364483
0.224679 0.370770 0.360614
0.375737 0.365366 0.355013
0.529775 0.360064 0.349963
0.677288 0.356459 0.346610
0.814448 0.354573 0.344967
0.938093 0.354248 0.344871
1.000000 0.355077 0.345896
0.000000 0.512841 0.354024
0.080029 0.512431 0.350072
0.211799 0.510614 0.344365
0.357413 0.506990 0.337160
0.511835 0.501583 0.332024
0.662187 0.496848 0.331509
0.802101 0.493865 0.332621
0.928337 0.492508 0.335115
1.000000 0.492459 0.338346
0.000000 0.646946 0.346970
0.078326 0.648194 0.341343
0.204600 0.648196 0.333798
0.344756 0.646354 0.325007
0.496081 0.641808 0.320461
0.647086 0.637236 0.316408
0.789754 0.633157 0.320274
0.918580 0.630768 0.325358
1.000000 0.629841 0.330796
0.000000 0.775140 0.345559
0.082117 0.777999 0.338304
0.203049 0.779769 0.328972
0.337899 0.779660 0.318640
0.486181 0.775936 0.314915
0.634198 0.772218 0.311198
0.777752 0.768561 0.308271
0.909096 0.765170 0.315874
1.000000 0.763389 0.323456
0.000000 0.894016 0.349145
0.090606 0.898393 0.340356
0.206502 0.901830 0.329340
0.336352 0.903355 0.317554
0.481765 0.900405 0.314604
0.626919 0.897460 0.311660
0.767759 0.894603 0.308802
0.900156 0.891854 0.306934
1.000000 0.889268 0.316537
0.005658 1.000000 0.356541
0.102456 1.000000 0.346357
0.213777 1.000000 0.333810
0.339083 1.000000 0.320705
0.481890 1.000000 0.318458
0.624442 1.000000 0.316216
0.762757 1.000000 0.314040
0.892854 1.000000 0.311994
1.000000 1.000000 0.310251
0.003376 0.000000 0.542213
0.126014 0.000000 0.539532
0.260632 0.000000 0.536589
0.403150 0.000000 0.533473
0.548099 0.000000 0.528951
0.679870 0.000000 0.516439
0.801757 0.000000 0.505909
0.911036 0.000000 0.497454
1.000000 0.000000 0.491360
0.000000 0.111302 0.533816
0.116533 0.107915 0.539205
0.253548 0.104324 0.535614
0.398605 0.100523 0.531813
0.546465 0.097044 0.526892
0.683201 0.097400 0.516039
0.809904 0.099357 0.507121
0.923715 0.102646 0.500182
1.000000 0.106553 0.495379
0.000000 0.238403 0.523831
0.104329 0.235837 0.527621
0.241200 0.231688 0.529988
0.389050 0.227132 0.525433
0.540113 0.222746 0.520072
0.682313 0.221293 0.511048
0.814319 0.221494 0.503903
0.933116 0.223132 0.498631
1.000000 0.225635 0.495249
0.000000 0.373247 0.513238
0.091419 0.371602 0.514712
0.225726 0.368429 0.514961
0.373698 0.363530 0.513449
0.528159 0.358181 0.507622
0.676157 0.354809 0.500536
0.813787 0.353149 0.495273
0.937874 0.353036 0.491771
1.000000 0.354046 0.489895
0.000000 0.511760 0.502157
0.078708 0.511111 0.501293
0.210214 0.509029 0.498977
0.355216 0.505265 0.494964
0.510245 0.499738 0.489230
0.664005 0.494446 0.484193
0.807226 0.490923 0.480918
0.936573 0.489058 0.479286
1.000000 0.488576 0.479003
0.000000 0.646152 0.491421
0.077291 0.647160 0.488882
0.203302 0.646897 0.484728
0.342485 0.645059 0.478769
0.491921 0.641362 0.471383
0.646066 0.635965 0.466254
0.792041 0.631345 0.465733
0.923978 0.628448 0.466691
1.000000 0.627088 0.468614
0.000000 0.774624 0.486431
0.081361 0.777243 0.482264
0.202029 0.778749 0.476323
0.335557 0.778783 0.468472
0.479540 0.776867 0.459499
0.630679 0.772306 0.454938
0.777279 0.767848 0.450971
0.911734 0.763949 0.454447
1.000000 0.761735 0.458515
0.000000 0.893763 0.486643
0.090113 0.897900 0.480942
0.205745 0.901073 0.473316
0.333942 0.902872 0.463683
0.472786 0.902634 0.453214
0.621062 0.898846 0.449426
0.764931 0.895171 0.445751
0.900194 0.891669 0.442907
1.000000 0.888651 0.448996
0.005644 1.000000 0.490973
0.102202 1.000000 0.483878
0.213259 1.000000 0.474721
0.336612 1.000000 0.463467
0.470786 1.000000 0.451639
0.616460 1.000000 0.448554
0.757805 1.000000 0.445560
0.890751 1.000000 0.442744
1.000000 1.000000 0.440346
0.003469 0.000000 0.673526
0.123481 0.000000 0.671553
0.255217 0.000000 0.669388
0.394683 0.000000 0.667096
0.537887 0.000000 0.664743
0.679107 0.000000 0.660729
0.801272 0.000000 0.646624
0.910813 0.000000 0.634805
1.000000 0.000000 0.625847
0.000000 0.110638 0.667681
0.116128 0.107735 0.676664
0.250262 0.104922 0.673852
0.392267 0.101945 0.670874
0.538077 0.098888 0.667817
0.682199 0.096398 0.663401
0.809181 0.098633 0.650907
0.923253 0.102184 0.640604
1.000000 0.106314 0.632937
0.000000 0.236702 0.660302
0.106514 0.234603 0.667894
0.240256 0.230985 0.674212
0.385054 0.227254 0.670480
0.533733 0.223422 0.666648
0.681048 0.220028 0.661789
0.813332 0.220508 0.651069
0.932391 0.222408 0.642434
1.000000 0.225133 0.636187
0.000000 0.370444 0.652473
0.096369 0.369268 0.657749
0.227529 0.366609 0.662173
0.372188 0.362272 0.664846
0.523909 0.357619 0.660193
0.674613 0.353265 0.654864
0.812521 0.351883 0.646024
0.936870 0.352032 0.639159
1.000000 0.353265 0.634419
0.000000 0.508026 0.644419
0.085932 0.507799 0.647313
0.214477 0.506181 0.649121
0.356343 0.502909 0.649474
0.508201 0.497899 0.647949
0.662389 0.492558 0.642136
0.806084 0.489261 0.635233
0.935875 0.487608 0.630188
1.000000 0.487308 0.626998
0.000000 0.645357 0.636131
0.076255 0.646123 0.636686
0.202001 0.645597 0.635927
0.340905 0.643479 0.633564
0.489716 0.639635 0.629467
0.644470 0.634117 0.623745
0.793758 0.628956 0.618829
0.928811 0.625550 0.615653
1.000000 0.623757 0.614056
0.000000 0.774108 0.627555
0.080604 0.776486 0.626482
0.201008 0.777728 0.623936
0.334256 0.777482 0.619681
0.477259 0.775560 0.613642
0.626580 0.771819 0.606313
0.776232 0.766560 0.601303
0.913803 0.762152 0.600645
1.000000 0.759504 0.601192
0.000000 0.893509 0.624387
0.089619 0.897406 0.621780
0.204987 0.900314 0.617550
0.332904 0.901834 0.611512
0.470434 0.901724 0.603642
0.614621 0.899660 0.594815
0.761524 0.895166 0.590321
0.899657 0.890910 0.586500
1.000000 0.887457 0.589068
0.005629 1.000000 0.625646
0.101946 1.000000 0.621644
0.212739 1.000000 0.615884
0.335813 1.000000 0.608226
0.468369 1.000000 0.598692
0.607890 1.000000 0.588505
0.752270 1.000000 0.584692
0.888069 1.000000 0.581105
1.000000 1.000000 0.578051
0.004112 0.000000 0.794314
0.121567 0.000000 0.793032
0.250496 0.000000 0.791625
0.386990 0.000000 0.790135
0.527143 0.000000 0.788605
0.667045 0.000000 0.787078
0.800800 0.000000 0.783666
0.910596 0.000000 0.768572
1.000000 0.000000 0.756825
0.000000 0.110544 0.790955
0.116287 0.108112 0.803439
0.247613 0.106057 0.801385
0.386647 0.103882 0.799210
0.529405 0.101649 0.796976
0.671910 0.099420 0.794747
0.808476 0.097928 0.790940
0.922803 0.101734 0.777362
1.000000 0.106082 0.766905
0.000000 0.235597 0.786113
0.109194 0.233954 0.797410
0.239889 0.230854 0.807574
0.381716 0.227924 0.804644
0.527343 0.224917 0.801637
0.672710 0.221914 0.798634
0.812371 0.219547 0.794393
0.931685 0.221702 0.782483
1.000000 0.224644 0.773447
0.000000 0.368267 0.780976
0.101741 0.367547 0.789956
0.229837 0.365388 0.798445
0.371269 0.361599 0.805195
0.519939 0.357770 0.801365
0.668345 0.353947 0.797543
0.811288 0.350650 0.792841
0.935892 0.351054 0.782701
1.000000 0.352505 0.775172
0.000000 0.504746 0.775692
0.094074 0.504975 0.782289
0.219554 0.503858 0.788162
0.358176 0.501115 0.792820
0.506720 0.496668 0.795483
0.658251 0.492002 0.790817
0.804571 0.487749 0.785642
0.934618 0.486351 0.777322
1.000000 0.486267 0.771343
0.000000 0.641226 0.770408
0.086406 0.642403 0.774622
0.209271 0.642328 0.777879
0.345124 0.640688 0.779768
0.490802 0.637334 0.780037
0.642474 0.632319 0.778409
0.792172 0.627110 0.772761
0.927661 0.623910 0.766260
1.000000 0.622293 0.761832
0.000000 0.773605 0.764995
0.079866 0.775748 0.766936
0.200013 0.776733 0.767698
0.332989 0.776215 0.766944
0.475712 0.774013 0.764500
0.624431 0.770128 0.760374
0.774660 0.764753 0.754809
0.915265 0.759849 0.750125
1.000000 0.756780 0.747243
0.000000 0.893263 0.758536
0.089137 0.896924 0.758942
0.204248 0.899576 0.758020
0.331893 0.900823 0.755483
0.469143 0.900433 0.751208
0.612397 0.898356 0.745254
0.757654 0.894608 0.738215
0.898582 0.889617 0.733442
1.000000 0.885743 0.732581
0.005615 1.000000 0.756803
0.101698 1.000000 0.755815
0.212233 1.000000 0.753363
0.335034 1.000000 0.749206
0.467310 1.000000 0.743267
0.605600 1.000000 0.735653
0.746326 1.000000 0.727289
0.884906 1.000000 0.722952
1.000000 1.000000 0.719259
0.005219 0.000000 0.901975
0.120259 0.000000 0.901345
0.246537 0.000000 0.900654
0.380224 0.000000 0.899922
0.517495 0.000000 0.899171
0.654520 0.000000 0.898421
0.787473 0.000000 0.897693
0.910391 0.000000 0.894924
1.000000 0.000000 0.880542
0.002911 0.110955 0.900964
0.116937 0.108968 0.916756
0.245612 0.107630 0.915417
0.381838 0.106213 0.914000
0.521715 0.104758 0.912545
0.661342 0.103305 0.911092
0.796819 0.101896 0.909683
0.922378 0.101309 0.906539
1.000000 0.105862 0.893448
0.000466 0.235053 0.898519
0.112226 0.233841 0.913314
0.240043 0.231230 0.927112
0.379062 0.229058 0.924940
0.521807 0.226829 0.922711
0.664298 0.224603 0.920485
0.802553 0.222444 0.918326
0.931018 0.221035 0.914769
1.000000 0.224182 0.903099
0.000000 0.366711 0.895925
0.107316 0.366422 0.908404
0.232517 0.364736 0.920733
0.370902 0.361464 0.931332
0.516690 0.358413 0.928281
0.662218 0.355367 0.925235
0.803421 0.352412 0.922280
0.934969 0.350130 0.918286
1.000000 0.351786 0.908122
0.000000 0.502149 0.893257
0.102264 0.502808 0.903352
0.224850 0.502164 0.913066
0.360408 0.499922 0.921789
0.505823 0.496005 0.928408
0.654476 0.492116 0.924518
0.798711 0.488342 0.920744
0.933430 0.485163 0.916300
1.000000 0.485285 0.907686
0.000000 0.637586 0.890589
0.097213 0.639195 0.898301
0.217183 0.639592 0.905398
0.349972 0.638453 0.911352
0.492503 0.635613 0.915796
0.641051 0.631127 0.918120
0.788318 0.626535 0.913527
0.926209 0.622459 0.908632
1.000000 0.621046 0.901569
0.000000 0.769244 0.887995
0.092302 0.771775 0.893390
0.209730 0.773185 0.897945
0.339826 0.773118 0.901207
0.479594 0.771378 0.902886
0.625362 0.767955 0.902875
0.772769 0.763040 0.901064
0.913743 0.758092 0.895732
1.000000 0.755188 0.890175
0.000000 0.893029 0.885249
0.088683 0.896470 0.888501
0.203551 0.898878 0.890703
0.330938 0.899867 0.891474
0.467924 0.899213 0.890595
0.610914 0.896873 0.888031
0.755623 0.892991 0.883932
0.897066 0.887896 0.878671
1.000000 0.883624 0.874572
0.005602 1.000000 0.880691
0.101463 1.000000 0.882549
0.211756 1.000000 0.883221
0.334299 1.000000 0.882371
0.466311 1.000000 0.879829
0.604337 1.000000 0.875605
0.744229 1.000000 0.869894
0.881417 1.000000 0.863369
1.000000 1.000000 0.859072
0.006652 0.000000 0.994616
0.119491 0.000000 0.994580
0.243353 0.000000 0.994541
0.374484 0.000000 0.994500
0.509128 0.000000 0.994457
0.643532 0.000000 0.994415
0.773942 0.000000 0.994374
0.896603 0.000000 0.994335
1.000000 0.000000 0.993249
0.006316 0.111752 0.995745
0.117953 0.110172 1.000000
0.244213 0.109486 1.000000
0.377881 0.108759 1.000000
0.515132 0.108013 1.000000
0.652138 0.107268 1.000000
0.785072 0.106545 1.000000
0.910107 0.105866 1.000000
1.000000 0.105662 1.000000
0.006054 0.234982 0.995483
0.115412 0.234162 1.000000
0.240606 0.231996 1.000000
0.377068 0.230515 1.000000
0.517188 0.228994 1.000000
0.657057 0.227476 1.000000
0.792769 0.226003 1.000000
0.920417 0.224618 1.000000
1.000000 0.223761 1.000000
0.005777 0.365717 0.995206
0.112818 0.365820 1.000000
0.235382 0.364565 1.000000
0.370990 0.361764 1.000000
0.514153 0.359422 1.000000
0.657060 0.357084 1.000000
0.795720 0.354815 1.000000
0.926140 0.352681 1.000000
1.000000 0.351132 1.000000
0.005491 0.500206 0.994920
0.110149 0.501258 1.000000
0.230098 0.501044 1.000000
0.362864 0.499258 1.000000
0.505428 0.495825 1.000000
0.651460 0.492643 1.000000
0.793152 0.489556 1.000000
0.926424 0.486652 1.000000
1.000000 0.484390 1.000000
0.005206 0.634694 0.994635
0.107481 0.636695 1.000000
0.224814 0.637523 1.000000
0.354811 0.636840 1.000000
0.494476 0.634468 1.000000
0.640178 0.630465 1.000000
0.784902 0.626559 1.000000
0.921026 0.622885 1.000000
1.000000 0.619910 1.000000
0.004928 0.765430 0.994357
0.104887 0.768353 1.000000
0.219677 0.770194 1.000000
0.346982 0.770582 1.000000
0.483883 0.769311 1.000000
0.626790 0.766355 1.000000
0.771435 0.761908 1.000000
0.910332 0.757486 1.000000
1.000000 0.753818 1.000000
0.004667 0.888659 0.994096
0.102442 0.892452 1.000000
0.214835 0.895247 1.000000
0.339603 0.896646 1.000000
0.473899 0.896412 1.000000
0.614204 0.894492 1.000000
0.756308 0.891017 1.000000
0.895336 0.886315 1.000000
1.000000 0.881995 1.000000
0.005590 1.000000 0.993554
0.101249 1.000000 0.998005
0.211320 1.000000 1.000000
0.333629 1.000000 1.000000
0.465400 1.000000 1.000000
0.603186 1.000000 1.000000
0.742845 1.000000 1.000000
0.879569 1.000000 0.996386
1.000000 1.000000 0.991881
