assets/LUTs/rescue_teal_orange_33.cube
TITLE "Rescue Teal-Orange"
LUT_3D_SIZE 33
DOMAIN_MIN 0.0 0.0 0.0
DOMAIN_MAX 1.0 1.0 1.0
0.000000 0.003606 0.025686
0.016172 0.002638 0.024479
0.046834 0.001653 0.023150
0.078491 0.000681 0.021803
0.111049 0.000000 0.020462
0.144406 0.000000 0.019136
0.178462 0.000000 0.017834
0.213118 0.000000 0.016562
0.248279 0.000000 0.015328
0.283848 0.000000 0.014138
0.319733 0.000000 0.013000
0.355842 0.000000 0.011918
0.392088 0.000000 0.010898
0.428383 0.000000 0.009943
0.464643 0.000000 0.009058
0.500786 0.000000 0.008246
0.536732 0.000000 0.007509
0.572403 0.000000 0.006849
0.607725 0.000000 0.006267
0.642624 0.000000 0.005764
0.677030 0.000000 0.005340
0.710875 0.000000 0.004993
0.744092 0.000000 0.004722
0.776619 0.000000 0.004526
0.808393 0.000000 0.004402
0.839354 0.000000 0.004346
0.869446 0.000000 0.004355
0.898611 0.000000 0.004425
0.926797 0.000000 0.004550
0.953949 0.000000 0.004726
0.980018 0.000000 0.004947
1.000000 0.000000 0.005207
1.000000 0.000000 0.005500
0.000000 0.030567 0.021519
0.013565 0.029626 0.020270
0.044312 0.028612 0.018973
0.076094 0.027596 0.017689
0.108780 0.026596 0.016414
0.142266 0.025620 0.015157
0.176454 0.024675 0.013925
0.211242 0.023766 0.012726
0.246536 0.022902 0.011568
0.282238 0.022087 0.010456
0.318256 0.021326 0.009396
0.354498 0.020624 0.008395
0.390875 0.019986 0.007457
0.427301 0.019415 0.006586
0.463689 0.018913 0.005787
0.499959 0.018483 0.005060
0.536029 0.018126 0.004410
0.571822 0.017844 0.003838
0.607263 0.017637 0.003345
0.642278 0.017504 0.002930
0.676797 0.017446 0.002594
0.710751 0.017459 0.002336
0.744075 0.017542 0.002154
0.776704 0.017693 0.002045
0.808576 0.017908 0.002008
0.839632 0.018183 0.002038
0.869814 0.018514 0.002132
0.899066 0.018896 0.002285
0.927333 0.019323 0.002492
0.954564 0.019790 0.002748
0.980706 0.020291 0.003046
1.000000 0.020820 0.003382
1.000000 0.021368 0.003747
0.000000 0.058626 0.017264
0.010949 0.057734 0.015961
0.041624 0.056742 0.014657
0.073464 0.055706 0.013400
0.106223 0.054676 0.012211
0.139786 0.053668 0.011042
0.174051 0.052690 0.009901
0.208920 0.051749 0.008796
0.244295 0.050850 0.007732
0.280081 0.050001 0.006717
0.316184 0.049205 0.005756
0.352512 0.048468 0.004855
0.388976 0.047793 0.004018
0.425489 0.047185 0.003249
0.461966 0.046647 0.002551
0.498324 0.046180 0.001928
0.534482 0.045787 0.001381
0.570364 0.045468 0.000912
0.605893 0.045224 0.000521
0.640997 0.045055 0.000209
0.675603 0.044960 0.000000
0.709644 0.044938 0.000000
0.743054 0.044985 0.000000
0.775767 0.045101 0.000000
0.807723 0.045281 0.000000
0.838861 0.045522 0.000000
0.869123 0.045820 0.000097
0.898453 0.046169 0.000341
0.926796 0.046565 0.000637
0.954101 0.047002 0.000978
0.980315 0.047473 0.001360
1.000000 0.047973 0.001775
1.000000 0.048494 0.002217
0.000000 0.087703 0.013005
0.008381 0.086862 0.011647
0.038968 0.085894 0.010366
0.070749 0.084881 0.009055
0.103576 0.083832 0.007855
0.137218 0.082791 0.006778
0.171565 0.081780 0.005732
0.206517 0.080804 0.004723
0.241977 0.079870 0.003758
0.277849 0.078984 0.002844
0.314040 0.078152 0.001985
0.350457 0.077378 0.001187
0.387011 0.076666 0.000455
0.423615 0.076021 0.000000
0.460183 0.075444 0.000000
0.496633 0.074940 0.000000
0.532884 0.074508 0.000000
0.568858 0.074151 0.000000
0.604479 0.073869 0.000000
0.639674 0.073662 0.000000
0.674371 0.073529 0.000000
0.708503 0.073469 0.000000
0.742001 0.073480 0.000000
0.774803 0.073559 0.000000
0.806845 0.073704 0.000000
0.838068 0.073910 0.000000
0.868413 0.074173 0.000000
0.897824 0.074488 0.000000
0.926247 0.074851 0.000000
0.953628 0.075256 0.000000
0.979916 0.075697 0.000000
1.000000 0.076167 0.000116
1.000000 0.076660 0.000638
0.000000 0.117715 0.008773
0.005886 0.116926 0.007357
0.036389 0.115980 0.006108
0.068076 0.114992 0.004825
0.100850 0.113971 0.003497
0.134571 0.112912 0.002377
0.169001 0.111865 0.001428
0.204040 0.110854 0.000519
0.239588 0.109884 0.000000
0.275550 0.108961 0.000000
0.311831 0.108091 0.000000
0.348341 0.107279 0.000000
0.384988 0.106528 0.000000
0.421686 0.105844 0.000000
0.458349 0.105228 0.000000
0.494894 0.104684 0.000000
0.531240 0.104213 0.000000
0.567309 0.103817 0.000000
0.603025 0.103495 0.000000
0.638315 0.103249 0.000000
0.673106 0.103077 0.000000
0.707331 0.102979 0.000000
0.740921 0.102951 0.000000
0.773814 0.102993 0.000000
0.805945 0.103100 0.000000
0.837256 0.103269 0.000000
0.867688 0.103497 0.000000
0.897183 0.103777 0.000000
0.925688 0.104106 0.000000
0.953148 0.104478 0.000000
0.979513 0.104887 0.000000
1.000000 0.105327 0.000000
1.000000 0.105790 0.000000
0.000000 0.148579 0.004593
0.003487 0.147842 0.003123
0.033910 0.146916 0.001913
0.065500 0.145954 0.000658
0.098175 0.144960 0.000000
0.131850 0.143936 0.000000
0.166369 0.142871 0.000000
0.201496 0.141822 0.000000
0.237134 0.140814 0.000000
0.273189 0.139853 0.000000
0.309564 0.138944 0.000000
0.346168 0.138093 0.000000
0.382912 0.137303 0.000000
0.419707 0.136578 0.000000
0.456467 0.135922 0.000000
0.493110 0.135337 0.000000
0.529554 0.134825 0.000000
0.565722 0.134388 0.000000
0.601536 0.134026 0.000000
0.636923 0.133740 0.000000
0.671811 0.133528 0.000000
0.706132 0.133389 0.000000
0.739817 0.133322 0.000000
0.772804 0.133325 0.000000
0.805028 0.133394 0.000000
0.836429 0.133526 0.000000
0.866949 0.133716 0.000000
0.896531 0.133961 0.000000
0.925120 0.134255 0.000000
0.952663 0.134593 0.000000
0.979107 0.134969 0.000000
1.000000 0.135377 0.000000
1.000000 0.135810 0.000000
0.000000 0.180211 0.000493
0.001226 0.179520 0.000000
0.031553 0.178619 0.000000
0.063044 0.177684 0.000000
0.095616 0.176717 0.000000
0.129185 0.175722 0.000000
0.163669 0.174699 0.000000
0.198892 0.173631 0.000000
0.234624 0.172585 0.000000
0.270773 0.171585 0.000000
0.307245 0.170636 0.000000
0.343947 0.169744 0.000000
0.380789 0.168913 0.000000
0.417683 0.168147 0.000000
0.454544 0.167449 0.000000
0.491287 0.166822 0.000000
0.527833 0.166269 0.000000
0.564101 0.165790 0.000000
0.600016 0.165386 0.000000
0.635503 0.165058 0.000000
0.670491 0.164805 0.000000
0.704910 0.164626 0.000000
0.738693 0.164518 0.000000
0.771776 0.164481 0.000000
0.804095 0.164511 0.000000
0.835589 0.164604 0.000000
0.866200 0.164757 0.000000
0.895871 0.164964 0.000000
0.924547 0.165223 0.000000
0.952174 0.165526 0.000000
0.978699 0.165868 0.000000
1.000000 0.166243 0.000000
1.000000 0.166645 0.000000
0.000000 0.212531 0.000000
0.000000 0.211881 0.000000
0.029338 0.211007 0.000000
0.060728 0.210099 0.000000
0.093195 0.209161 0.000000
0.126656 0.208194 0.000000
0.161028 0.207201 0.000000
0.196227 0.206185 0.000000
0.232063 0.205119 0.000000
0.268309 0.204078 0.000000
0.304880 0.203088 0.000000
0.341682 0.202155 0.000000
0.378625 0.201282 0.000000
0.415621 0.200473 0.000000
0.452585 0.199733 0.000000
0.489431 0.199064 0.000000
0.526080 0.198468 0.000000
0.562451 0.197946 0.000000
0.598469 0.197500 0.000000
0.634059 0.197129 0.000000
0.669148 0.196833 0.000000
0.703669 0.196612 0.000000
0.737552 0.196463 0.000000
0.770733 0.196385 0.000000
0.803149 0.196374 0.000000
0.834739 0.196428 0.000000
0.865444 0.196542 0.000000
0.895206 0.196712 0.000000
0.923970 0.196934 0.000000
0.951683 0.197201 0.000000
0.978292 0.197509 0.000000
1.000000 0.197851 0.000000
1.000000 0.198221 0.000000
0.000000 0.245456 0.000000
0.000000 0.244845 0.000000
0.027285 0.243997 0.000000
0.058571 0.243117 0.000000
0.090930 0.242208 0.000000
0.124280 0.241271 0.000000
0.158538 0.240308 0.000000
0.193622 0.239324 0.000000
0.229448 0.238318 0.000000
0.265804 0.237256 0.000000
0.302475 0.236225 0.000000
0.339379 0.235249 0.000000
0.376426 0.234333 0.000000
0.413526 0.233482 0.000000
0.450594 0.232698 0.000000
0.487546 0.231985 0.000000
0.524300 0.231345 0.000000
0.560777 0.230780 0.000000
0.596900 0.230290 0.000000
0.632595 0.229875 0.000000
0.667788 0.229537 0.000000
0.702412 0.229273 0.000000
0.736397 0.229082 0.000000
0.769679 0.228962 0.000000
0.802195 0.228910 0.000000
0.833882 0.228923 0.000000
0.864682 0.228998 0.000000
0.894537 0.229129 0.000000
0.923392 0.229313 0.000000
0.951193 0.229544 0.000000
0.977886 0.229817 0.000000
1.000000 0.230125 0.000000
1.000000 0.230462 0.000000
0.000000 0.278906 0.000000
0.000000 0.278330 0.000000
0.025410 0.277509 0.000000
0.056589 0.276658 0.000000
0.088840 0.275777 0.000000
0.122077 0.274870 0.000000
0.156220 0.273939 0.000000
0.191184 0.272986 0.000000
0.226889 0.272014 0.000000
0.263251 0.271023 0.000000
0.300037 0.269969 0.000000
0.337045 0.268950 0.000000
0.374197 0.267991 0.000000
0.411404 0.267095 0.000000
0.448578 0.266267 0.000000
0.485637 0.265510 0.000000
0.522499 0.264825 0.000000
0.559083 0.264215 0.000000
0.595313 0.263681 0.000000
0.631115 0.263222 0.000000
0.666415 0.262840 0.000000
0.701143 0.262532 0.000000
0.735233 0.262298 0.000000
0.768617 0.262135 0.000000
0.801233 0.262042 0.000000
0.833020 0.262014 0.000000
0.863917 0.262048 0.000000
0.893867 0.262140 0.000000
0.922814 0.262286 0.000000
0.950705 0.262480 0.000000
0.977485 0.262716 0.000000
1.000000 0.262990 0.000000
1.000000 0.263295 0.000000
0.000000 0.312801 0.000000
0.000000 0.312255 0.000000
0.023728 0.311462 0.000000
0.054800 0.310640 0.000000
0.086939 0.309789 0.000000
0.120062 0.308913 0.000000
0.154087 0.308013 0.000000
0.188931 0.307092 0.000000
0.224513 0.306153 0.000000
0.260749 0.305196 0.000000
0.297558 0.304225 0.000000
0.334686 0.303181 0.000000
0.371944 0.302177 0.000000
0.409259 0.301237 0.000000
0.446542 0.300365 0.000000
0.483710 0.299562 0.000000
0.520680 0.298832 0.000000
0.557374 0.298177 0.000000
0.593713 0.297597 0.000000
0.629623 0.297094 0.000000
0.665030 0.296667 0.000000
0.699866 0.296315 0.000000
0.734061 0.296037 0.000000
0.767550 0.295831 0.000000
0.800269 0.295695 0.000000
0.832156 0.295625 0.000000
0.863151 0.295618 0.000000
0.893198 0.295671 0.000000
0.922239 0.295777 0.000000
0.950220 0.295934 0.000000
0.977088 0.296134 0.000000
1.000000 0.296372 0.000000
1.000000 0.296643 0.000000
0.000000 0.347061 0.000000
0.000000 0.346542 0.000000
0.022253 0.345777 0.000000
0.053217 0.344983 0.000000
0.085243 0.344163 0.000000
0.118250 0.343318 0.000000
0.152156 0.342450 0.000000
0.186878 0.341562 0.000000
0.222335 0.340656 0.000000
0.258444 0.339733 0.000000
0.295124 0.338797 0.000000
0.332293 0.337848 0.000000
0.369674 0.336817 0.000000
0.407097 0.335832 0.000000
0.444490 0.334913 0.000000
0.481768 0.334065 0.000000
0.518849 0.333290 0.000000
0.555653 0.332588 0.000000
0.592103 0.331963 0.000000
0.628123 0.331414 0.000000
0.663639 0.330941 0.000000
0.698583 0.330545 0.000000
0.732885 0.330222 0.000000
0.766480 0.329973 0.000000
0.799302 0.329793 0.000000
0.831292 0.329681 0.000000
0.862388 0.329633 0.000000
0.892532 0.329645 0.000000
0.921668 0.329712 0.000000
0.949741 0.329830 0.000000
0.976698 0.329994 0.000000
1.000000 0.330196 0.000000
1.000000 0.330428 0.000000
0.000000 0.381609 0.000000
0.000000 0.381110 0.000000
0.020997 0.380374 0.000000
0.051851 0.379610 0.000000
0.083763 0.378820 0.000000
0.116653 0.378006 0.000000
0.150438 0.377171 0.000000
0.185037 0.376316 0.000000
0.220367 0.375443 0.000000
0.256348 0.374555 0.000000
0.292898 0.373653 0.000000
0.329935 0.372740 0.000000
0.367377 0.371818 0.000000
0.404924 0.370802 0.000000
0.442428 0.369838 0.000000
0.479818 0.368943 0.000000
0.517010 0.368121 0.000000
0.553926 0.367374 0.000000
0.590487 0.366702 0.000000
0.626618 0.366107 0.000000
0.662245 0.365589 0.000000
0.697298 0.365147 0.000000
0.731709 0.364779 0.000000
0.765410 0.364485 0.000000
0.798338 0.364263 0.000000
0.830430 0.364108 0.000000
0.861627 0.364018 0.000000
0.891870 0.363989 0.000000
0.921102 0.364016 0.000000
0.949269 0.364095 0.000000
0.976316 0.364221 0.000000
1.000000 0.364388 0.000000
1.000000 0.364557 0.000000
0.000000 0.416364 0.000000
0.000000 0.415883 0.000000
0.019969 0.415175 0.000000
0.050712 0.414441 0.000000
0.082510 0.413682 0.000000
0.115281 0.412900 0.000000
0.148944 0.412097 0.000000
0.183419 0.411275 0.000000
0.218622 0.410436 0.000000
0.254474 0.409583 0.000000
0.290892 0.408717 0.000000
0.327795 0.407839 0.000000
0.365102 0.406953 0.000000
0.402732 0.406060 0.000000
0.440360 0.405061 0.000000
0.477862 0.404120 0.000000
0.515168 0.403251 0.000000
0.552196 0.402457 0.000000
0.588870 0.401739 0.000000
0.625113 0.401097 0.000000
0.660851 0.400533 0.000000
0.696015 0.400045 0.000000
0.730534 0.399632 0.000000
0.764343 0.399294 0.000000
0.797377 0.399027 0.000000
0.829574 0.398829 0.000000
0.860873 0.398697 0.000000
0.891215 0.398626 0.000000
0.920544 0.398614 0.000000
0.948805 0.398654 0.000000
0.975943 0.398742 0.000000
1.000000 0.398873 0.000000
1.000000 0.398984 0.000000
0.000000 0.451252 0.000000
0.000000 0.450782 0.000000
0.019178 0.450103 0.000000
0.049808 0.449399 0.000000
0.081491 0.448671 0.000000
0.114143 0.447920 0.000000
0.147684 0.447150 0.000000
0.182033 0.446362 0.000000
0.217108 0.445558 0.000000
0.252830 0.444739 0.000000
0.289115 0.443909 0.000000
0.325885 0.443067 0.000000
0.363056 0.442217 0.000000
0.400549 0.441360 0.000000
0.438282 0.440499 0.000000
0.475906 0.439520 0.000000
0.513326 0.438604 0.000000
0.550468 0.437763 0.000000
0.587255 0.436997 0.000000
0.623610 0.436309 0.000000
0.659461 0.435698 0.000000
0.694735 0.435164 0.000000
0.729365 0.434706 0.000000
0.763282 0.434323 0.000000
0.796423 0.434012 0.000000
0.828724 0.433770 0.000000
0.860126 0.433595 0.000000
0.890568 0.433483 0.000000
0.919995 0.433430 0.000000
0.948350 0.433431 0.000000
0.975580 0.433481 0.000000
1.000000 0.433576 0.000000
1.000000 0.433634 0.000000
0.000000 0.486195 0.000000
0.000000 0.485732 0.000000
0.018628 0.485082 0.000000
0.049146 0.484407 0.000000
0.080712 0.483710 0.000000
0.113245 0.482992 0.000000
0.146663 0.482255 0.000000
0.180886 0.481501 0.000000
0.215833 0.480731 0.000000
0.251424 0.479947 0.000000
0.287576 0.479152 0.000000
0.324211 0.478347 0.000000
0.361246 0.477533 0.000000
0.398602 0.476713 0.000000
0.436197 0.475889 0.000000
0.473950 0.475061 0.000000
0.511488 0.474103 0.000000
0.548744 0.473215 0.000000
0.585645 0.472402 0.000000
0.622114 0.471667 0.000000
0.658077 0.471009 0.000000
0.693463 0.470429 0.000000
0.728203 0.469925 0.000000
0.762229 0.469497 0.000000
0.795477 0.469141 0.000000
0.827884 0.468856 0.000000
0.859388 0.468639 0.000000
0.889931 0.468485 0.000000
0.919456 0.468391 0.000000
0.947906 0.468353 0.000000
0.975228 0.468365 0.000000
1.000000 0.468422 0.000000
1.000000 0.468432 0.000000
0.000000 0.521118 0.000000
0.000000 0.520656 0.000000
0.018323 0.520035 0.000000
0.048729 0.519391 0.000000
0.080179 0.518725 0.000000
0.112591 0.518039 0.000000
0.145886 0.517335 0.000000
0.179983 0.516614 0.000000
0.214802 0.515879 0.000000
0.250261 0.515130 0.000000
0.286280 0.514371 0.000000
0.322780 0.513602 0.000000
0.359678 0.512825 0.000000
0.396896 0.512042 0.000000
0.434353 0.511254 0.000000
0.471967 0.510464 0.000000
0.509660 0.509673 0.000000
0.547030 0.508737 0.000000
0.584045 0.507877 0.000000
0.620627 0.507095 0.000000
0.656703 0.506391 0.000000
0.692201 0.505764 0.000000
0.727051 0.505214 0.000000
0.761187 0.504741 0.000000
0.794542 0.504340 0.000000
0.827054 0.504012 0.000000
0.858662 0.503751 0.000000
0.889306 0.503556 0.000000
0.918929 0.503421 0.000000
0.947474 0.503344 0.000000
0.974888 0.503317 0.000000
1.000000 0.503338 0.000000
1.000000 0.503304 0.000000
0.000000 0.555945 0.000000
0.000000 0.555480 0.000000
0.018265 0.554888 0.000000
0.048558 0.554274 0.000000
0.079892 0.553639 0.000000
0.112185 0.552985 0.000000
0.145356 0.552314 0.000000
0.179327 0.551627 0.000000
0.214017 0.550926 0.000000
0.249345 0.550213 0.000000
0.285231 0.549489 0.000000
0.321595 0.548756 0.000000
0.358358 0.548016 0.000000
0.395438 0.547270 0.000000
0.432755 0.546520 0.000000
0.470231 0.545767 0.000000
0.507784 0.545013 0.000000
0.545328 0.544254 0.000000
0.582457 0.543347 0.000000
0.619153 0.542518 0.000000
0.655342 0.541767 0.000000
0.690951 0.541094 0.000000
0.725912 0.540498 0.000000
0.760157 0.539979 0.000000
0.793620 0.539535 0.000000
0.826237 0.539162 0.000000
0.857948 0.538859 0.000000
0.888693 0.538622 0.000000
0.918414 0.538447 0.000000
0.947055 0.538329 0.000000
0.974561 0.538265 0.000000
1.000000 0.538249 0.000000
1.000000 0.538177 0.000000
0.000000 0.590604 0.000000
0.000000 0.590130 0.000000
0.018452 0.589567 0.000000
0.048634 0.588983 0.000000
0.079851 0.588379 0.000000
0.112024 0.587757 0.000000
0.145073 0.587119 0.000000
0.178918 0.586466 0.000000
0.213479 0.585800 0.000000
0.248676 0.585122 0.000000
0.284430 0.584433 0.000000
0.320659 0.583736 0.000000
0.357285 0.583033 0.000000
0.394228 0.582323 0.000000
0.431407 0.581610 0.000000
0.468744 0.580894 0.000000
0.506157 0.580178 0.000000
0.543569 0.579462 0.000000
0.580885 0.578737 0.000000
0.617694 0.577860 0.000000
0.653996 0.577063 0.000000
0.689717 0.576343 0.000000
0.724788 0.575702 0.000000
0.759142 0.575138 0.000000
0.792712 0.574649 0.000000
0.825435 0.574233 0.000000
0.857249 0.573887 0.000000
0.888094 0.573608 0.000000
0.917913 0.573392 0.000000
0.946649 0.573235 0.000000
0.974247 0.573133 0.000000
1.000000 0.573080 0.000000
1.000000 0.572975 0.000000
0.000000 0.625021 0.000000
0.000000 0.624533 0.000000
0.018883 0.623999 0.000000
0.048953 0.623445 0.000000
0.080055 0.622872 0.000000
0.112109 0.622282 0.000000
0.145036 0.621677 0.000000
0.178755 0.621057 0.000000
0.213188 0.620425 0.000000
0.248255 0.619782 0.000000
0.283876 0.619129 0.000000
0.319971 0.618468 0.000000
0.356461 0.617800 0.000000
0.393267 0.617128 0.000000
0.430309 0.616451 0.000000
0.467507 0.615773 0.000000
0.504782 0.615093 0.000000
0.542055 0.614415 0.000000
0.579245 0.613738 0.000000
0.616255 0.613047 0.000000
0.652668 0.612202 0.000000
0.688501 0.611437 0.000000
0.723682 0.610750 0.000000
0.758144 0.610141 0.000000
0.791820 0.609608 0.000000
0.824648 0.609148 0.000000
0.856565 0.608760 0.000000
0.887510 0.608439 0.000000
0.917427 0.608183 0.000000
0.946257 0.607987 0.000000
0.973947 0.607847 0.000000
1.000000 0.607757 0.000000
1.000000 0.607625 0.000000
0.000000 0.659102 0.000000
0.000000 0.658617 0.000000
0.019553 0.658111 0.000000
0.049511 0.657587 0.000000
0.080498 0.657045 0.000000
0.112434 0.656487 0.000000
0.145239 0.655914 0.000000
0.178834 0.655328 0.000000
0.213140 0.654729 0.000000
0.248077 0.654121 0.000000
0.283567 0.653503 0.000000
0.319529 0.652878 0.000000
0.355884 0.652247 0.000000
0.392554 0.651610 0.000000
0.429459 0.650971 0.000000
0.466520 0.650329 0.000000
0.503657 0.649686 0.000000
0.540792 0.649045 0.000000
0.577845 0.648405 0.000000
0.614737 0.647768 0.000000
0.651362 0.647111 0.000000
0.687304 0.646300 0.000000
0.722595 0.645568 0.000000
0.757164 0.644914 0.000000
0.790947 0.644337 0.000000
0.823879 0.643834 0.000000
0.855898 0.643403 0.000000
0.886943 0.643041 0.000000
0.916956 0.642745 0.000000
0.945881 0.642510 0.000000
0.973661 0.642332 0.000000
1.000000 0.642206 0.000000
1.000000 0.642051 0.000000
0.000000 0.692768 0.000000
0.000000 0.692310 0.000000
0.020453 0.691833 0.000000
0.050302 0.691338 0.000000
0.081175 0.690826 0.000000
0.112994 0.690300 0.000000
0.145678 0.689759 0.000000
0.179150 0.689206 0.000000
0.213330 0.688641 0.000000
0.248138 0.688067 0.000000
0.283497 0.687485 0.000000
0.319327 0.686895 0.000000
0.355549 0.686299 0.000000
0.392084 0.685699 0.000000
0.428853 0.685096 0.000000
0.465778 0.684490 0.000000
0.502779 0.683884 0.000000
0.539777 0.683279 0.000000
0.576694 0.682676 0.000000
0.613451 0.682076 0.000000
0.649968 0.681480 0.000000
0.686131 0.680857 0.000000
0.721529 0.680080 0.000000
0.756206 0.679382 0.000000
0.790094 0.678761 0.000000
0.823129 0.678215 0.000000
0.855248 0.677743 0.000000
0.886392 0.677340 0.000000
0.916502 0.677004 0.000000
0.945520 0.676730 0.000000
0.973390 0.676515 0.000000
1.000000 0.676353 0.000000
1.000000 0.676180 0.000000
0.000000 0.725973 0.000000
0.000000 0.725542 0.000000
0.021577 0.725093 0.000000
0.051317 0.724627 0.000000
0.082077 0.724146 0.000000
0.113779 0.723650 0.000000
0.146345 0.723141 0.000000
0.179694 0.722621 0.000000
0.213749 0.722090 0.000000
0.248431 0.721550 0.000000
0.283661 0.721002 0.000000
0.319360 0.720447 0.000000
0.355450 0.719887 0.000000
0.391852 0.719322 0.000000
0.428487 0.718755 0.000000
0.465276 0.718186 0.000000
0.502142 0.717616 0.000000
0.539005 0.717047 0.000000
0.575788 0.716479 0.000000
0.612410 0.715915 0.000000
0.648795 0.715356 0.000000
0.684862 0.714801 0.000000
0.720488 0.714211 0.000000
0.755270 0.713469 0.000000
0.789261 0.712805 0.000000
0.822398 0.712217 0.000000
0.854618 0.711703 0.000000
0.885860 0.711260 0.000000
0.916064 0.710884 0.000000
0.945174 0.710573 0.000000
0.973134 0.710320 0.000000
0.999888 0.710123 0.000000
1.000000 0.709938 0.000000
0.000000 0.758647 0.000000
0.000000 0.758243 0.000000
0.022912 0.757821 0.000000
0.052544 0.757384 0.000000
0.083194 0.756933 0.000000
0.114781 0.756468 0.000000
0.147229 0.755991 0.000000
0.180458 0.755502 0.000000
0.214390 0.755004 0.000000
0.248947 0.754498 0.000000
0.284049 0.753984 0.000000
0.319619 0.753464 0.000000
0.355579 0.752938 0.000000
0.391849 0.752409 0.000000
0.428352 0.751877 0.000000
0.465008 0.751344 0.000000
0.501741 0.750809 0.000000
0.538471 0.750276 0.000000
0.575120 0.749745 0.000000
0.611610 0.749216 0.000000
0.647863 0.748691 0.000000
0.683800 0.748172 0.000000
0.719344 0.747659 0.000000
0.754357 0.747102 0.000000
0.788452 0.746395 0.000000
0.821690 0.745765 0.000000
0.854008 0.745210 0.000000
0.885346 0.744727 0.000000
0.915644 0.744313 0.000000
0.944845 0.743963 0.000000
0.972893 0.743674 0.000000
0.999732 0.743442 0.000000
1.000000 0.743250 0.000000
0.000000 0.790722 0.000000
0.000000 0.790344 0.000000
0.024446 0.789950 0.000000
0.053972 0.789541 0.000000
0.084512 0.789119 0.000000
0.115988 0.788684 0.000000
0.148319 0.788238 0.000000
0.181430 0.787781 0.000000
0.215241 0.787316 0.000000
0.249674 0.786842 0.000000
0.284651 0.786362 0.000000
0.320094 0.785875 0.000000
0.355925 0.785385 0.000000
0.392066 0.784890 0.000000
0.428438 0.784393 0.000000
0.464964 0.783894 0.000000
0.501565 0.783395 0.000000
0.538164 0.782897 0.000000
0.574683 0.782401 0.000000
0.611042 0.781907 0.000000
0.647166 0.781417 0.000000
0.682975 0.780932 0.000000
0.718391 0.780453 0.000000
0.753338 0.779981 0.000000
0.787666 0.779456 0.000000
0.821003 0.778785 0.000000
0.853419 0.778190 0.000000
0.884852 0.777667 0.000000
0.915242 0.777214 0.000000
0.944533 0.776828 0.000000
0.972667 0.776503 0.000000
0.999589 0.776236 0.000000
1.000000 0.776041 0.000000
0.000000 0.822129 0.000000
0.000000 0.821776 0.000000
0.026164 0.821409 0.000000
0.055587 0.821028 0.000000
0.086020 0.820635 0.000000
0.117384 0.820229 0.000000
0.149602 0.819814 0.000000
0.182596 0.819388 0.000000
0.216288 0.818955 0.000000
0.250600 0.818514 0.000000
0.285454 0.818066 0.000000
0.320773 0.817613 0.000000
0.356478 0.817156 0.000000
0.392491 0.816696 0.000000
0.428736 0.816233 0.000000
0.465133 0.815769 0.000000
0.501605 0.815304 0.000000
0.538075 0.814841 0.000000
0.574465 0.814379 0.000000
0.610697 0.813919 0.000000
0.646693 0.813463 0.000000
0.682376 0.813012 0.000000
0.717668 0.812567 0.000000
0.752491 0.812127 0.000000
0.786769 0.811696 0.000000
0.820340 0.811201 0.000000
0.852851 0.810566 0.000000
0.884377 0.810005 0.000000
0.914858 0.809515 0.000000
0.944237 0.809092 0.000000
0.972456 0.808732 0.000000
0.999460 0.808431 0.000000
1.000000 0.808238 0.000000
0.000000 0.852801 0.000000
0.000000 0.852473 0.000000
0.028050 0.852132 0.000000
0.057372 0.851779 0.000000
0.087699 0.851413 0.000000
0.118955 0.851037 0.000000
0.151062 0.850651 0.000000
0.183942 0.850256 0.000000
0.217518 0.849854 0.000000
0.251711 0.849445 0.000000
0.286445 0.849029 0.000000
0.321641 0.848609 0.000000
0.357223 0.848185 0.000000
0.393112 0.847758 0.000000
0.429231 0.847329 0.000000
0.465502 0.846898 0.000000
0.501848 0.846468 0.000000
0.538192 0.846038 0.000000
0.574456 0.845609 0.000000
0.610563 0.845184 0.000000
0.646434 0.844761 0.000000
0.681994 0.844343 0.000000
0.717164 0.843930 0.000000
0.751866 0.843523 0.000000
0.786025 0.843123 0.000000
0.819562 0.842731 0.000000
0.852306 0.842266 0.000000
