assets/LUTs/rescue_warm_natural_33.cube
TITLE "Rescue Warm Natural"
LUT_3D_SIZE 9
DOMAIN_MIN 0.0 0.0 0.0
DOMAIN_MAX 1.0 1.0 1.0
0.019240 0.000000 0.000000
0.145896 0.000000 0.000000
0.281314 0.000000 0.000000
0.422320 0.000000 0.000000
0.565743 0.000000 0.000000
0.708409 0.000000 0.000000
0.847146 0.000000 0.000000
0.978781 0.000000 0.000000
1.000000 0.000000 0.000000
0.012870 0.113554 0.000000
0.139526 0.111528 0.000000
0.274944 0.109361 0.000000
0.415950 0.107105 0.000000
0.559373 0.104810 0.000000
0.702039 0.102527 0.000000
0.840776 0.100308 0.000000
0.972412 0.098201 0.000000
1.000000 0.096854 0.000000
0.005812 0.239732 0.000000
0.132468 0.237706 0.000000
0.267885 0.235539 0.000000
0.408892 0.233283 0.000000
0.552314 0.230988 0.000000
0.694981 0.228706 0.000000
0.833718 0.226486 0.000000
0.965353 0.224380 0.000000
1.000000 0.223032 0.000000
0.000000 0.371756 0.000000
0.125082 0.369729 0.000000
0.260500 0.367562 0.000000
0.401506 0.365306 0.000000
0.544929 0.363012 0.000000
0.687595 0.360729 0.000000
0.826332 0.358509 0.000000
0.957967 0.356403 0.000000
1.000000 0.355055 0.000000
0.000000 0.506748 0.000000
0.117531 0.504721 0.000000
0.252948 0.502554 0.000000
0.393955 0.500298 0.000000
0.537377 0.498003 0.000000
0.680043 0.495721 0.000000
0.818781 0.493501 0.000000
0.950416 0.491395 0.000000
1.000000 0.490047 0.000000
0.000000 0.641832 0.000000
0.109974 0.639805 0.000000
0.245391 0.637638 0.000000
0.386398 0.635382 0.000000
0.529820 0.633087 0.000000
0.672487 0.630805 0.000000
0.811224 0.628585 0.000000
0.942859 0.626479 0.000000
1.000000 0.625131 0.000000
0.000000 0.774131 0.000000
0.102573 0.772105 0.000000
0.237990 0.769938 0.000000
0.378997 0.767682 0.000000
0.522419 0.765387 0.000000
0.665086 0.763104 0.000000
0.803823 0.760884 0.000000
0.935458 0.758778 0.000000
1.000000 0.757431 0.000000
0.000000 0.900769 0.000000
0.095488 0.898743 0.000000
0.230906 0.896576 0.000000
0.371912 0.894320 0.000000
0.515335 0.892025 0.000000
0.658001 0.889743 0.000000
0.796738 0.887523 0.000000
0.928374 0.885417 0.000000
1.000000 0.884069 0.000000
0.000000 1.000000 0.000000
0.088882 1.000000 0.000000
0.224299 1.000000 0.000000
0.365306 1.000000 0.000000
0.508728 1.000000 0.000000
0.651395 1.000000 0.000000
0.790132 1.000000 0.000000
0.921767 1.000000 0.000000
1.000000 1.000000 0.000000
0.018699 0.000000 0.100245
0.145355 0.000000 0.098219
0.280773 0.000000 0.096052
0.421779 0.000000 0.093796
0.565202 0.000000 0.091501
0.707868 0.000000 0.089219
0.846605 0.000000 0.086999
0.978241 0.000000 0.084893
1.000000 0.000000 0.083545
0.012330 0.113014 0.093876
0.138986 0.110987 0.091849
0.274403 0.108820 0.089683
0.415410 0.106564 0.087427
0.558832 0.104269 0.085132
0.701499 0.101987 0.082849
0.840236 0.099767 0.080629
0.971871 0.097661 0.078523
1.000000 0.096313 0.077176
0.005271 0.239192 0.086817
0.131927 0.237165 0.084791
0.267345 0.234998 0.082624
0.408351 0.232742 0.080368
0.551774 0.230448 0.078073
0.694440 0.228165 0.075790
0.833177 0.225945 0.073571
0.964812 0.223839 0.071464
1.000000 0.222491 0.070117
0.000000 0.371215 0.079432
0.124542 0.369188 0.077405
0.259959 0.367022 0.075238
0.400966 0.364766 0.072982
0.544388 0.362471 0.070688
0.687054 0.360188 0.068405
0.825792 0.357968 0.066185
0.957427 0.355862 0.064079
1.000000 0.354515 0.062732
0.000000 0.506207 0.071880
0.116990 0.504180 0.069854
0.252408 0.502014 0.067687
0.393414 0.499758 0.065431
0.536837 0.497463 0.063136
0.679503 0.495180 0.060853
0.818240 0.492960 0.058633
0.949875 0.490854 0.056527
1.000000 0.489507 0.055180
0.000000 0.641291 0.064323
0.109433 0.639264 0.062297
0.244851 0.637098 0.060130
0.385857 0.634842 0.057874
0.529280 0.632547 0.055579
0.671946 0.630264 0.053296
0.810683 0.628044 0.051077
0.942318 0.625938 0.048970
1.000000 0.624591 0.047623
0.000000 0.773590 0.056922
0.102032 0.771564 0.054896
0.237450 0.769397 0.052729
0.378456 0.767141 0.050473
0.521879 0.764846 0.048178
0.664545 0.762564 0.045895
0.803282 0.760344 0.043676
0.934917 0.758238 0.041569
1.000000 0.756890 0.040222
0.000000 0.900229 0.049838
0.094948 0.898202 0.047811
0.230365 0.896036 0.045645
0.371372 0.893779 0.043389
0.514794 0.891485 0.041094
0.657461 0.889202 0.038811
0.796198 0.886982 0.036591
0.927833 0.884876 0.034485
1.000000 0.883529 0.033138
0.000000 1.000000 0.043231
0.088341 1.000000 0.041205
0.223759 1.000000 0.039038
0.364765 1.000000 0.036782
0.508188 1.000000 0.034487
0.650854 1.000000 0.032204
0.789591 1.000000 0.029985
0.921226 1.000000 0.027878
1.000000 1.000000 0.026531
0.018011 0.000000 0.228220
0.144667 0.000000 0.226193
0.280085 0.000000 0.224026
0.421091 0.000000 0.221770
0.564514 0.000000 0.219475
0.707180 0.000000 0.217193
0.845917 0.000000 0.214973
0.977552 0.000000 0.212867
1.000000 0.000000 0.211519
0.011642 0.112325 0.221850
0.138298 0.110299 0.219823
0.273715 0.108132 0.217657
0.414722 0.105876 0.215401
0.558144 0.103581 0.213106
0.700810 0.101299 0.210823
0.839548 0.099079 0.208603
0.971183 0.096973 0.206497
1.000000 0.095625 0.205150
0.004583 0.238504 0.214791
0.131239 0.236477 0.212765
0.266657 0.234310 0.210598
0.407663 0.232054 0.208342
0.551086 0.229759 0.206047
0.693752 0.227477 0.203765
0.832489 0.225257 0.201545
0.964124 0.223151 0.199439
1.000000 0.221803 0.198091
0.000000 0.370527 0.207406
0.123853 0.368500 0.205379
0.259271 0.366334 0.203213
0.400278 0.364078 0.200956
0.543700 0.361783 0.198662
0.686366 0.359500 0.196379
0.825103 0.357280 0.194159
0.956739 0.355174 0.192053
1.000000 0.353827 0.190706
0.000000 0.505519 0.199854
0.116302 0.503492 0.197828
0.251719 0.501326 0.195661
0.392726 0.499069 0.193405
0.536149 0.496775 0.191110
0.678815 0.494492 0.188827
0.817552 0.492272 0.186608
0.949187 0.490166 0.184501
1.000000 0.488819 0.183154
0.000000 0.640603 0.192297
0.108745 0.638576 0.190271
0.244163 0.636410 0.188104
0.385169 0.634153 0.185848
0.528592 0.631859 0.183553
0.671258 0.629576 0.181271
0.809995 0.627356 0.179051
0.941630 0.625250 0.176945
1.000000 0.623903 0.175597
0.000000 0.772902 0.184896
0.101344 0.770876 0.182870
0.236762 0.768709 0.180703
0.377768 0.766453 0.178447
0.521191 0.764158 0.176152
0.663857 0.761875 0.173870
0.802594 0.759656 0.171650
0.934229 0.757549 0.169544
1.000000 0.756202 0.168196
0.000000 0.899541 0.177812
0.094260 0.897514 0.175786
0.229677 0.895347 0.173619
0.370684 0.893091 0.171363
0.514106 0.890797 0.169068
0.656773 0.888514 0.166785
0.795510 0.886294 0.164565
0.927145 0.884188 0.162459
1.000000 0.882840 0.161112
0.000000 1.000000 0.171205
0.087653 1.000000 0.169179
0.223071 1.000000 0.167012
0.364077 1.000000 0.164756
0.507500 1.000000 0.162461
0.650166 1.000000 0.160179
0.788903 1.000000 0.157959
0.920538 1.000000 0.155853
1.000000 1.000000 0.154505
0.017289 0.000000 0.362529
0.143945 0.000000 0.360503
0.279363 0.000000 0.358336
0.420369 0.000000 0.356080
0.563792 0.000000 0.353785
0.706458 0.000000 0.351503
0.845195 0.000000 0.349283
0.976830 0.000000 0.347177
1.000000 0.000000 0.345829
0.010919 0.111603 0.356160
0.137575 0.109577 0.354133
0.272993 0.107410 0.351967
0.413999 0.105154 0.349711
0.557422 0.102859 0.347416
0.700088 0.100576 0.345133
0.838825 0.098357 0.342913
0.970461 0.096250 0.340807
1.000000 0.094903 0.339460
0.003861 0.237781 0.349101
0.130517 0.235755 0.347075
0.265934 0.233588 0.344908
0.406941 0.231332 0.342652
0.550364 0.229037 0.340357
0.693030 0.226755 0.338075
0.831767 0.224535 0.335855
0.963402 0.222429 0.333749
1.000000 0.221081 0.332401
0.000000 0.369805 0.341716
0.123131 0.367778 0.339689
0.258549 0.365611 0.337523
0.399555 0.363355 0.335266
0.542978 0.361061 0.332972
0.685644 0.358778 0.330689
0.824381 0.356558 0.328469
0.956017 0.354452 0.326363
1.000000 0.353105 0.325016
0.000000 0.504797 0.334164
0.115580 0.502770 0.332138
0.250997 0.500603 0.329971
0.392004 0.498347 0.327715
0.535426 0.496053 0.325420
0.678093 0.493770 0.323137
0.816830 0.491550 0.320917
0.948465 0.489444 0.318811
1.000000 0.488096 0.317464
0.000000 0.639881 0.326607
0.108023 0.637854 0.324581
0.243440 0.635687 0.322414
0.384447 0.633431 0.320158
0.527870 0.631137 0.317863
0.670536 0.628854 0.315580
0.809273 0.626634 0.313361
0.940908 0.624528 0.311255
1.000000 0.623180 0.309907
0.000000 0.772180 0.319206
0.100622 0.770154 0.317180
0.236039 0.767987 0.315013
0.377046 0.765731 0.312757
0.520469 0.763436 0.310462
0.663135 0.761153 0.308179
0.801872 0.758934 0.305960
0.933507 0.756827 0.303853
1.000000 0.755480 0.302506
0.000000 0.898818 0.312122
0.093538 0.896792 0.310095
0.228955 0.894625 0.307929
0.369962 0.892369 0.305673
0.513384 0.890074 0.303378
0.656050 0.887792 0.301095
0.794787 0.885572 0.298875
0.926423 0.883466 0.296769
1.000000 0.882118 0.295422
0.000000 1.000000 0.305515
0.086931 1.000000 0.303489
0.222348 1.000000 0.301322
0.363355 1.000000 0.299066
0.506777 1.000000 0.296771
0.649444 1.000000 0.294488
0.788181 1.000000 0.292269
0.919816 1.000000 0.290162
1.000000 1.000000 0.288815
0.016548 0.000000 0.500375
0.143204 0.000000 0.498348
0.278621 0.000000 0.496182
0.419628 0.000000 0.493926
0.563051 0.000000 0.491631
0.705717 0.000000 0.489348
0.844454 0.000000 0.487128
0.976089 0.000000 0.485022
1.000000 0.000000 0.483675
0.010178 0.110862 0.494005
0.136834 0.108836 0.491979
0.272252 0.106669 0.489812
0.413258 0.104413 0.487556
0.556681 0.102118 0.485261
0.699347 0.099835 0.482979
0.838084 0.097615 0.480759
0.969719 0.095509 0.478653
1.000000 0.094162 0.477305
0.003120 0.237040 0.486947
0.129776 0.235014 0.484920
0.265193 0.232847 0.482754
0.406200 0.230591 0.480497
0.549622 0.228296 0.478203
0.692289 0.226013 0.475920
0.831026 0.223794 0.473700
0.962661 0.221687 0.471594
1.000000 0.220340 0.470247
0.000000 0.369063 0.479561
0.122390 0.367037 0.477535
0.257808 0.364870 0.475368
0.398814 0.362614 0.473112
0.542237 0.360319 0.470817
0.684903 0.358037 0.468534
0.823640 0.355817 0.466315
0.955275 0.353711 0.464208
1.000000 0.352363 0.462861
0.000000 0.504055 0.472010
0.114838 0.502029 0.469983
0.250256 0.499862 0.467816
0.391263 0.497606 0.465560
0.534685 0.495311 0.463265
0.677351 0.493029 0.460983
0.816088 0.490809 0.458763
0.947724 0.488703 0.456657
1.000000 0.487355 0.455309
0.000000 0.639139 0.464453
0.107282 0.637113 0.462426
0.242699 0.634946 0.460260
0.383706 0.632690 0.458003
0.527128 0.630395 0.455709
0.669795 0.628113 0.453426
0.808532 0.625893 0.451206
0.940167 0.623787 0.449100
1.000000 0.622439 0.447753
0.000000 0.771439 0.457052
0.099881 0.769412 0.455025
0.235298 0.767246 0.452858
0.376305 0.764990 0.450602
0.519727 0.762695 0.448308
0.662394 0.760412 0.446025
0.801131 0.758192 0.443805
0.932766 0.756086 0.441699
1.000000 0.754739 0.440352
0.000000 0.898077 0.449967
0.092796 0.896051 0.447941
0.228214 0.893884 0.445774
0.369220 0.891628 0.443518
0.512643 0.889333 0.441223
0.655309 0.887050 0.438941
0.794046 0.884831 0.436721
0.925682 0.882725 0.434615
1.000000 0.881377 0.433267
0.000000 1.000000 0.443361
0.086190 1.000000 0.441334
0.221607 1.000000 0.439167
0.362614 1.000000 0.436911
0.506036 1.000000 0.434617
0.648702 1.000000 0.432334
0.787440 1.000000 0.430114
0.919075 1.000000 0.428008
1.000000 0.999478 0.426660
0.015803 0.000000 0.638956
0.142459 0.000000 0.636929
0.277876 0.000000 0.634762
0.418883 0.000000 0.632506
0.562305 0.000000 0.630212
0.704972 0.000000 0.627929
0.843709 0.000000 0.625709
0.975344 0.000000 0.623603
1.000000 0.000000 0.622255
0.009433 0.110117 0.632586
0.136089 0.108090 0.630560
0.271507 0.105924 0.628393
0.412513 0.103668 0.626137
0.555936 0.101373 0.623842
0.698602 0.099090 0.621559
0.837339 0.096870 0.619339
0.968974 0.094764 0.617233
1.000000 0.093417 0.615886
0.002374 0.236295 0.625527
0.129031 0.234269 0.623501
0.264448 0.232102 0.621334
0.405455 0.229846 0.619078
0.548877 0.227551 0.616783
0.691543 0.225268 0.614501
0.830280 0.223048 0.612281
0.961916 0.220942 0.610175
1.000000 0.219595 0.608827
0.000000 0.368318 0.618142
0.121645 0.366292 0.616115
0.257063 0.364125 0.613949
0.398069 0.361869 0.611693
0.541492 0.359574 0.609398
0.684158 0.357292 0.607115
0.822895 0.355072 0.604895
0.954530 0.352966 0.602789
1.000000 0.351618 0.601442
0.000000 0.503310 0.610590
0.114093 0.501284 0.608564
0.249511 0.499117 0.606397
0.390517 0.496861 0.604141
0.533940 0.494566 0.601846
0.676606 0.492284 0.599563
0.815343 0.490064 0.597344
0.946979 0.487958 0.595237
1.000000 0.486610 0.593890
0.000000 0.638394 0.603033
0.106537 0.636368 0.601007
0.241954 0.634201 0.598840
0.382961 0.631945 0.596584
0.526383 0.629650 0.594289
0.669049 0.627368 0.592007
0.807786 0.625148 0.589787
0.939422 0.623042 0.587681
1.000000 0.621694 0.586333
0.000000 0.770694 0.595632
0.099136 0.768667 0.593606
0.234553 0.766501 0.591439
0.375560 0.764244 0.589183
0.518982 0.761950 0.586888
0.661648 0.759667 0.584606
0.800385 0.757447 0.582386
0.932021 0.755341 0.580280
1.000000 0.753994 0.578932
0.000000 0.897332 0.588548
0.092051 0.895306 0.586522
0.227469 0.893139 0.584355
0.368475 0.890883 0.582099
0.511898 0.888588 0.579804
0.654564 0.886305 0.577521
0.793301 0.884086 0.575301
0.924936 0.881979 0.573195
1.000000 0.880632 0.571848
0.000000 1.000000 0.581941
0.085444 1.000000 0.579915
0.220862 1.000000 0.577748
0.361869 1.000000 0.575492
0.505291 1.000000 0.573197
0.647957 1.000000 0.570915
0.786694 1.000000 0.568695
0.918330 1.000000 0.566589
1.000000 0.998733 0.565241
0.015069 0.000000 0.775471
0.141725 0.000000 0.773445
0.277142 0.000000 0.771278
0.418149 0.000000 0.769022
0.561571 0.000000 0.766727
0.704238 0.000000 0.764445
0.842975 0.000000 0.762225
0.974610 0.000000 0.760119
1.000000 0.000000 0.758771
0.008699 0.109383 0.769102
0.135355 0.107356 0.767075
0.270773 0.105190 0.764908
0.411779 0.102934 0.762652
0.555202 0.100639 0.760358
0.697868 0.098356 0.758075
0.836605 0.096136 0.755855
0.968240 0.094030 0.753749
1.000000 0.092683 0.752402
0.001640 0.235561 0.762043
0.128297 0.233534 0.760017
0.263714 0.231368 0.757850
0.404721 0.229112 0.755594
0.548143 0.226817 0.753299
0.690809 0.224534 0.751016
0.829546 0.222314 0.748797
0.961182 0.220208 0.746690
1.000000 0.218861 0.745343
0.000000 0.367584 0.754658
0.120911 0.365558 0.752631
0.256329 0.363391 0.750464
0.397335 0.361135 0.748208
0.540758 0.358840 0.745913
0.683424 0.356558 0.743631
0.822161 0.354338 0.741411
0.953796 0.352232 0.739305
1.000000 0.350884 0.737957
0.000000 0.502576 0.747106
0.113359 0.500550 0.745079
0.248777 0.498383 0.742913
0.389783 0.496127 0.740657
0.533206 0.493832 0.738362
0.675872 0.491549 0.736079
0.814609 0.489330 0.733859
0.946245 0.487224 0.731753
1.000000 0.485876 0.730406
0.000000 0.637660 0.739549
0.105803 0.635634 0.737523
0.241220 0.633467 0.735356
0.382227 0.631211 0.733100
0.525649 0.628916 0.730805
0.668315 0.626633 0.728522
0.807052 0.624414 0.726303
0.938688 0.622308 0.724196
1.000000 0.620960 0.722849
0.000000 0.769960 0.732148
0.098401 0.767933 0.730122
0.233819 0.765767 0.727955
0.374826 0.763510 0.725699
0.518248 0.761216 0.723404
0.660914 0.758933 0.721121
0.799651 0.756713 0.718901
0.931287 0.754607 0.716795
1.000000 0.753260 0.715448
0.000000 0.896598 0.725064
0.091317 0.894572 0.723037
0.226735 0.892405 0.720871
0.367741 0.890149 0.718614
0.511164 0.887854 0.716320
0.653830 0.885571 0.714037
0.792567 0.883352 0.711817
0.924202 0.881245 0.709711
1.000000 0.879898 0.708364
0.000000 1.000000 0.718457
0.084710 1.000000 0.716431
0.220128 1.000000 0.714264
0.361134 1.000000 0.712008
0.504557 1.000000 0.709713
0.647223 1.000000 0.707430
0.785960 1.000000 0.705210
0.917596 0.999346 0.703104
1.000000 0.997999 0.701757
0.014361 0.000000 0.907122
0.141017 0.000000 0.905095
0.276434 0.000000 0.902928
0.417441 0.000000 0.900672
0.560864 0.000000 0.898378
0.703530 0.000000 0.896095
0.842267 0.000000 0.893875
0.973902 0.000000 0.891769
1.000000 0.000000 0.890422
0.007991 0.108675 0.900752
0.134647 0.106649 0.898726
0.270065 0.104482 0.896559
0.411071 0.102226 0.894303
0.554494 0.099931 0.892008
0.697160 0.097648 0.889725
0.835897 0.095428 0.887505
0.967532 0.093322 0.885399
1.000000 0.091975 0.884052
0.000933 0.234853 0.893693
0.127589 0.232827 0.891667
0.263006 0.230660 0.889500
0.404013 0.228404 0.887244
0.547435 0.226109 0.884949
0.690102 0.223826 0.882667
0.828839 0.221607 0.880447
0.960474 0.219500 0.878341
1.000000 0.218153 0.876993
0.000000 0.366876 0.886308
0.120203 0.364850 0.884281
0.255621 0.362683 0.882115
0.396627 0.360427 0.879859
0.540050 0.358132 0.877564
0.682716 0.355850 0.875281
0.821453 0.353630 0.873061
0.953088 0.351524 0.870955
1.000000 0.350176 0.869608
0.000000 0.501868 0.878756
0.112651 0.499842 0.876730
0.248069 0.497675 0.874563
0.389075 0.495419 0.872307
0.532498 0.493124 0.870012
0.675164 0.490842 0.867729
0.813901 0.488622 0.865510
0.945537 0.486516 0.863403
1.000000 0.485168 0.862056
0.000000 0.636952 0.871199
0.105095 0.634926 0.869173
0.240512 0.632759 0.867006
0.381519 0.630503 0.864750
0.524941 0.628208 0.862455
0.667608 0.625926 0.860173
0.806345 0.623706 0.857953
0.937980 0.621600 0.855847
1.000000 0.620252 0.854499
0.000000 0.769252 0.863798
0.097694 0.767225 0.861772
0.233111 0.765059 0.859605
0.374118 0.762803 0.857349
0.517540 0.760508 0.855054
0.660206 0.758225 0.852772
0.798944 0.756005 0.850552
0.930579 0.753899 0.848446
1.000000 0.752552 0.847098
0.000000 0.895890 0.856714
0.090609 0.893864 0.854688
0.226027 0.891697 0.852521
0.367033 0.889441 0.850265
0.510456 0.887146 0.847970
0.653122 0.884863 0.845687
0.791859 0.882644 0.843468
0.923495 0.880537 0.841361
1.000000 0.879190 0.840014
0.000000 1.000000 0.850107
0.084003 1.000000 0.848081
0.219420 1.000000 0.845914
0.360427 1.000000 0.843658
0.503849 1.000000 0.841363
0.646515 1.000000 0.839081
0.785252 1.000000 0.836861
0.916888 0.998638 0.834755
1.000000 0.997291 0.833407
0.013694 0.000000 1.000000
0.140350 0.000000 1.000000
0.275768 0.000000 1.000000
0.416774 0.000000 1.000000
0.560197 0.000000 1.000000
0.702863 0.000000 1.000000
0.841600 0.000000 1.000000
0.973235 0.000000 1.000000
1.000000 0.000000 1.000000
0.007325 0.108008 1.000000
0.133981 0.105982 1.000000
0.269398 0.103815 1.000000
0.410405 0.101559 1.000000
0.553827 0.099264 1.000000
0.696493 0.096982 1.000000
0.835231 0.094762 1.000000
0.966866 0.092656 1.000000
1.000000 0.091308 1.000000
0.000266 0.234186 1.000000
0.126922 0.232160 1.000000
0.262340 0.229993 1.000000
0.403346 0.227737 1.000000
0.546769 0.225442 1.000000
0.689435 0.223160 1.000000
0.828172 0.220940 1.000000
0.959807 0.218834 1.000000
1.000000 0.217486 1.000000
0.000000 0.366210 1.000000
0.119536 0.364183 1.000000
0.254954 0.362017 1.000000
0.395960 0.359760 1.000000
0.539383 0.357466 1.000000
0.682049 0.355183 0.999266
0.820786 0.352963 0.997046
0.952422 0.350857 0.994940
1.000000 0.349510 0.993593
0.000000 0.501202 1.000000
0.111985 0.499175 1.000000
0.247402 0.497009 0.998548
0.388409 0.494752 0.996292
0.531831 0.492458 0.993997
0.674498 0.490175 0.991714
0.813235 0.487955 0.989494
0.944870 0.485849 0.987388
1.000000 0.484502 0.986041
0.000000 0.636286 0.995184
0.104428 0.634259 0.993158
0.239846 0.632093 0.990991
0.380852 0.629836 0.988735
0.524275 0.627542 0.986440
0.666941 0.625259 0.984157
0.805678 0.623039 0.981938
0.937313 0.620933 0.979831
1.000000 0.619586 0.978484
0.000000 0.768585 0.987783
0.097027 0.766559 0.985757
0.232445 0.764392 0.983590
0.373451 0.762136 0.981334
0.516874 0.759841 0.979039
0.659540 0.757558 0.976756
0.798277 0.755339 0.974537
0.929912 0.753232 0.972430
1.000000 0.751885 0.971083
0.000000 0.895224 0.980699
0.089943 0.893197 0.978672
0.225360 0.891030 0.976506
0.366367 0.888774 0.974250
0.509789 0.886479 0.971955
0.652456 0.884197 0.969672
0.791193 0.881977 0.967452
0.922828 0.879871 0.965346
1.000000 0.878523 0.963999
0.000000 1.000000 0.974092
0.083336 1.000000 0.972066
0.218754 1.000000 0.969899
0.359760 1.000000 0.967643
0.503183 1.000000 0.965348
0.645849 1.000000 0.963065
0.784586 1.000000 0.960846
0.916221 0.997971 0.958739
1.000000 0.996624 0.957392
