assets/LUTs/rescue_vibrance_soft_33.cube
TITLE "Rescue Vibrance Soft"
LUT_3D_SIZE 5
DOMAIN_MIN 0.0 0.0 0.0
DOMAIN_MAX 1.0 1.0 1.0
0.004204 0.000000 0.000000
0.272870 0.000000 0.000000
0.539591 0.000000 0.000000
0.787276 0.000000 0.000000
1.000000 0.000000 0.000000
0.000000 0.251810 0.000000
0.249348 0.244758 0.000000
0.524111 0.239098 0.000000
0.779832 0.238515 0.000000
1.000000 0.242500 0.000000
0.000000 0.512746 0.000000
0.231829 0.508099 0.000000
0.507674 0.503143 0.000000
0.771927 0.499163 0.000000
1.000000 0.500000 0.000000
0.000000 0.766883 0.000000
0.231368 0.764629 0.000000
0.497840 0.762238 0.000000
0.764022 0.759811 0.000000
1.000000 0.757500 0.000000
0.003684 1.000000 0.000000
0.246542 1.000000 0.000000
0.504160 1.000000 0.000000
0.761538 1.000000 0.000000
1.000000 1.000000 0.000000
0.001721 0.000000 0.268682
0.270535 0.000000 0.261359
0.538054 0.000000 0.248642
0.786537 0.000000 0.241009
1.000000 0.000000 0.238462
0.000000 0.249496 0.244905
0.247162 0.242399 0.237640
0.531431 0.235186 0.230614
0.796648 0.233052 0.228667
1.000000 0.235600 0.231389
0.000000 0.511278 0.226029
0.222524 0.509673 0.213370
0.507089 0.502379 0.206272
0.780838 0.496848 0.212858
1.000000 0.496248 0.223484
0.000000 0.766262 0.224224
0.214955 0.770149 0.206176
0.490135 0.765407 0.201434
0.765028 0.760643 0.197048
1.000000 0.756896 0.215579
0.003200 1.000000 0.238134
0.223437 1.000000 0.215010
0.489762 1.000000 0.212659
0.755839 1.000000 0.210310
1.000000 1.000000 0.208134
0.000698 0.000000 0.537517
0.260910 0.000000 0.532832
0.536395 0.000000 0.527333
0.785740 0.000000 0.508637
1.000000 0.000000 0.495840
0.000000 0.245469 0.521967
0.244511 0.239926 0.527315
0.529111 0.232676 0.519685
0.795336 0.231363 0.506636
1.000000 0.234672 0.499070
0.000000 0.509594 0.505057
0.219764 0.507281 0.502562
0.504798 0.499896 0.494993
0.788797 0.492690 0.487981
1.000000 0.490539 0.486008
0.000000 0.765439 0.492184
0.212789 0.768725 0.484032
0.480160 0.767169 0.470734
0.764455 0.759884 0.463639
1.000000 0.754585 0.469571
0.003188 1.000000 0.495670
0.221829 1.000000 0.482191
0.472563 1.000000 0.463500
0.748029 1.000000 0.458617
1.000000 1.000000 0.454092
0.001398 0.000000 0.784446
0.252743 0.000000 0.782155
0.519363 0.000000 0.779724
0.784941 0.000000 0.776514
1.000000 0.000000 0.753458
0.000000 0.243125 0.777097
0.243575 0.239177 0.795113
0.519049 0.234356 0.790292
0.793726 0.229753 0.784946
1.000000 0.233860 0.767122
0.000000 0.503928 0.768802
0.227205 0.503158 0.779112
0.502141 0.497422 0.784939
0.786479 0.490177 0.777325
1.000000 0.488786 0.765055
0.000000 0.764615 0.760394
0.211152 0.767088 0.762690
0.477389 0.764778 0.760193
0.762158 0.757399 0.752635
1.000000 0.750547 0.745957
0.003175 1.000000 0.753447
0.221004 1.000000 0.750416
0.470345 1.000000 0.742266
0.738487 1.000000 0.729311
1.000000 1.000000 0.722436
0.003638 0.000000 0.996929
0.246623 0.000000 0.996894
0.504376 0.000000 0.996858
0.761888 0.000000 0.996822
1.000000 0.000000 0.996316
0.003362 0.242495 0.997311
0.244271 0.240050 1.000000
0.510878 0.237623 1.000000
0.777237 0.235198 1.000000
1.000000 0.233095 1.000000
0.003118 0.500092 0.997067
0.235939 0.500813 1.000000
0.501208 0.496671 1.000000
0.776960 0.491710 1.000000
1.000000 0.487208 1.000000
0.002874 0.757690 0.996823
0.227644 0.761616 1.000000
0.484349 0.760847 1.000000
0.759611 0.755020 1.000000
1.000000 0.748119 1.000000
0.003164 1.000000 0.996454
0.220226 1.000000 1.000000
0.468754 1.000000 1.000000
0.735836 1.000000 1.000000
1.000000 1.000000 0.995703
