assets/LUTs/rescue_lowlight_33.cube
TITLE "Rescue Low-Light"
LUT_3D_SIZE 5
DOMAIN_MIN 0.0 0.0 0.0
DOMAIN_MAX 1.0 1.0 1.0
0.035830 0.023673 0.010150
0.238440 0.032098 0.018418
0.459991 0.039193 0.025370
0.689321 0.044939 0.030984
0.913403 0.049320 0.035246
0.059277 0.250343 0.032755
0.270990 0.258136 0.036502
0.500740 0.264427 0.038882
0.736070 0.269210 0.039889
0.962541 0.272478 0.039518
0.067010 0.499845 0.039910
0.286371 0.506307 0.039020
0.523664 0.511205 0.036755
0.765131 0.514540 0.033122
0.994909 0.516313 0.028130
0.058806 0.756218 0.031395
0.284377 0.760918 0.025893
0.528755 0.764107 0.019053
0.776883 0.765789 0.010895
1.000000 0.765966 0.001442
0.034903 1.000000 0.007473
0.265033 1.000000 0.000000
0.516018 1.000000 0.000000
0.771504 1.000000 0.000000
1.000000 1.000000 0.000000
0.038912 0.026712 0.203928
0.242518 0.034683 0.216081
0.464941 0.041318 0.226781
0.694889 0.046597 0.236012
0.919193 0.050507 0.243759
0.060787 0.253185 0.239115
0.273341 0.260464 0.246299
0.503882 0.266239 0.251985
0.739822 0.270502 0.256166
0.966575 0.273250 0.258837
0.066903 0.502238 0.257354
0.286963 0.508163 0.259453
0.524994 0.512525 0.260038
0.767110 0.515325 0.259108
0.997299 0.516561 0.256663
0.057087 0.758001 0.258362
0.283202 0.762182 0.255346
0.528275 0.764854 0.250821
0.777118 0.766019 0.244792
1.000000 0.765680 0.237268
0.031621 1.000000 0.242124
0.262106 1.000000 0.234037
0.513727 1.000000 0.224470
0.769998 1.000000 0.213437
1.000000 1.000000 0.200956
0.041838 0.029596 0.414130
0.246423 0.037111 0.429981
0.469709 0.043283 0.444291
0.700271 0.048093 0.457051
0.924799 0.051531 0.468257
0.062134 0.255852 0.461469
0.275515 0.262615 0.472086
0.506840 0.267872 0.481143
0.743391 0.271616 0.488639
0.970437 0.273842 0.494573
0.066632 0.504447 0.491066
0.287375 0.509836 0.496409
0.526141 0.513662 0.500190
0.768910 0.515925 0.502407
0.999528 0.516625 0.503062
0.055205 0.759606 0.502839
0.281847 0.763269 0.502903
0.527611 0.765423 0.501404
0.777176 0.766072 0.498342
1.000000 0.765217 0.493718
0.028185 1.000000 0.496778
0.259002 1.000000 0.491563
0.511251 1.000000 0.484786
0.768315 1.000000 0.476446
1.000000 1.000000 0.466547
0.044607 0.032325 0.630787
0.250154 0.039381 0.649671
0.474292 0.045087 0.666958
0.705467 0.049428 0.682656
0.930222 0.052392 0.696774
0.063317 0.258342 0.688177
0.277510 0.264589 0.701701
0.509615 0.269327 0.713661
0.746779 0.272551 0.724065
0.974130 0.274256 0.732926
0.066196 0.506472 0.727595
0.287608 0.511325 0.735874
0.527104 0.514614 0.742621
0.770533 0.516341 0.747845
1.000000 0.516505 0.751550
0.053162 0.761033 0.749423
0.280314 0.764178 0.752556
0.526763 0.765815 0.754178
0.777057 0.765949 0.754289
1.000000 0.764577 0.752892
0.024596 1.000000 0.753939
0.255723 1.000000 0.751970
0.508592 1.000000 0.748489
0.766454 1.000000 0.743491
1.000000 1.000000 0.736969
0.047218 0.034897 0.843247
0.253711 0.041492 0.863993
0.478693 0.046731 0.883111
0.710477 0.050600 0.900630
0.935463 0.053090 0.916579
0.064337 0.260655 0.906840
0.279327 0.266385 0.922205
0.512205 0.270604 0.936042
0.749986 0.273307 0.948382
0.977652 0.274491 0.959251
0.065596 0.508313 0.952661
0.287660 0.512630 0.962982
0.527882 0.515383 0.971869
0.771978 0.516574 0.979345
1.000000 0.516201 0.985430
0.050959 0.762282 0.981807
0.278602 0.764909 0.987370
0.525731 0.766031 0.991565
0.776763 0.765648 0.994402
1.000000 0.763760 0.995890
0.020856 1.000000 0.995122
0.252269 1.000000 0.996102
0.505748 1.000000 0.995738
0.764414 1.000000 0.994029
1.000000 1.000000 0.990970
