assets/LUTs/rescue_deyellow_33.cube
TITLE "Rescue De-Yellow"
LUT_3D_SIZE 33
DOMAIN_MIN 0.0 0.0 0.0
DOMAIN_MAX 1.0 1.0 1.0
0.000000 0.000000 0.000000
0.028994 0.000000 0.000000
0.058539 0.000000 0.000000
0.088599 0.000000 0.000000
0.119138 0.000000 0.000000
0.150121 0.000000 0.000000
0.181510 0.000000 0.000000
0.213271 0.000000 0.000000
0.245366 0.000000 0.000000
0.277760 0.000000 0.000000
0.310418 0.000000 0.000000
0.343302 0.000000 0.000000
0.376377 0.000000 0.000000
0.409606 0.000000 0.000000
0.442955 0.000000 0.000000
0.476385 0.000000 0.000000
0.509863 0.000000 0.000000
0.543351 0.000000 0.000000
0.576814 0.000000 0.000000
0.610215 0.000000 0.000000
0.643519 0.000000 0.000000
0.676689 0.000000 0.000000
0.709689 0.000000 0.000000
0.742484 0.000000 0.000000
0.775037 0.000000 0.000000
0.807312 0.000000 0.000000
0.839273 0.000000 0.000000
0.870885 0.000000 0.000000
0.902110 0.000000 0.000000
0.932914 0.000000 0.000000
0.963259 0.000000 0.000000
0.993111 0.000000 0.000000
1.000000 0.000000 0.000000
0.000000 0.022891 0.000000
0.028187 0.022595 0.000000
0.057732 0.022293 0.000000
0.087792 0.021985 0.000000
0.118331 0.021673 0.000000
0.149313 0.021356 0.000000
0.180703 0.021035 0.000000
0.212463 0.020710 0.000000
0.244559 0.020382 0.000000
0.276953 0.020051 0.000000
0.309610 0.019717 0.000000
0.342495 0.019380 0.000000
0.375569 0.019042 0.000000
0.408799 0.018702 0.000000
0.442147 0.018361 0.000000
0.475578 0.018019 0.000000
0.509056 0.017677 0.000000
0.542544 0.017334 0.000000
0.576007 0.016992 0.000000
0.609408 0.016651 0.000000
0.642712 0.016310 0.000000
0.675882 0.015971 0.000000
0.708882 0.015633 0.000000
0.741677 0.015298 0.000000
0.774230 0.014965 0.000000
0.806505 0.014635 0.000000
0.838466 0.014308 0.000000
0.870078 0.013985 0.000000
0.901303 0.013665 0.000000
0.932107 0.013350 0.000000
0.962452 0.013040 0.000000
0.992304 0.012735 0.000000
1.000000 0.012435 0.000000
0.000000 0.051800 0.000000
0.027167 0.051504 0.000000
0.056712 0.051201 0.000000
0.086772 0.050894 0.000000
0.117312 0.050582 0.000000
0.148294 0.050265 0.000000
0.179684 0.049944 0.000000
0.211444 0.049619 0.000000
0.243540 0.049291 0.000000
0.275934 0.048959 0.000000
0.308591 0.048625 0.000000
0.341475 0.048289 0.000000
0.374550 0.047951 0.000000
0.407780 0.047611 0.000000
0.441128 0.047270 0.000000
0.474559 0.046928 0.000000
0.508037 0.046585 0.000000
0.541525 0.046243 0.000000
0.574988 0.045901 0.000000
0.608389 0.045559 0.000000
0.641692 0.045219 0.000000
0.674862 0.044879 0.000000
0.707863 0.044542 0.000000
0.740658 0.044206 0.000000
0.773210 0.043873 0.000000
0.805486 0.043543 0.000000
0.837447 0.043216 0.000000
0.869058 0.042893 0.000000
0.900284 0.042574 0.000000
0.931087 0.042259 0.000000
0.961433 0.041948 0.000000
0.991285 0.041643 0.000000
1.000000 0.041343 0.000000
0.000000 0.081224 0.000000
0.026130 0.080928 0.000000
0.055675 0.080625 0.000000
0.085735 0.080318 0.000000
0.116274 0.080006 0.000000
0.147257 0.079689 0.000000
0.178646 0.079368 0.000000
0.210407 0.079043 0.000000
0.242502 0.078715 0.000000
0.274897 0.078383 0.000000
0.307554 0.078049 0.000000
0.340438 0.077713 0.000000
0.373513 0.077375 0.000000
0.406742 0.077035 0.000000
0.440091 0.076694 0.000000
0.473522 0.076352 0.000000
0.506999 0.076010 0.000000
0.540487 0.075667 0.000000
0.573950 0.075325 0.000000
0.607351 0.074983 0.000000
0.640655 0.074643 0.000000
0.673825 0.074303 0.000000
0.706825 0.073966 0.000000
0.739620 0.073630 0.000000
0.772173 0.073297 0.000000
0.804448 0.072967 0.000000
0.836409 0.072641 0.000000
0.868021 0.072317 0.000000
0.899246 0.071998 0.000000
0.930050 0.071683 0.000000
0.960396 0.071372 0.000000
0.990247 0.071067 0.000000
1.000000 0.070767 0.000000
0.000000 0.111128 0.000000
0.025076 0.110831 0.000000
0.054621 0.110529 0.000000
0.084681 0.110222 0.000000
0.115220 0.109909 0.000000
0.146202 0.109592 0.000000
0.177592 0.109271 0.000000
0.209352 0.108946 0.000000
0.241448 0.108618 0.000000
0.273842 0.108287 0.000000
0.306499 0.107953 0.000000
0.339384 0.107617 0.000000
0.372458 0.107278 0.000000
0.405688 0.106938 0.000000
0.439036 0.106597 0.000000
0.472467 0.106256 0.000000
0.505945 0.105913 0.000000
0.539433 0.105571 0.000000
0.572896 0.105228 0.000000
0.606297 0.104887 0.000000
0.639601 0.104546 0.000000
0.672771 0.104207 0.000000
0.705771 0.103869 0.000000
0.738566 0.103534 0.000000
0.771119 0.103201 0.000000
0.803394 0.102871 0.000000
0.835355 0.102544 0.000000
0.866967 0.102221 0.000000
0.898192 0.101901 0.000000
0.928996 0.101586 0.000000
0.959341 0.101276 0.000000
0.989193 0.100971 0.000000
1.000000 0.100671 0.000000
0.000000 0.141475 0.000000
0.024006 0.141179 0.000000
0.053551 0.140876 0.000000
0.083611 0.140569 0.000000
0.114150 0.140257 0.000000
0.145132 0.139940 0.000000
0.176522 0.139619 0.000000
0.208282 0.139294 0.000000
0.240378 0.138966 0.000000
0.272772 0.138634 0.000000
0.305429 0.138300 0.000000
0.338314 0.137964 0.000000
0.371388 0.137626 0.000000
0.404618 0.137286 0.000000
0.437966 0.136945 0.000000
0.471397 0.136603 0.000000
0.504875 0.136261 0.000000
0.538363 0.135918 0.000000
0.571826 0.135576 0.000000
0.605227 0.135234 0.000000
0.638531 0.134894 0.000000
0.671701 0.134554 0.000000
0.704701 0.134217 0.000000
0.737496 0.133881 0.000000
0.770049 0.133548 0.000000
0.802324 0.133218 0.000000
0.834285 0.132892 0.000000
0.865897 0.132568 0.000000
0.897122 0.132249 0.000000
0.927926 0.131934 0.000000
0.958271 0.131623 0.000000
0.988123 0.131318 0.000000
1.000000 0.131018 0.000000
0.000000 0.172230 0.000000
0.022921 0.171934 0.000000
0.052466 0.171632 0.000000
0.082526 0.171324 0.000000
0.113066 0.171012 0.000000
0.144048 0.170695 0.000000
0.175438 0.170374 0.000000
0.207198 0.170049 0.000000
0.239293 0.169721 0.000000
0.271688 0.169390 0.000000
0.304345 0.169056 0.000000
0.337229 0.168719 0.000000
0.370304 0.168381 0.000000
0.403534 0.168041 0.000000
0.436882 0.167700 0.000000
0.470313 0.167358 0.000000
0.503791 0.167016 0.000000
0.537279 0.166673 0.000000
0.570742 0.166331 0.000000
0.604143 0.165990 0.000000
0.637446 0.165649 0.000000
0.670616 0.165310 0.000000
0.703617 0.164972 0.000000
0.736411 0.164637 0.000000
0.768964 0.164304 0.000000
0.801239 0.163974 0.000000
0.833201 0.163647 0.000000
0.864812 0.163324 0.000000
0.896038 0.163004 0.000000
0.926841 0.162689 0.000000
0.957187 0.162379 0.000000
0.987038 0.162074 0.000000
1.000000 0.161774 0.000000
0.000000 0.203358 0.000000
0.021824 0.203061 0.000000
0.051369 0.202759 0.000000
0.081429 0.202452 0.000000
0.111968 0.202139 0.000000
0.142951 0.201823 0.000000
0.174340 0.201502 0.000000
0.206101 0.201177 0.000000
0.238196 0.200848 0.000000
0.270590 0.200517 0.000000
0.303248 0.200183 0.000000
0.336132 0.199847 0.000000
0.369207 0.199509 0.000000
0.402436 0.199169 0.000000
0.435785 0.198828 0.000000
0.469216 0.198486 0.000000
0.502693 0.198143 0.000000
0.536181 0.197801 0.000000
0.569644 0.197459 0.000000
0.603045 0.197117 0.000000
0.636349 0.196776 0.000000
0.669519 0.196437 0.000000
0.702519 0.196100 0.000000
0.735314 0.195764 0.000000
0.767867 0.195431 0.000000
0.800142 0.195101 0.000000
0.832103 0.194774 0.000000
0.863715 0.194451 0.000000
0.894940 0.194132 0.000000
0.925744 0.193817 0.000000
0.956089 0.193506 0.000000
0.985941 0.193201 0.000000
1.000000 0.192901 0.000000
0.000000 0.234822 0.000000
0.020714 0.234525 0.000000
0.050259 0.234223 0.000000
0.080320 0.233916 0.000000
0.110859 0.233603 0.000000
0.141841 0.233286 0.000000
0.173231 0.232965 0.000000
0.204991 0.232641 0.000000
0.237087 0.232312 0.000000
0.269481 0.231981 0.000000
0.302138 0.231647 0.000000
0.335022 0.231311 0.000000
0.368097 0.230972 0.000000
0.401327 0.230633 0.000000
0.434675 0.230291 0.000000
0.468106 0.229950 0.000000
0.501584 0.229607 0.000000
0.535072 0.229265 0.000000
0.568535 0.228922 0.000000
0.601936 0.228581 0.000000
0.635239 0.228240 0.000000
0.668409 0.227901 0.000000
0.701410 0.227563 0.000000
0.734205 0.227228 0.000000
0.766757 0.226895 0.000000
0.799033 0.226565 0.000000
0.830994 0.226238 0.000000
0.862605 0.225915 0.000000
0.893831 0.225596 0.000000
0.924635 0.225280 0.000000
0.954980 0.224970 0.000000
0.984832 0.224665 0.000000
1.000000 0.224365 0.000000
0.000000 0.266586 0.000000
0.019594 0.266289 0.000000
0.049139 0.265987 0.000000
0.079200 0.265680 0.000000
0.109739 0.265368 0.000000
0.140721 0.265051 0.000000
0.172111 0.264730 0.000000
0.203871 0.264405 0.000000
0.235967 0.264077 0.000000
0.268361 0.263745 0.000000
0.301018 0.263411 0.000000
0.333902 0.263075 0.000000
0.366977 0.262737 0.000000
0.400207 0.262397 0.000000
0.433555 0.262056 0.000000
0.466986 0.261714 0.000000
0.500464 0.261371 0.000000
0.533952 0.261029 0.000000
0.567415 0.260687 0.000000
0.600816 0.260345 0.000000
0.634120 0.260005 0.000000
0.667290 0.259665 0.000000
0.700290 0.259328 0.000000
0.733085 0.258992 0.000000
0.765638 0.258659 0.000000
0.797913 0.258329 0.000000
0.829874 0.258002 0.000000
0.861485 0.257679 0.000000
0.892711 0.257360 0.000000
0.923515 0.257045 0.000000
0.953860 0.256734 0.000000
0.983712 0.256429 0.000000
1.000000 0.256129 0.000000
0.000000 0.298615 0.000000
0.018465 0.298318 0.000000
0.048010 0.298016 0.000000
0.078070 0.297709 0.000000
0.108610 0.297397 0.000000
0.139592 0.297080 0.000000
0.170981 0.296759 0.000000
0.202742 0.296434 0.000000
0.234837 0.296106 0.000000
0.267232 0.295774 0.000000
0.299889 0.295440 0.000000
0.332773 0.295104 0.000000
0.365848 0.294766 0.000000
0.399078 0.294426 0.000000
0.432426 0.294085 0.000000
0.465857 0.293743 0.000000
0.499335 0.293400 0.000000
0.532823 0.293058 0.000000
0.566285 0.292716 0.000000
0.599687 0.292374 0.000000
0.632990 0.292033 0.000000
0.666160 0.291694 0.000000
0.699161 0.291357 0.000000
0.731955 0.291021 0.000000
0.764508 0.290688 0.000000
0.796783 0.290358 0.000000
0.828745 0.290031 0.000000
0.860356 0.289708 0.000000
0.891582 0.289389 0.000000
0.922385 0.289074 0.000000
0.952731 0.288763 0.000000
0.982582 0.288458 0.000000
1.000000 0.288158 0.000000
0.000000 0.330873 0.000000
0.017328 0.330576 0.000000
0.046873 0.330274 0.000000
0.076933 0.329967 0.000000
0.107472 0.329654 0.000000
0.138455 0.329337 0.000000
0.169844 0.329016 0.000000
0.201605 0.328692 0.000000
0.233700 0.328363 0.000000
0.266094 0.328032 0.000000
0.298752 0.327698 0.000000
0.331636 0.327362 0.000000
0.364711 0.327023 0.000000
0.397940 0.326684 0.000000
0.431289 0.326343 0.000000
0.464720 0.326001 0.000000
0.498197 0.325658 0.000000
0.531685 0.325316 0.000000
0.565148 0.324974 0.000000
0.598549 0.324632 0.000000
0.631853 0.324291 0.000000
0.665023 0.323952 0.000000
0.698023 0.323615 0.000000
0.730818 0.323279 0.000000
0.763371 0.322946 0.000000
0.795646 0.322616 0.000000
0.827607 0.322289 0.000000
0.859219 0.321966 0.000000
0.890444 0.321647 0.000000
0.921248 0.321332 0.000000
0.951594 0.321021 0.000000
0.981445 0.320716 0.000000
1.000000 0.320416 0.000000
0.000000 0.363324 0.000000
0.016184 0.363027 0.000000
0.045729 0.362725 0.000000
0.075789 0.362418 0.000000
0.106328 0.362105 0.000000
0.137311 0.361788 0.000000
0.168700 0.361467 0.000000
0.200460 0.361142 0.000000
0.232556 0.360814 0.000000
0.264950 0.360483 0.000000
0.297608 0.360149 0.000000
0.330492 0.359813 0.000000
0.363567 0.359474 0.000000
0.396796 0.359134 0.000000
0.430144 0.358793 0.000000
0.463575 0.358451 0.000000
0.497053 0.358109 0.000000
0.530541 0.357767 0.000000
0.564004 0.357424 0.000000
0.597405 0.357083 0.000000
0.630709 0.356742 0.000000
0.663879 0.356403 0.000000
0.696879 0.356065 0.000000
0.729674 0.355730 0.000000
0.762227 0.355397 0.000000
0.794502 0.355067 0.000000
0.826463 0.354740 0.000000
0.858075 0.354417 0.000000
0.889300 0.354097 0.000000
0.920104 0.353782 0.000000
0.950449 0.353472 0.000000
0.980301 0.353167 0.000000
1.000000 0.352867 0.000000
0.000000 0.395932 0.000000
0.015034 0.395635 0.000000
0.044579 0.395333 0.000000
0.074639 0.395026 0.000000
0.105178 0.394713 0.000000
0.136161 0.394396 0.000000
0.167550 0.394075 0.000000
0.199311 0.393751 0.000000
0.231406 0.393422 0.000000
0.263801 0.393091 0.000000
0.296458 0.392757 0.000000
0.329342 0.392421 0.000000
0.362417 0.392082 0.000000
0.395646 0.391743 0.000000
0.428995 0.391401 0.000000
0.462426 0.391060 0.000000
0.495903 0.390717 0.000000
0.529392 0.390375 0.000000
0.562854 0.390032 0.000000
0.596255 0.389691 0.000000
0.629559 0.389350 0.000000
0.662729 0.389011 0.000000
0.695729 0.388673 0.000000
0.728524 0.388338 0.000000
0.761077 0.388005 0.000000
0.793352 0.387675 0.000000
0.825314 0.387348 0.000000
0.856925 0.387025 0.000000
0.888151 0.386706 0.000000
0.918954 0.386390 0.000000
0.949300 0.386080 0.000000
0.979151 0.385775 0.000000
1.000000 0.385475 0.000000
0.000000 0.428661 0.000000
0.013880 0.428365 0.000000
0.043425 0.428062 0.000000
0.073485 0.427755 0.000000
0.104024 0.427443 0.000000
0.135007 0.427126 0.000000
0.166396 0.426805 0.000000
0.198157 0.426480 0.000000
0.230252 0.426152 0.000000
0.262647 0.425820 0.000000
0.295304 0.425486 0.000000
0.328188 0.425150 0.000000
0.361263 0.424812 0.000000
0.394492 0.424472 0.000000
0.427841 0.424131 0.000000
0.461272 0.423789 0.000000
0.494749 0.423447 0.000000
0.528238 0.423104 0.000000
0.561700 0.422762 0.000000
0.595101 0.422420 0.000000
0.628405 0.422080 0.000000
0.661575 0.421740 0.000000
0.694575 0.421403 0.000000
0.727370 0.421068 0.000000
0.759923 0.420735 0.000000
0.792198 0.420404 0.000000
0.824160 0.420078 0.000000
0.855771 0.419754 0.000000
0.886997 0.419435 0.000000
0.917800 0.419120 0.000000
0.948146 0.418810 0.000000
0.977997 0.418504 0.000000
1.000000 0.418204 0.000000
0.000000 0.461476 0.000000
0.012723 0.461180 0.000000
0.042268 0.460877 0.000000
0.072328 0.460570 0.000000
0.102867 0.460258 0.000000
0.133850 0.459941 0.000000
0.165239 0.459620 0.000000
0.197000 0.459295 0.000000
0.229095 0.458967 0.000000
0.261490 0.458635 0.000000
0.294147 0.458301 0.000000
0.327031 0.457965 0.000000
0.360106 0.457627 0.000000
0.393335 0.457287 0.000000
0.426684 0.456946 0.000000
0.460115 0.456604 0.000000
0.493592 0.456262 0.000000
0.527081 0.455919 0.000000
0.560543 0.455577 0.000000
0.593944 0.455235 0.000000
0.627248 0.454895 0.000000
0.660418 0.454555 0.000000
0.693418 0.454218 0.000000
0.726213 0.453883 0.000000
0.758766 0.453550 0.000000
0.791041 0.453220 0.000000
0.823003 0.452893 0.000000
0.854614 0.452569 0.000000
0.885840 0.452250 0.000000
0.916643 0.451935 0.000000
0.946989 0.451625 0.000000
0.976840 0.451319 0.000000
1.000000 0.451019 0.000000
0.000000 0.494341 0.000000
0.011564 0.494044 0.000000
0.041109 0.493742 0.000000
0.071169 0.493435 0.000000
0.101709 0.493122 0.000000
0.132691 0.492806 0.000000
0.164081 0.492485 0.000000
0.195841 0.492160 0.000000
0.227937 0.491831 0.000000
0.260331 0.491500 0.000000
0.292988 0.491166 0.000000
0.325872 0.490830 0.000000
0.358947 0.490492 0.000000
0.392177 0.490152 0.000000
0.425525 0.489811 0.000000
0.458956 0.489469 0.000000
0.492434 0.489126 0.000000
0.525922 0.488784 0.000000
0.559385 0.488442 0.000000
0.592786 0.488100 0.000000
0.626089 0.487759 0.000000
0.659259 0.487420 0.000000
0.692260 0.487083 0.000000
0.725054 0.486747 0.000000
0.757607 0.486414 0.000000
0.789883 0.486084 0.000000
0.821844 0.485757 0.000000
0.853455 0.485434 0.000000
0.884681 0.485115 0.000000
0.915484 0.484800 0.000000
0.945830 0.484489 0.000000
0.975682 0.484184 0.000000
1.000000 0.483884 0.000000
0.000000 0.527220 0.000000
0.010405 0.526923 0.000000
0.039950 0.526621 0.000000
0.070010 0.526313 0.000000
0.100549 0.526001 0.000000
0.131532 0.525684 0.000000
0.162921 0.525363 0.000000
0.194682 0.525038 0.000000
0.226777 0.524710 0.000000
0.259172 0.524379 0.000000
0.291829 0.524045 0.000000
0.324713 0.523709 0.000000
0.357788 0.523370 0.000000
0.391018 0.523030 0.000000
0.424366 0.522689 0.000000
0.457797 0.522347 0.000000
0.491274 0.522005 0.000000
0.524763 0.521663 0.000000
0.558225 0.521320 0.000000
0.591627 0.520979 0.000000
0.624930 0.520638 0.000000
0.658100 0.520299 0.000000
0.691101 0.519961 0.000000
0.723895 0.519626 0.000000
0.756448 0.519293 0.000000
0.788723 0.518963 0.000000
0.820685 0.518636 0.000000
0.852296 0.518313 0.000000
0.883522 0.517993 0.000000
0.914325 0.517678 0.000000
0.944671 0.517368 0.000000
0.974522 0.517063 0.000000
1.000000 0.516763 0.000000
0.000000 0.560076 0.000000
0.009247 0.559780 0.000000
0.038792 0.559478 0.000000
0.068852 0.559170 0.000000
0.099391 0.558858 0.000000
0.130373 0.558541 0.000000
0.161763 0.558220 0.000000
0.193523 0.557895 0.000000
0.225619 0.557567 0.000000
0.258013 0.557236 0.000000
0.290670 0.556902 0.000000
0.323555 0.556565 0.000000
0.356629 0.556227 0.000000
0.389859 0.555887 0.000000
0.423207 0.555546 0.000000
0.456638 0.555204 0.000000
0.490116 0.554862 0.000000
0.523604 0.554519 0.000000
0.557067 0.554177 0.000000
0.590468 0.553836 0.000000
0.623772 0.553495 0.000000
0.656942 0.553156 0.000000
0.689942 0.552818 0.000000
0.722737 0.552483 0.000000
0.755290 0.552150 0.000000
0.787565 0.551820 0.000000
0.819526 0.551493 0.000000
0.851138 0.551170 0.000000
0.882363 0.550850 0.000000
0.913167 0.550535 0.000000
0.943512 0.550225 0.000000
0.973364 0.549919 0.000000
1.000000 0.549620 0.000000
0.000000 0.592875 0.000000
0.008090 0.592579 0.000000
0.037635 0.592277 0.000000
0.067695 0.591969 0.000000
0.098235 0.591657 0.000000
0.129217 0.591340 0.000000
0.160606 0.591019 0.000000
0.192367 0.590694 0.000000
0.224462 0.590366 0.000000
0.256857 0.590035 0.000000
0.289514 0.589701 0.000000
0.322398 0.589364 0.000000
0.355473 0.589026 0.000000
0.388703 0.588686 0.000000
0.422051 0.588345 0.000000
0.455482 0.588003 0.000000
0.488960 0.587661 0.000000
0.522448 0.587318 0.000000
0.555910 0.586976 0.000000
0.589312 0.586635 0.000000
0.622615 0.586294 0.000000
0.655785 0.585955 0.000000
0.688786 0.585617 0.000000
0.721580 0.585282 0.000000
0.754133 0.584949 0.000000
0.786408 0.584619 0.000000
0.818370 0.584292 0.000000
0.849981 0.583969 0.000000
0.881207 0.583649 0.000000
0.912010 0.583334 0.000000
0.942356 0.583024 0.000000
0.972207 0.582719 0.000000
1.000000 0.582419 0.000000
0.000000 0.625581 0.000000
0.006937 0.625284 0.000000
0.036482 0.624982 0.000000
0.066542 0.624675 0.000000
0.097081 0.624362 0.000000
0.128064 0.624046 0.000000
0.159453 0.623725 0.000000
0.191214 0.623400 0.000000
0.223309 0.623072 0.000000
0.255704 0.622740 0.000000
0.288361 0.622406 0.000000
0.321245 0.622070 0.000000
0.354320 0.621732 0.000000
0.387549 0.621392 0.000000
0.420898 0.621051 0.000000
0.454329 0.620709 0.000000
0.487806 0.620366 0.000000
0.521295 0.620024 0.000000
0.554757 0.619682 0.000000
0.588158 0.619340 0.000000
0.621462 0.618999 0.000000
0.654632 0.618660 0.000000
0.687633 0.618323 0.000000
0.720427 0.617987 0.000000
0.752980 0.617654 0.000000
0.785255 0.617324 0.000000
0.817217 0.616997 0.000000
0.848828 0.616674 0.000000
0.880054 0.616355 0.000000
0.910857 0.616040 0.000000
0.941203 0.615729 0.000000
0.971054 0.615424 0.000000
1.000000 0.615124 0.000000
0.000000 0.658157 0.000000
0.005788 0.657861 0.000000
0.035333 0.657558 0.000000
0.065394 0.657251 0.000000
0.095933 0.656939 0.000000
0.126915 0.656622 0.000000
0.158305 0.656301 0.000000
0.190065 0.655976 0.000000
0.222161 0.655648 0.000000
0.254555 0.655316 0.000000
0.287212 0.654982 0.000000
0.320096 0.654646 0.000000
0.353171 0.654308 0.000000
0.386401 0.653968 0.000000
0.419749 0.653627 0.000000
0.453180 0.653285 0.000000
0.486658 0.652943 0.000000
0.520146 0.652600 0.000000
0.553609 0.652258 0.000000
0.587010 0.651916 0.000000
0.620314 0.651576 0.000000
0.653484 0.651236 0.000000
0.686484 0.650899 0.000000
0.719279 0.650563 0.000000
0.751832 0.650231 0.000000
0.784107 0.649900 0.000000
0.816068 0.649574 0.000000
0.847679 0.649250 0.000000
0.878905 0.648931 0.000000
0.909709 0.648616 0.000000
0.940054 0.648306 0.000000
0.969906 0.648000 0.000000
0.999227 0.647700 0.000000
0.000000 0.690568 0.000000
0.004646 0.690272 0.000000
0.034191 0.689969 0.000000
0.064251 0.689662 0.000000
0.094790 0.689350 0.000000
0.125773 0.689033 0.000000
0.157162 0.688712 0.000000
0.188923 0.688387 0.000000
0.221018 0.688059 0.000000
0.253412 0.687727 0.000000
0.286070 0.687393 0.000000
0.318954 0.687057 0.000000
0.352029 0.686719 0.000000
0.385258 0.686379 0.000000
0.418607 0.686038 0.000000
0.452037 0.685696 0.000000
0.485515 0.685354 0.000000
0.519003 0.685011 0.000000
0.552466 0.684669 0.000000
0.585867 0.684327 0.000000
0.619171 0.683987 0.000000
0.652341 0.683647 0.000000
0.685341 0.683310 0.000000
0.718136 0.682974 0.000000
0.750689 0.682642 0.000000
0.782964 0.682311 0.000000
0.814925 0.681985 0.000000
0.846537 0.681661 0.000000
0.877762 0.681342 0.000000
0.908566 0.681027 0.000000
0.938911 0.680716 0.000000
0.968763 0.680411 0.000000
0.998084 0.680111 0.000000
0.000000 0.722778 0.000000
0.003510 0.722482 0.000000
0.033055 0.722179 0.000000
0.063115 0.721872 0.000000
0.093655 0.721560 0.000000
0.124637 0.721243 0.000000
0.156026 0.720922 0.000000
0.187787 0.720597 0.000000
0.219882 0.720269 0.000000
0.252277 0.719937 0.000000
0.284934 0.719603 0.000000
0.317818 0.719267 0.000000
0.350893 0.718929 0.000000
0.384123 0.718589 0.000000
0.417471 0.718248 0.000000
0.450902 0.717906 0.000000
0.484379 0.717564 0.000000
0.517868 0.717221 0.000000
0.551330 0.716879 0.000000
0.584732 0.716537 0.000000
0.618035 0.716197 0.000000
0.651205 0.715857 0.000000
0.684206 0.715520 0.000000
0.717000 0.715184 0.000000
0.749553 0.714851 0.000000
0.781828 0.714521 0.000000
0.813790 0.714195 0.000000
0.845401 0.713871 0.000000
0.876627 0.713552 0.000000
0.907430 0.713237 0.000000
0.937776 0.712926 0.000000
0.967627 0.712621 0.000000
0.996949 0.712321 0.000000
0.000000 0.754751 0.000000
0.002383 0.754455 0.000000
0.031928 0.754152 0.000000
0.061988 0.753845 0.000000
0.092527 0.753533 0.000000
0.123510 0.753216 0.000000
0.154899 0.752895 0.000000
0.186660 0.752570 0.000000
0.218755 0.752242 0.000000
0.251149 0.751910 0.000000
0.283807 0.751576 0.000000
0.316691 0.751240 0.000000
0.349766 0.750902 0.000000
0.382995 0.750562 0.000000
0.416344 0.750221 0.000000
0.449775 0.749879 0.000000
0.483252 0.749537 0.000000
0.516740 0.749194 0.000000
0.550203 0.748852 0.000000
0.583604 0.748510 0.000000
0.616908 0.748170 0.000000
0.650078 0.747830 0.000000
0.683078 0.747493 0.000000
0.715873 0.747158 0.000000
0.748426 0.746825 0.000000
0.780701 0.746495 0.000000
0.812662 0.746168 0.000000
0.844274 0.745844 0.000000
0.875499 0.745525 0.000000
0.906303 0.745210 0.000000
0.936648 0.744900 0.000000
0.966500 0.744594 0.000000
0.995821 0.744294 0.000000
0.000000 0.786452 0.000000
0.001265 0.786155 0.000000
0.030810 0.785853 0.000000
0.060870 0.785546 0.000000
0.091410 0.785233 0.000000
0.122392 0.784916 0.000000
0.153781 0.784595 0.000000
0.185542 0.784270 0.000000
0.217637 0.783942 0.000000
0.250032 0.783611 0.000000
0.282689 0.783277 0.000000
0.315573 0.782941 0.000000
0.348648 0.782602 0.000000
0.381878 0.782262 0.000000
0.415226 0.781921 0.000000
0.448657 0.781580 0.000000
0.482134 0.781237 0.000000
0.515623 0.780895 0.000000
0.549085 0.780552 0.000000
0.582487 0.780211 0.000000
0.615790 0.779870 0.000000
0.648960 0.779531 0.000000
0.681961 0.779193 0.000000
0.714755 0.778858 0.000000
0.747308 0.778525 0.000000
0.779583 0.778195 0.000000
0.811545 0.777868 0.000000
0.843156 0.777545 0.000000
0.874382 0.777225 0.000000
0.905185 0.776910 0.000000
0.935531 0.776600 0.000000
0.965382 0.776295 0.000000
0.994704 0.775995 0.000000
0.000000 0.817844 0.000000
0.000158 0.817547 0.000000
0.029703 0.817245 0.000000
0.059763 0.816938 0.000000
0.090303 0.816625 0.000000
0.121285 0.816308 0.000000
0.152675 0.815987 0.000000
0.184435 0.815662 0.000000
0.216530 0.815334 0.000000
0.248925 0.815003 0.000000
0.281582 0.814669 0.000000
0.314466 0.814333 0.000000
0.347541 0.813994 0.000000
0.380771 0.813655 0.000000
0.414119 0.813313 0.000000
0.447550 0.812972 0.000000
0.481028 0.812629 0.000000
0.514516 0.812287 0.000000
0.547979 0.811944 0.000000
0.581380 0.811603 0.000000
0.614683 0.811262 0.000000
0.647853 0.810923 0.000000
0.680854 0.810585 0.000000
0.713648 0.810250 0.000000
0.746201 0.809917 0.000000
0.778476 0.809587 0.000000
0.810438 0.809260 0.000000
