assets/LUTs/rescue_vibrance_soft_33.cube
TITLE "Rescue Vibrance Soft"
LUT_3D_SIZE 33
DOMAIN_MIN 0.0 0.0 0.0
DOMAIN_MAX 1.0 1.0 1.0
0.004204 0.000000 0.000000
0.037207 0.000000 0.000000
0.070461 0.000000 0.000000
0.103922 0.000000 0.000000
0.137548 0.000000 0.000000
0.171296 0.000000 0.000000
0.205125 0.000000 0.000000
0.238996 0.000000 0.000000
0.272870 0.000000 0.000000
0.306708 0.000000 0.000000
0.340473 0.000000 0.000000
0.374130 0.000000 0.000000
0.407642 0.000000 0.000000
0.440977 0.000000 0.000000
0.474101 0.000000 0.000000
0.506982 0.000000 0.000000
0.539591 0.000000 0.000000
0.571896 0.000000 0.000000
0.603869 0.000000 0.000000
0.635483 0.000000 0.000000
0.666712 0.000000 0.000000
0.697529 0.000000 0.000000
0.727911 0.000000 0.000000
0.757834 0.000000 0.000000
0.787276 0.000000 0.000000
0.816216 0.000000 0.000000
0.844634 0.000000 0.000000
0.872510 0.000000 0.000000
0.899825 0.000000 0.000000
0.926564 0.000000 0.000000
0.952708 0.000000 0.000000
0.978243 0.000000 0.000000
1.000000 0.000000 0.000000
0.000568 0.030285 0.000000
0.033598 0.029205 0.000000
0.066962 0.028141 0.000000
0.100535 0.027129 0.000000
0.134273 0.026175 0.000000
0.168135 0.025280 0.000000
0.202080 0.024450 0.000000
0.236068 0.023685 0.000000
0.270059 0.022990 0.000000
0.304015 0.022367 0.000000
0.337899 0.021817 0.000000
0.371676 0.021342 0.000000
0.405308 0.020945 0.000000
0.438764 0.020626 0.000000
0.472009 0.020387 0.000000
0.505011 0.020228 0.000000
0.537741 0.020150 0.000000
0.570167 0.020152 0.000000
0.602261 0.020235 0.000000
0.633996 0.020399 0.000000
0.665345 0.020642 0.000000
0.696283 0.020963 0.000000
0.726784 0.021362 0.000000
0.756826 0.021836 0.000000
0.786387 0.022384 0.000000
0.815444 0.023004 0.000000
0.843978 0.023693 0.000000
0.871968 0.024449 0.000000
0.899398 0.025268 0.000000
0.926249 0.026148 0.000000
0.952504 0.027085 0.000000
0.978149 0.028075 0.000000
1.000000 0.028979 0.000000
0.000000 0.061085 0.000000
0.030009 0.060038 0.000000
0.063411 0.058974 0.000000
0.097096 0.057917 0.000000
0.130949 0.056917 0.000000
0.164927 0.055977 0.000000
0.198989 0.055099 0.000000
0.233095 0.054288 0.000000
0.267205 0.053545 0.000000
0.301282 0.052874 0.000000
0.335287 0.052276 0.000000
0.369184 0.051753 0.000000
0.402939 0.051307 0.000000
0.436517 0.050940 0.000000
0.469885 0.050652 0.000000
0.503010 0.050444 0.000000
0.535863 0.050317 0.000000
0.568412 0.050270 0.000000
0.600630 0.050304 0.000000
0.632487 0.050419 0.000000
0.663959 0.050613 0.000000
0.695018 0.050886 0.000000
0.725641 0.051236 0.000000
0.755803 0.051663 0.000000
0.785484 0.052163 0.000000
0.814660 0.052735 0.000000
0.843311 0.053377 0.000000
0.871419 0.054087 0.000000
0.898964 0.054860 0.000000
0.925929 0.055694 0.000000
0.952297 0.056586 0.000000
0.978053 0.057532 0.000000
1.000000 0.058398 0.000000
0.000000 0.092223 0.000000
0.026594 0.091210 0.000000
0.059876 0.090181 0.000000
0.093610 0.089135 0.000000
0.127579 0.088088 0.000000
0.161675 0.087101 0.000000
0.195855 0.086177 0.000000
0.230081 0.085317 0.000000
0.264312 0.084527 0.000000
0.298510 0.083807 0.000000
0.332638 0.083160 0.000000
0.366658 0.082588 0.000000
0.400537 0.082093 0.000000
0.434239 0.081676 0.000000
0.467731 0.081339 0.000000
0.500982 0.081081 0.000000
0.533959 0.080904 0.000000
0.566633 0.080808 0.000000
0.598975 0.080792 0.000000
0.630957 0.080857 0.000000
0.662552 0.081002 0.000000
0.693735 0.081226 0.000000
0.724481 0.081527 0.000000
0.754766 0.081905 0.000000
0.784568 0.082357 0.000000
0.813865 0.082881 0.000000
0.842636 0.083476 0.000000
0.870862 0.084138 0.000000
0.898524 0.084864 0.000000
0.925605 0.085652 0.000000
0.952088 0.086499 0.000000
0.977956 0.087400 0.000000
1.000000 0.088228 0.000000
0.000000 0.123666 0.000000
0.023368 0.122686 0.000000
0.056524 0.121692 0.000000
0.090137 0.120684 0.000000
0.124166 0.119658 0.000000
0.158380 0.118623 0.000000
0.192681 0.117651 0.000000
0.227028 0.116743 0.000000
0.261382 0.115904 0.000000
0.295703 0.115135 0.000000
0.329955 0.114438 0.000000
0.364100 0.113817 0.000000
0.398104 0.113272 0.000000
0.431932 0.112805 0.000000
0.465550 0.112417 0.000000
0.498927 0.112109 0.000000
0.532030 0.111882 0.000000
0.564831 0.111735 0.000000
0.597299 0.111669 0.000000
0.629407 0.111684 0.000000
0.661128 0.111779 0.000000
0.692436 0.111953 0.000000
0.723307 0.112205 0.000000
0.753716 0.112533 0.000000
0.783640 0.112936 0.000000
0.813059 0.113412 0.000000
0.841952 0.113958 0.000000
0.870298 0.114572 0.000000
0.898079 0.115252 0.000000
0.925277 0.115993 0.000000
0.951875 0.116793 0.000000
0.977858 0.117649 0.000000
1.000000 0.118438 0.000000
0.000000 0.155379 0.000000
0.020344 0.154434 0.000000
0.053372 0.153474 0.000000
0.086856 0.152501 0.000000
0.120762 0.151515 0.000000
0.155048 0.150512 0.000000
0.189470 0.149491 0.000000
0.223940 0.148534 0.000000
0.258417 0.147646 0.000000
0.292863 0.146827 0.000000
0.327241 0.146081 0.000000
0.361512 0.145409 0.000000
0.395643 0.144813 0.000000
0.429598 0.144296 0.000000
0.463344 0.143857 0.000000
0.496848 0.143498 0.000000
0.530080 0.143220 0.000000
0.563008 0.143023 0.000000
0.595604 0.142906 0.000000
0.627839 0.142870 0.000000
0.659688 0.142914 0.000000
0.691122 0.143038 0.000000
0.722119 0.143239 0.000000
0.752653 0.143518 0.000000
0.782702 0.143871 0.000000
0.812245 0.144298 0.000000
0.841260 0.144795 0.000000
0.869727 0.145361 0.000000
0.897628 0.145993 0.000000
0.924945 0.146687 0.000000
0.951660 0.147440 0.000000
0.977758 0.148250 0.000000
1.000000 0.148999 0.000000
0.000000 0.187330 0.000000
0.017533 0.186419 0.000000
0.050432 0.185494 0.000000
0.083784 0.184556 0.000000
0.117558 0.183606 0.000000
0.151720 0.182646 0.000000
0.186225 0.181667 0.000000
0.220819 0.180661 0.000000
0.255422 0.179722 0.000000
0.289994 0.178853 0.000000
0.324498 0.178057 0.000000
0.358897 0.177334 0.000000
0.393156 0.176688 0.000000
0.427239 0.176119 0.000000
0.461114 0.175629 0.000000
0.494748 0.175219 0.000000
0.528108 0.174889 0.000000
0.561166 0.174640 0.000000
0.593891 0.174472 0.000000
0.626255 0.174385 0.000000
0.658232 0.174378 0.000000
0.689794 0.174450 0.000000
0.720918 0.174601 0.000000
0.751579 0.174829 0.000000
0.781754 0.175132 0.000000
0.811421 0.175509 0.000000
0.840560 0.175957 0.000000
0.869150 0.176474 0.000000
0.897173 0.177058 0.000000
0.924609 0.177704 0.000000
0.951443 0.178411 0.000000
0.977658 0.179174 0.000000
1.000000 0.179883 0.000000
0.000000 0.219484 0.000000
0.014944 0.218608 0.000000
0.047712 0.217718 0.000000
0.080933 0.216816 0.000000
0.114573 0.215902 0.000000
0.148599 0.214978 0.000000
0.182980 0.214045 0.000000
0.217669 0.213092 0.000000
0.252398 0.212103 0.000000
0.287097 0.211184 0.000000
0.321729 0.210336 0.000000
0.356257 0.209562 0.000000
0.390645 0.208864 0.000000
0.424858 0.208244 0.000000
0.458863 0.207702 0.000000
0.492627 0.207240 0.000000
0.526118 0.206858 0.000000
0.559306 0.206557 0.000000
0.592161 0.206337 0.000000
0.624656 0.206198 0.000000
0.656762 0.206140 0.000000
0.688454 0.206161 0.000000
0.719706 0.206261 0.000000
0.750495 0.206438 0.000000
0.780797 0.206690 0.000000
0.810590 0.207017 0.000000
0.839854 0.207415 0.000000
0.868568 0.207883 0.000000
0.896713 0.208418 0.000000
0.924271 0.209016 0.000000
0.951224 0.209675 0.000000
0.977557 0.210391 0.000000
1.000000 0.211060 0.000000
0.000000 0.251810 0.000000
0.012586 0.250968 0.000000
0.045224 0.250114 0.000000
0.078311 0.249248 0.000000
0.111816 0.248371 0.000000
0.145706 0.247484 0.000000
0.179949 0.246587 0.000000
0.214512 0.245682 0.000000
0.249348 0.244758 0.000000
0.284176 0.243787 0.000000
0.318937 0.242888 0.000000
0.353595 0.242063 0.000000
0.388113 0.241313 0.000000
0.422457 0.240640 0.000000
0.456593 0.240046 0.000000
0.490489 0.239532 0.000000
0.524111 0.239098 0.000000
0.557431 0.238745 0.000000
0.590417 0.238472 0.000000
0.623043 0.238281 0.000000
0.655280 0.238170 0.000000
0.687102 0.238140 0.000000
0.718484 0.238188 0.000000
0.749402 0.238313 0.000000
0.779832 0.238515 0.000000
0.809752 0.238791 0.000000
0.839142 0.239139 0.000000
0.867981 0.239557 0.000000
0.896249 0.240043 0.000000
0.923929 0.240592 0.000000
0.951003 0.241203 0.000000
0.977455 0.241872 0.000000
1.000000 0.242500 0.000000
0.000000 0.284274 0.000000
0.010468 0.283468 0.000000
0.042974 0.282649 0.000000
0.075927 0.281819 0.000000
0.109296 0.280979 0.000000
0.143049 0.280129 0.000000
0.177153 0.279270 0.000000
0.211576 0.278403 0.000000
0.246285 0.277529 0.000000
0.281233 0.276634 0.000000
0.316124 0.275683 0.000000
0.350913 0.274806 0.000000
0.385562 0.274003 0.000000
0.420038 0.273278 0.000000
0.454307 0.272632 0.000000
0.488334 0.272064 0.000000
0.522089 0.271578 0.000000
0.555541 0.271172 0.000000
0.588660 0.270847 0.000000
0.621418 0.270603 0.000000
0.653787 0.270440 0.000000
0.685740 0.270357 0.000000
0.717253 0.270353 0.000000
0.748300 0.270427 0.000000
0.778860 0.270577 0.000000
0.808908 0.270802 0.000000
0.838425 0.271100 0.000000
0.867389 0.271468 0.000000
0.895782 0.271903 0.000000
0.923585 0.272404 0.000000
0.950780 0.272967 0.000000
0.977352 0.273588 0.000000
1.000000 0.274175 0.000000
0.000000 0.316845 0.000000
0.008598 0.316073 0.000000
0.040970 0.315291 0.000000
0.073788 0.314497 0.000000
0.107020 0.313694 0.000000
0.140635 0.312881 0.000000
0.174599 0.312060 0.000000
0.208881 0.311231 0.000000
0.243449 0.310395 0.000000
0.278270 0.309553 0.000000
0.313293 0.308690 0.000000
0.348213 0.307761 0.000000
0.382995 0.306906 0.000000
0.417604 0.306128 0.000000
0.452005 0.305428 0.000000
0.486166 0.304808 0.000000
0.520054 0.304268 0.000000
0.553640 0.303809 0.000000
0.586892 0.303431 0.000000
0.619783 0.303134 0.000000
0.652284 0.302918 0.000000
0.684369 0.302783 0.000000
0.716013 0.302726 0.000000
0.747192 0.302748 0.000000
0.777881 0.302847 0.000000
0.808058 0.303020 0.000000
0.837703 0.303267 0.000000
0.866794 0.303585 0.000000
0.895312 0.303970 0.000000
0.923239 0.304422 0.000000
0.950556 0.304936 0.000000
0.977248 0.305509 0.000000
1.000000 0.306055 0.000000
0.000000 0.349490 0.000000
0.006981 0.348754 0.000000
0.039219 0.348007 0.000000
0.071901 0.347251 0.000000
0.104996 0.346484 0.000000
0.138472 0.345709 0.000000
0.172296 0.344926 0.000000
0.206436 0.344135 0.000000
0.240860 0.343338 0.000000
0.275537 0.342535 0.000000
0.310434 0.341727 0.000000
0.345499 0.340897 0.000000
0.380414 0.339989 0.000000
0.415156 0.339158 0.000000
0.449691 0.338405 0.000000
0.483986 0.337732 0.000000
0.518008 0.337138 0.000000
0.551727 0.336626 0.000000
0.585114 0.336195 0.000000
0.618138 0.335845 0.000000
0.650773 0.335576 0.000000
0.682991 0.335387 0.000000
0.714767 0.335278 0.000000
0.746077 0.335248 0.000000
0.776897 0.335294 0.000000
0.807204 0.335416 0.000000
0.836977 0.335612 0.000000
0.866195 0.335879 0.000000
0.894839 0.336214 0.000000
0.922890 0.336616 0.000000
0.950331 0.337081 0.000000
0.977144 0.337606 0.000000
1.000000 0.338110 0.000000
0.000000 0.382178 0.000000
0.005623 0.381478 0.000000
0.037726 0.380768 0.000000
0.070272 0.380048 0.000000
0.103229 0.379319 0.000000
0.136565 0.378581 0.000000
0.170248 0.377836 0.000000
0.204245 0.377084 0.000000
0.238526 0.376325 0.000000
0.273058 0.375561 0.000000
0.307810 0.374793 0.000000
0.342748 0.374020 0.000000
0.377820 0.373224 0.000000
0.412696 0.372340 0.000000
0.447366 0.371533 0.000000
0.481795 0.370806 0.000000
0.515953 0.370159 0.000000
0.549807 0.369593 0.000000
0.583327 0.369108 0.000000
0.616486 0.368705 0.000000
0.649255 0.368382 0.000000
0.681606 0.368141 0.000000
0.713515 0.367979 0.000000
0.744957 0.367896 0.000000
0.775908 0.367890 0.000000
0.806346 0.367960 0.000000
0.836248 0.368104 0.000000
0.865594 0.368320 0.000000
0.894364 0.368606 0.000000
0.922541 0.368958 0.000000
0.950105 0.369374 0.000000
0.977039 0.369850 0.000000
1.000000 0.370312 0.000000
0.000000 0.414878 0.000000
0.004528 0.414214 0.000000
0.036497 0.413540 0.000000
0.068906 0.412857 0.000000
0.101724 0.412165 0.000000
0.134920 0.411466 0.000000
0.168461 0.410759 0.000000
0.202315 0.410045 0.000000
0.236452 0.409326 0.000000
0.270839 0.408601 0.000000
0.305444 0.407872 0.000000
0.340236 0.407139 0.000000
0.375183 0.406402 0.000000
0.410228 0.405642 0.000000
0.445032 0.404782 0.000000
0.479597 0.404001 0.000000
0.513890 0.403300 0.000000
0.547879 0.402680 0.000000
0.581535 0.402141 0.000000
0.614828 0.401684 0.000000
0.647731 0.401308 0.000000
0.680217 0.401013 0.000000
0.712259 0.400798 0.000000
0.743833 0.400662 0.000000
0.774916 0.400604 0.000000
0.805484 0.400623 0.000000
0.835516 0.400715 0.000000
0.864990 0.400880 0.000000
0.893888 0.401115 0.000000
0.922189 0.401417 0.000000
0.949877 0.401783 0.000000
0.976934 0.402211 0.000000
1.000000 0.402632 0.000000
0.000000 0.447559 0.000000
0.003701 0.446931 0.000000
0.035534 0.446294 0.000000
0.067806 0.445648 0.000000
0.100485 0.444994 0.000000
0.133540 0.444332 0.000000
0.166939 0.443664 0.000000
0.200650 0.442989 0.000000
0.234643 0.442309 0.000000
0.268884 0.441623 0.000000
0.303342 0.440933 0.000000
0.337987 0.440240 0.000000
0.372786 0.439543 0.000000
0.407707 0.438844 0.000000
0.442693 0.438121 0.000000
0.477393 0.437286 0.000000
0.511821 0.436531 0.000000
0.545946 0.435857 0.000000
0.579737 0.435264 0.000000
0.613166 0.434753 0.000000
0.646203 0.434324 0.000000
0.678823 0.433975 0.000000
0.710999 0.433707 0.000000
0.742707 0.433518 0.000000
0.773921 0.433408 0.000000
0.804620 0.433374 0.000000
0.834782 0.433415 0.000000
0.864385 0.433528 0.000000
0.893410 0.433712 0.000000
0.921837 0.433964 0.000000
0.949650 0.434281 0.000000
0.976829 0.434660 0.000000
1.000000 0.435039 0.000000
0.000000 0.480192 0.000000
0.003143 0.479600 0.000000
0.034840 0.478999 0.000000
0.066975 0.478391 0.000000
0.099515 0.477774 0.000000
0.132429 0.477150 0.000000
0.165686 0.476520 0.000000
0.199253 0.475884 0.000000
0.233101 0.475243 0.000000
0.267196 0.474597 0.000000
0.301508 0.473947 0.000000
0.336005 0.473293 0.000000
0.370655 0.472637 0.000000
0.405428 0.471978 0.000000
0.440290 0.471317 0.000000
0.475185 0.470631 0.000000
0.509749 0.469822 0.000000
0.544009 0.469094 0.000000
0.577936 0.468447 0.000000
0.611500 0.467882 0.000000
0.644673 0.467399 0.000000
0.677427 0.466997 0.000000
0.709737 0.466676 0.000000
0.741578 0.466434 0.000000
0.772925 0.466271 0.000000
0.803755 0.466184 0.000000
0.834047 0.466173 0.000000
0.863779 0.466235 0.000000
0.892931 0.466369 0.000000
0.921485 0.466571 0.000000
0.949421 0.466838 0.000000
0.976723 0.467168 0.000000
1.000000 0.467505 0.000000
0.000000 0.512746 0.000000
0.002856 0.512190 0.000000
0.034418 0.511626 0.000000
0.066415 0.511054 0.000000
0.098815 0.510475 0.000000
0.131589 0.509890 0.000000
0.164703 0.509298 0.000000
0.198127 0.508701 0.000000
0.231829 0.508099 0.000000
0.265779 0.507492 0.000000
0.299944 0.506882 0.000000
0.334293 0.506268 0.000000
0.368795 0.505651 0.000000
0.403418 0.505033 0.000000
0.438132 0.504412 0.000000
0.472904 0.503791 0.000000
0.507674 0.503143 0.000000
0.542071 0.502361 0.000000
0.576134 0.501660 0.000000
0.609833 0.501041 0.000000
0.643141 0.500504 0.000000
0.676030 0.500049 0.000000
0.708474 0.499674 0.000000
0.740448 0.499379 0.000000
0.771927 0.499163 0.000000
0.802889 0.499024 0.000000
0.833311 0.498961 0.000000
0.863172 0.498972 0.000000
0.892452 0.499055 0.000000
0.921132 0.499206 0.000000
0.949193 0.499424 0.000000
0.976618 0.499705 0.000000
1.000000 0.500000 0.000000
0.000000 0.545191 0.000000
0.002841 0.544672 0.000000
0.034267 0.544144 0.000000
0.066127 0.543610 0.000000
0.098388 0.543068 0.000000
0.131020 0.542521 0.000000
0.163992 0.541968 0.000000
0.197272 0.541409 0.000000
0.230830 0.540846 0.000000
0.264633 0.540279 0.000000
0.298651 0.539708 0.000000
0.332853 0.539134 0.000000
0.367206 0.538558 0.000000
0.401681 0.537980 0.000000
0.436245 0.537400 0.000000
0.470868 0.536819 0.000000
0.505518 0.536237 0.000000
0.540133 0.535628 0.000000
0.574331 0.534873 0.000000
0.608166 0.534200 0.000000
0.641609 0.533609 0.000000
0.674633 0.533100 0.000000
0.707211 0.532672 0.000000
0.739318 0.532324 0.000000
0.770929 0.532055 0.000000
0.802022 0.531864 0.000000
0.832575 0.531750 0.000000
0.862565 0.531709 0.000000
0.891973 0.531741 0.000000
0.920779 0.531842 0.000000
0.948964 0.532010 0.000000
0.976512 0.532243 0.000000
1.000000 0.532495 0.000000
0.000000 0.577499 0.000000
0.003098 0.577016 0.000000
0.034388 0.576525 0.000000
0.066110 0.576028 0.000000
0.098232 0.575524 0.000000
0.130724 0.575015 0.000000
0.163553 0.574500 0.000000
0.196690 0.573980 0.000000
0.230103 0.573456 0.000000
0.263760 0.572928 0.000000
0.297631 0.572397 0.000000
0.331685 0.571863 0.000000
0.365890 0.571327 0.000000
0.400216 0.570789 0.000000
0.434631 0.570249 0.000000
0.469105 0.569708 0.000000
0.503605 0.569167 0.000000
0.538102 0.568626 0.000000
0.572530 0.568056 0.000000
0.606501 0.567329 0.000000
0.640079 0.566685 0.000000
0.673237 0.566122 0.000000
0.705949 0.565640 0.000000
0.738189 0.565239 0.000000
0.769933 0.564918 0.000000
0.801157 0.564675 0.000000
0.831840 0.564508 0.000000
0.861959 0.564416 0.000000
0.891494 0.564397 0.000000
0.920426 0.564448 0.000000
0.948736 0.564567 0.000000
0.976407 0.564750 0.000000
1.000000 0.564961 0.000000
0.000000 0.609641 0.000000
0.003625 0.609194 0.000000
0.034780 0.608740 0.000000
0.066365 0.608279 0.000000
0.098348 0.607813 0.000000
0.130699 0.607342 0.000000
0.163386 0.606865 0.000000
0.196379 0.606384 0.000000
0.229648 0.605899 0.000000
0.263159 0.605411 0.000000
0.296884 0.604919 0.000000
0.330790 0.604425 0.000000
0.364848 0.603929 0.000000
0.399025 0.603431 0.000000
0.433291 0.602931 0.000000
0.467616 0.602431 0.000000
0.501967 0.601930 0.000000
0.536314 0.601429 0.000000
0.570626 0.600929 0.000000
0.604838 0.600399 0.000000
0.638551 0.599700 0.000000
0.671844 0.599084 0.000000
0.704689 0.598549 0.000000
0.737062 0.598095 0.000000
0.768938 0.597721 0.000000
0.800293 0.597426 0.000000
0.831106 0.597208 0.000000
0.861353 0.597065 0.000000
0.891016 0.596995 0.000000
0.920074 0.596996 0.000000
0.948508 0.597065 0.000000
0.976301 0.597200 0.000000
1.000000 0.597368 0.000000
0.000000 0.641589 0.000000
0.004420 0.641178 0.000000
0.035440 0.640760 0.000000
0.066887 0.640337 0.000000
0.098732 0.639908 0.000000
0.130943 0.639474 0.000000
0.163489 0.639036 0.000000
0.196339 0.638594 0.000000
0.229463 0.638148 0.000000
0.262829 0.637698 0.000000
0.296408 0.637246 0.000000
0.330168 0.636792 0.000000
0.364077 0.636335 0.000000
0.398107 0.635877 0.000000
0.432224 0.635417 0.000000
0.466400 0.634957 0.000000
0.500602 0.634497 0.000000
0.534800 0.634036 0.000000
0.568964 0.633576 0.000000
0.603062 0.633117 0.000000
0.637027 0.632626 0.000000
0.670454 0.631957 0.000000
0.703433 0.631369 0.000000
0.735938 0.630862 0.000000
0.767946 0.630436 0.000000
0.799432 0.630088 0.000000
0.830374 0.629818 0.000000
0.860750 0.629624 0.000000
0.890539 0.629504 0.000000
0.919723 0.629455 0.000000
0.948281 0.629475 0.000000
0.976196 0.629561 0.000000
1.000000 0.629687 0.000000
0.000000 0.673314 0.000000
0.005479 0.672939 0.000000
0.036365 0.672557 0.000000
0.067676 0.672171 0.000000
0.099383 0.671779 0.000000
0.131454 0.671383 0.000000
0.163858 0.670983 0.000000
0.196566 0.670579 0.000000
0.229546 0.670172 0.000000
0.262768 0.669762 0.000000
0.296201 0.669349 0.000000
0.329814 0.668934 0.000000
0.363577 0.668517 0.000000
0.397459 0.668099 0.000000
0.431429 0.667679 0.000000
0.465456 0.667259 0.000000
0.499510 0.666839 0.000000
0.533560 0.666418 0.000000
0.567575 0.665998 0.000000
0.601526 0.665579 0.000000
0.635380 0.665161 0.000000
0.669069 0.664710 0.000000
0.702181 0.664069 0.000000
0.734818 0.663510 0.000000
0.766957 0.663032 0.000000
0.798573 0.662632 0.000000
0.829644 0.662311 0.000000
0.860148 0.662066 0.000000
0.890065 0.661895 0.000000
0.919373 0.661796 0.000000
0.948055 0.661767 0.000000
0.976092 0.661805 0.000000
1.000000 0.661890 0.000000
0.000000 0.704790 0.000000
0.006799 0.704450 0.000000
0.037551 0.704105 0.000000
0.068726 0.703755 0.000000
0.100295 0.703400 0.000000
0.132227 0.703042 0.000000
0.164491 0.702680 0.000000
0.197057 0.702314 0.000000
0.229895 0.701946 0.000000
0.262973 0.701574 0.000000
0.296261 0.701201 0.000000
0.329728 0.700825 0.000000
0.363344 0.700448 0.000000
0.397079 0.700069 0.000000
0.430902 0.699689 0.000000
0.464781 0.699309 0.000000
0.498688 0.698928 0.000000
0.532590 0.698548 0.000000
0.566458 0.698168 0.000000
0.600261 0.697788 0.000000
0.633968 0.697410 0.000000
0.667550 0.697033 0.000000
0.700935 0.696621 0.000000
0.733704 0.696010 0.000000
0.765973 0.695479 0.000000
0.797719 0.695028 0.000000
0.828919 0.694656 0.000000
0.859550 0.694360 0.000000
0.889592 0.694139 0.000000
0.919025 0.693991 0.000000
0.947829 0.693912 0.000000
0.975987 0.693902 0.000000
1.000000 0.693945 0.000000
0.000000 0.735988 0.000000
0.008374 0.735684 0.000000
0.038992 0.735374 0.000000
0.070033 0.735061 0.000000
0.101465 0.734743 0.000000
0.133259 0.734422 0.000000
0.165383 0.734098 0.000000
0.197808 0.733770 0.000000
0.230504 0.733440 0.000000
0.263438 0.733108 0.000000
0.296582 0.732773 0.000000
0.329904 0.732436 0.000000
0.363375 0.732098 0.000000
0.396964 0.731759 0.000000
0.430640 0.731419 0.000000
0.464373 0.731078 0.000000
0.498132 0.730737 0.000000
0.531888 0.730396 0.000000
0.565609 0.730056 0.000000
0.599266 0.729716 0.000000
0.632827 0.729377 0.000000
0.666263 0.729039 0.000000
0.699543 0.728703 0.000000
0.732595 0.728331 0.000000
0.764994 0.727749 0.000000
0.796869 0.727246 0.000000
0.828197 0.726823 0.000000
0.858954 0.726477 0.000000
0.889122 0.726206 0.000000
0.918678 0.726008 0.000000
0.947605 0.725881 0.000000
0.975884 0.725823 0.000000
1.000000 0.725825 0.000000
0.000000 0.766883 0.000000
0.010198 0.766613 0.000000
0.040684 0.766340 0.000000
0.071590 0.766062 0.000000
0.102887 0.765782 0.000000
0.134543 0.765498 0.000000
0.166529 0.765211 0.000000
0.198814 0.764921 0.000000
0.231368 0.764629 0.000000
0.264160 0.764335 0.000000
0.297160 0.764039 0.000000
0.330339 0.763741 0.000000
0.363665 0.763442 0.000000
0.397109 0.763142 0.000000
0.430639 0.762841 0.000000
0.464226 0.762540 0.000000
0.497840 0.762238 0.000000
0.531450 0.761937 0.000000
0.565025 0.761636 0.000000
0.598536 0.761335 0.000000
0.631953 0.761035 0.000000
0.665244 0.760736 0.000000
0.698380 0.760439 0.000000
0.731330 0.760143 0.000000
0.764022 0.759811 0.000000
0.796025 0.759257 0.000000
0.827479 0.758784 0.000000
0.858363 0.758387 0.000000
0.888655 0.758067 0.000000
0.918334 0.757820 0.000000
0.947383 0.757645 0.000000
0.975781 0.757539 0.000000
1.000000 0.757500 0.000000
0.000000 0.797447 0.000000
0.012264 0.797212 0.000000
0.042618 0.796974 0.000000
0.073392 0.796733 0.000000
0.104553 0.796489 0.000000
0.136073 0.796241 0.000000
0.167921 0.795992 0.000000
0.200067 0.795739 0.000000
0.232481 0.795485 0.000000
0.265132 0.795229 0.000000
0.297990 0.794972 0.000000
0.331026 0.794712 0.000000
0.364208 0.794452 0.000000
0.397508 0.794191 0.000000
0.430894 0.793929 0.000000
0.464336 0.793667 0.000000
0.497805 0.793405 0.000000
0.531270 0.793142 0.000000
0.564701 0.792880 0.000000
0.598068 0.792618 0.000000
0.631340 0.792357 0.000000
0.664488 0.792097 0.000000
0.697481 0.791839 0.000000
0.730289 0.791581 0.000000
0.762882 0.791326 0.000000
0.795187 0.791032 0.000000
0.826767 0.790507 0.000000
0.857776 0.790061 0.000000
0.888191 0.789692 0.000000
0.917993 0.789397 0.000000
0.947162 0.789173 0.000000
0.975679 0.789020 0.000000
1.000000 0.788940 0.000000
0.000000 0.827655 0.000000
0.014564 0.827455 0.000000
0.044788 0.827252 0.000000
0.075429 0.827046 0.000000
0.106457 0.826838 0.000000
0.137842 0.826627 0.000000
0.169553 0.826414 0.000000
0.201561 0.826199 0.000000
0.233836 0.825983 0.000000
0.266347 0.825765 0.000000
0.299064 0.825545 0.000000
0.331958 0.825324 0.000000
0.364998 0.825102 0.000000
0.398155 0.824880 0.000000
0.431398 0.824657 0.000000
0.464697 0.824433 0.000000
0.498022 0.824209 0.000000
0.531343 0.823986 0.000000
0.564631 0.823762 0.000000
0.597854 0.823539 0.000000
0.630984 0.823317 0.000000
0.663990 0.823095 0.000000
0.696841 0.822875 0.000000
0.729509 0.822656 0.000000
0.761962 0.822438 0.000000
0.794171 0.822221 0.000000
0.826061 0.821965 0.000000
