assets/LUTs/rescue_deyellow_33.cube
TITLE "Rescue De-Yellow"
LUT_3D_SIZE 9
DOMAIN_MIN 0.0 0.0 0.0
DOMAIN_MAX 1.0 1.0 1.0
0.000000 0.000000 0.000000
0.119138 0.000000 0.000000
0.245366 0.000000 0.000000
0.376377 0.000000 0.000000
0.509863 0.000000 0.000000
0.643519 0.000000 0.000000
0.775037 0.000000 0.000000
0.902110 0.000000 0.000000
1.000000 0.000000 0.000000
0.000000 0.111128 0.000000
0.115220 0.109909 0.000000
0.241448 0.108618 0.000000
0.372458 0.107278 0.000000
0.505945 0.105913 0.000000
0.639601 0.104546 0.000000
0.771119 0.103201 0.000000
0.898192 0.101901 0.000000
1.000000 0.100671 0.000000
0.000000 0.234822 0.000000
0.110859 0.233603 0.000000
0.237087 0.232312 0.000000
0.368097 0.230972 0.000000
0.501584 0.229607 0.000000
0.635239 0.228240 0.000000
0.766757 0.226895 0.000000
0.893831 0.225596 0.000000
1.000000 0.224365 0.000000
0.000000 0.363324 0.000000
0.106328 0.362105 0.000000
0.232556 0.360814 0.000000
0.363567 0.359474 0.000000
0.497053 0.358109 0.000000
0.630709 0.356742 0.000000
0.762227 0.355397 0.000000
0.889300 0.354097 0.000000
1.000000 0.352867 0.000000
0.000000 0.494341 0.000000
0.101709 0.493122 0.000000
0.227937 0.491831 0.000000
0.358947 0.490492 0.000000
0.492434 0.489126 0.000000
0.626089 0.487759 0.000000
0.757607 0.486414 0.000000
0.884681 0.485115 0.000000
1.000000 0.483884 0.000000
0.000000 0.625581 0.000000
0.097081 0.624362 0.000000
0.223309 0.623072 0.000000
0.354320 0.621732 0.000000
0.487806 0.620366 0.000000
0.621462 0.618999 0.000000
0.752980 0.617654 0.000000
0.880054 0.616355 0.000000
1.000000 0.615124 0.000000
0.000000 0.754751 0.000000
0.092527 0.753533 0.000000
0.218755 0.752242 0.000000
0.349766 0.750902 0.000000
0.483252 0.749537 0.000000
0.616908 0.748170 0.000000
0.748426 0.746825 0.000000
0.875499 0.745525 0.000000
0.995821 0.744294 0.000000
0.000000 0.879559 0.000000
0.088127 0.878341 0.000000
0.214355 0.877050 0.000000
0.345365 0.875710 0.000000
0.478852 0.874344 0.000000
0.612507 0.872978 0.000000
0.744025 0.871632 0.000000
0.871099 0.870333 0.000000
0.991421 0.869102 0.000000
0.000000 0.997712 0.000000
0.083961 0.996493 0.000000
0.210189 0.995202 0.000000
0.341199 0.993863 0.000000
0.474686 0.992497 0.000000
0.608342 0.991130 0.000000
0.739860 0.989785 0.000000
0.866933 0.988486 0.000000
0.987255 0.987255 0.000000
0.000000 0.000000 0.128539
0.118695 0.000000 0.127321
0.244922 0.000000 0.126030
0.375933 0.000000 0.124690
0.509420 0.000000 0.123325
0.643075 0.000000 0.121958
0.774593 0.000000 0.120613
0.901667 0.000000 0.119313
1.000000 0.000000 0.118083
0.000000 0.110684 0.124621
0.114777 0.109466 0.123403
0.241004 0.108175 0.122112
0.372015 0.106835 0.120772
0.505502 0.105470 0.119407
0.639157 0.104103 0.118040
0.770675 0.102758 0.116695
0.897749 0.101458 0.115395
1.000000 0.100227 0.114164
0.000000 0.234378 0.120260
0.110415 0.233160 0.119042
0.236643 0.231869 0.117751
0.367654 0.230529 0.116411
0.501140 0.229164 0.115045
0.634796 0.227797 0.113679
0.766314 0.226452 0.112333
0.893387 0.225152 0.111034
1.000000 0.223921 0.109803
0.000000 0.362880 0.115729
0.105885 0.361662 0.114511
0.232112 0.360371 0.113220
0.363123 0.359031 0.111880
0.496610 0.357666 0.110515
0.630265 0.356299 0.109148
0.761783 0.354954 0.107803
0.888857 0.353654 0.106503
1.000000 0.352423 0.105273
0.000000 0.493897 0.111110
0.101265 0.492679 0.109891
0.227493 0.491388 0.108600
0.358504 0.490048 0.107261
0.491990 0.488683 0.105895
0.625646 0.487316 0.104528
0.757164 0.485971 0.103183
0.884237 0.484671 0.101884
1.000000 0.483441 0.100653
0.000000 0.625138 0.106483
0.096638 0.623919 0.105264
0.222866 0.622628 0.103973
0.353876 0.621288 0.102633
0.487363 0.619923 0.101268
0.621019 0.618556 0.099901
0.752537 0.617211 0.098556
0.879610 0.615911 0.097256
0.999932 0.614681 0.096026
0.000000 0.754308 0.101928
0.092084 0.753089 0.100710
0.218312 0.751798 0.099419
0.349322 0.750458 0.098079
0.482809 0.749093 0.096714
0.616464 0.747726 0.095347
0.747982 0.746381 0.094002
0.875056 0.745082 0.092702
0.995378 0.743851 0.091472
0.000000 0.879116 0.097528
0.087683 0.877897 0.096309
0.213911 0.876606 0.095018
0.344922 0.875266 0.093679
0.478408 0.873901 0.092313
0.612064 0.872534 0.090946
0.743582 0.871189 0.089601
0.870655 0.869889 0.088302
0.990978 0.868659 0.087071
0.000000 0.997268 0.093362
0.083517 0.996050 0.092144
0.209745 0.994759 0.090853
0.340756 0.993419 0.089513
0.474242 0.992054 0.088148
0.607898 0.990687 0.086781
0.739416 0.989342 0.085436
0.866490 0.988042 0.084136
0.986812 0.986812 0.082905
0.000000 0.000000 0.265055
0.118224 0.000000 0.263837
0.244452 0.000000 0.262546
0.375462 0.000000 0.261206
0.508949 0.000000 0.259841
0.642604 0.000000 0.258474
0.774122 0.000000 0.257129
0.901196 0.000000 0.255829
1.000000 0.000000 0.254598
0.000000 0.110213 0.261137
0.114306 0.108995 0.259918
0.240533 0.107704 0.258628
0.371544 0.106364 0.257288
0.505031 0.104999 0.255922
0.638686 0.103632 0.254555
0.770204 0.102287 0.253210
0.897278 0.100987 0.251911
1.000000 0.099756 0.250680
0.000000 0.233907 0.256776
0.109944 0.232689 0.255557
0.236172 0.231398 0.254266
0.367183 0.230058 0.252926
0.500669 0.228693 0.251561
0.634325 0.227326 0.250194
0.765843 0.225981 0.248849
0.892917 0.224681 0.247550
1.000000 0.223451 0.246319
0.000000 0.362409 0.252245
0.105414 0.361191 0.251027
0.231641 0.359900 0.249736
0.362652 0.358560 0.248396
0.496139 0.357195 0.247030
0.629794 0.355828 0.245664
0.761312 0.354483 0.244318
0.888386 0.353183 0.243019
1.000000 0.351952 0.241788
0.000000 0.493426 0.247626
0.100794 0.492208 0.246407
0.227022 0.490917 0.245116
0.358033 0.489577 0.243776
0.491519 0.488212 0.242411
0.625175 0.486845 0.241044
0.756693 0.485500 0.239699
0.883766 0.484200 0.238399
1.000000 0.482970 0.237169
0.000000 0.624667 0.242998
0.096167 0.623448 0.241780
0.222395 0.622157 0.240489
0.353405 0.620817 0.239149
0.486892 0.619452 0.237784
0.620548 0.618085 0.236417
0.752066 0.616740 0.235072
0.879139 0.615440 0.233772
0.999461 0.614210 0.232542
0.000000 0.753837 0.238444
0.091613 0.752618 0.237226
0.217841 0.751327 0.235935
0.348851 0.749987 0.234595
0.482338 0.748622 0.233230
0.615993 0.747255 0.231863
0.747511 0.745910 0.230518
0.874585 0.744611 0.229218
0.994907 0.743380 0.227987
0.000000 0.878645 0.234044
0.087212 0.877426 0.232825
0.213440 0.876135 0.231534
0.344451 0.874795 0.230194
0.477937 0.873430 0.228829
0.611593 0.872063 0.227462
0.743111 0.870718 0.226117
0.870184 0.869418 0.224817
0.990507 0.868188 0.223587
0.000000 0.996797 0.229878
0.083046 0.995579 0.228659
0.209274 0.994288 0.227368
0.340285 0.992948 0.226028
0.473771 0.991583 0.224663
0.607427 0.990216 0.223296
0.738945 0.988871 0.221951
0.866019 0.987571 0.220652
0.986341 0.986341 0.219421
0.000000 0.000000 0.406708
0.117735 0.000000 0.405490
0.243963 0.000000 0.404199
0.374973 0.000000 0.402859
0.508460 0.000000 0.401494
0.642116 0.000000 0.400127
0.773634 0.000000 0.398782
0.900707 0.000000 0.397482
1.000000 0.000000 0.396251
0.000000 0.109725 0.402790
0.113817 0.108506 0.401572
0.240045 0.107215 0.400281
0.371055 0.105875 0.398941
0.504542 0.104510 0.397575
0.638198 0.103143 0.396209
0.769716 0.101798 0.394863
0.896789 0.100498 0.393564
1.000000 0.099268 0.392333
0.000000 0.233419 0.398429
0.109456 0.232200 0.397210
0.235684 0.230909 0.395919
0.366694 0.229569 0.394579
0.500181 0.228204 0.393214
0.633836 0.226837 0.391847
0.765354 0.225492 0.390502
0.892428 0.224192 0.389203
1.000000 0.222962 0.387972
0.000000 0.361921 0.393898
0.104925 0.360702 0.392680
0.231153 0.359411 0.391389
0.362163 0.358071 0.390049
0.495650 0.356706 0.388684
0.629306 0.355339 0.387317
0.760824 0.353994 0.385972
0.887897 0.352694 0.384672
1.000000 0.351464 0.383441
0.000000 0.492938 0.389279
0.100306 0.491719 0.388060
0.226533 0.490428 0.386769
0.357544 0.489088 0.385429
0.491031 0.487723 0.384064
0.624686 0.486356 0.382697
0.756204 0.485011 0.381352
0.883278 0.483712 0.380053
1.000000 0.482481 0.378822
0.000000 0.624178 0.384651
0.095678 0.622959 0.383433
0.221906 0.621668 0.382142
0.352917 0.620329 0.380802
0.486403 0.618963 0.379437
0.620059 0.617596 0.378070
0.751577 0.616251 0.376725
0.878650 0.614952 0.375425
0.998973 0.613721 0.374195
0.000000 0.753348 0.380097
0.091124 0.752130 0.378879
0.217352 0.750839 0.377588
0.348362 0.749499 0.376248
0.481849 0.748134 0.374883
0.615505 0.746767 0.373516
0.747023 0.745421 0.372171
0.874096 0.744122 0.370871
0.994418 0.742891 0.369640
0.000000 0.878156 0.375697
0.086724 0.876937 0.374478
0.212951 0.875646 0.373187
0.343962 0.874307 0.371847
0.477449 0.872941 0.370482
0.611104 0.871574 0.369115
0.742622 0.870229 0.367770
0.869696 0.868930 0.366471
0.990018 0.867699 0.365240
0.000000 0.996309 0.371531
0.082558 0.995090 0.370312
0.208786 0.993799 0.369021
0.339796 0.992459 0.367682
0.473283 0.991094 0.366316
0.606938 0.989727 0.364949
0.738456 0.988382 0.363604
0.865530 0.987083 0.362305
0.985852 0.985852 0.361074
0.000000 0.000000 0.550659
0.117238 0.000000 0.549441
0.243466 0.000000 0.548150
0.374477 0.000000 0.546810
0.507963 0.000000 0.545445
0.641619 0.000000 0.544078
0.773137 0.000000 0.542733
0.900211 0.000000 0.541433
1.000000 0.000000 0.540203
0.000000 0.109228 0.546741
0.113320 0.108009 0.545523
0.239548 0.106718 0.544232
0.370559 0.105379 0.542892
0.504045 0.104013 0.541527
0.637701 0.102646 0.540160
0.769219 0.101301 0.538815
0.896292 0.100002 0.537515
1.000000 0.098771 0.536285
0.000000 0.232922 0.542380
0.108959 0.231703 0.541162
0.235187 0.230413 0.539871
0.366197 0.229073 0.538531
0.499684 0.227707 0.537166
0.633340 0.226340 0.535799
0.764858 0.224995 0.534454
0.891931 0.223696 0.533154
1.000000 0.222465 0.531923
0.000000 0.361424 0.537849
0.104428 0.360205 0.536631
0.230656 0.358914 0.535340
0.361667 0.357575 0.534000
0.495153 0.356209 0.532635
0.628809 0.354842 0.531268
0.760327 0.353497 0.529923
0.887400 0.352198 0.528623
1.000000 0.350967 0.527393
0.000000 0.492441 0.533230
0.099809 0.491223 0.532012
0.226037 0.489932 0.530721
0.357047 0.488592 0.529381
0.490534 0.487227 0.528015
0.624190 0.485860 0.526649
0.755708 0.484515 0.525303
0.882781 0.483215 0.524004
1.000000 0.481984 0.522773
0.000000 0.623681 0.528603
0.095182 0.622463 0.527384
0.221410 0.621172 0.526093
0.352420 0.619832 0.524753
0.485907 0.618467 0.523388
0.619562 0.617100 0.522021
0.751080 0.615755 0.520676
0.878154 0.614455 0.519377
0.998476 0.613224 0.518146
0.000000 0.752851 0.524049
0.090627 0.751633 0.522830
0.216855 0.750342 0.521539
0.347866 0.749002 0.520199
0.481352 0.747637 0.518834
0.615008 0.746270 0.517467
0.746526 0.744925 0.516122
0.873600 0.743625 0.514822
0.993922 0.742395 0.513592
0.000000 0.877659 0.519648
0.086227 0.876441 0.518430
0.212455 0.875150 0.517139
0.343465 0.873810 0.515799
0.476952 0.872445 0.514433
0.610608 0.871078 0.513067
0.742126 0.869733 0.511721
0.869199 0.868433 0.510422
0.989521 0.867203 0.509191
0.000000 0.995812 0.515482
0.082061 0.994594 0.514264
0.208289 0.993303 0.512973
0.339300 0.991963 0.511633
0.472786 0.990598 0.510268
0.606442 0.989231 0.508901
0.737960 0.987886 0.507556
0.865033 0.986586 0.506256
0.985355 0.985355 0.505025
0.000000 0.000000 0.694070
0.116744 0.000000 0.692852
0.242971 0.000000 0.691561
0.373982 0.000000 0.690221
0.507469 0.000000 0.688855
0.641124 0.000000 0.687489
0.772642 0.000000 0.686143
0.899716 0.000000 0.684844
1.000000 0.000000 0.683613
0.000000 0.108733 0.690152
0.112826 0.107515 0.688933
0.239053 0.106224 0.687642
0.370064 0.104884 0.686303
0.503550 0.103519 0.684937
0.637206 0.102152 0.683570
0.768724 0.100807 0.682225
0.895798 0.099507 0.680926
1.000000 0.098276 0.679695
0.000000 0.232427 0.685791
0.108464 0.231209 0.684572
0.234692 0.229918 0.683281
0.365703 0.228578 0.681941
0.499189 0.227213 0.680576
0.632845 0.225846 0.679209
0.764363 0.224501 0.677864
0.891436 0.223201 0.676565
1.000000 0.221970 0.675334
0.000000 0.360929 0.681260
0.103934 0.359711 0.680042
0.230161 0.358420 0.678751
0.361172 0.357080 0.677411
0.494659 0.355715 0.676045
0.628314 0.354348 0.674678
0.759832 0.353003 0.673333
0.886906 0.351703 0.672034
1.000000 0.350472 0.670803
0.000000 0.491946 0.676641
0.099314 0.490728 0.675422
0.225542 0.489437 0.674131
0.356553 0.488097 0.672791
0.490039 0.486732 0.671426
0.623695 0.485365 0.670059
0.755213 0.484020 0.668714
0.882286 0.482720 0.667414
1.000000 0.481490 0.666184
0.000000 0.623186 0.672013
0.094687 0.621968 0.670795
0.220915 0.620677 0.669504
0.351925 0.619337 0.668164
0.485412 0.617972 0.666799
0.619068 0.616605 0.665432
0.750586 0.615260 0.664087
0.877659 0.613960 0.662787
0.997981 0.612730 0.661557
0.000000 0.752357 0.667459
0.090133 0.751138 0.666241
0.216360 0.749847 0.664950
0.347371 0.748507 0.663610
0.480858 0.747142 0.662245
0.614513 0.745775 0.660878
0.746031 0.744430 0.659532
0.873105 0.743130 0.658233
0.993427 0.741900 0.657002
0.000000 0.877165 0.663059
0.085732 0.875946 0.661840
0.211960 0.874655 0.660549
0.342971 0.873315 0.659209
0.476457 0.871950 0.657844
0.610113 0.870583 0.656477
0.741631 0.869238 0.655132
0.868704 0.867938 0.653832
0.989026 0.866708 0.652602
0.000000 0.995317 0.658893
0.081566 0.994099 0.657674
0.207794 0.992808 0.656383
0.338805 0.991468 0.655043
0.472291 0.990103 0.653678
0.605947 0.988736 0.652311
0.737465 0.987391 0.650966
0.864539 0.986091 0.649667
0.984861 0.984861 0.648436
0.000000 0.000000 0.834101
0.116261 0.000000 0.832882
0.242488 0.000000 0.831591
0.373499 0.000000 0.830251
0.506985 0.000000 0.828886
0.640641 0.000000 0.827519
0.772159 0.000000 0.826174
0.899233 0.000000 0.824875
1.000000 0.000000 0.823644
0.000000 0.108250 0.830183
0.112342 0.107032 0.828964
0.238570 0.105741 0.827673
0.369581 0.104401 0.826333
0.503067 0.103036 0.824968
0.636723 0.101669 0.823601
0.768241 0.100323 0.822256
0.895315 0.099024 0.820956
1.000000 0.097793 0.819726
0.000000 0.231944 0.825821
0.107981 0.230726 0.824603
0.234209 0.229435 0.823312
0.365220 0.228095 0.821972
0.498706 0.226730 0.820607
0.632362 0.225363 0.819240
0.763880 0.224018 0.817895
0.890953 0.222718 0.816595
1.000000 0.221487 0.815365
0.000000 0.360446 0.821291
0.103451 0.359228 0.820072
0.229678 0.357937 0.818781
0.360689 0.356597 0.817441
0.494175 0.355231 0.816076
0.627831 0.353865 0.814709
0.759349 0.352519 0.813364
0.886423 0.351220 0.812065
1.000000 0.349989 0.810834
0.000000 0.491463 0.816671
0.098831 0.490245 0.815453
0.225059 0.488954 0.814162
0.356069 0.487614 0.812822
0.489556 0.486249 0.811457
0.623212 0.484882 0.810090
0.754730 0.483537 0.808745
0.881803 0.482237 0.807445
1.000000 0.481007 0.806215
0.000000 0.622703 0.812044
0.094204 0.621485 0.810826
0.220432 0.620194 0.809535
0.351442 0.618854 0.808195
0.484929 0.617489 0.806830
0.618585 0.616122 0.805463
0.750103 0.614777 0.804118
0.877176 0.613477 0.802818
0.997498 0.612247 0.801587
0.000000 0.751874 0.807490
0.089650 0.750655 0.806271
0.215877 0.749364 0.804980
0.346888 0.748024 0.803640
0.480375 0.746659 0.802275
0.614030 0.745292 0.800908
0.745548 0.743947 0.799563
0.872622 0.742647 0.798264
0.992944 0.741417 0.797033
0.000000 0.876681 0.803089
0.085249 0.875463 0.801871
0.211477 0.874172 0.800580
0.342488 0.872832 0.799240
0.475974 0.871467 0.797875
0.609630 0.870100 0.796508
0.741148 0.868755 0.795163
0.868221 0.867455 0.793863
0.988543 0.866225 0.792633
0.000000 0.994834 0.798924
0.081083 0.993616 0.797705
0.207311 0.992325 0.796414
0.338322 0.990985 0.795074
0.471808 0.989620 0.793709
0.605464 0.988253 0.792342
0.736982 0.986908 0.790997
0.864055 0.985608 0.789697
0.984378 0.984378 0.788467
0.000000 0.000000 0.967913
0.115799 0.000000 0.966694
0.242027 0.000000 0.965403
0.373037 0.000000 0.964063
0.506524 0.000000 0.962698
0.640180 0.000000 0.961331
0.771698 0.000000 0.959986
0.898771 0.000000 0.958686
1.000000 0.000000 0.957456
0.000000 0.107788 0.963995
0.111881 0.106570 0.962776
0.238109 0.105279 0.961485
0.369119 0.103939 0.960145
0.502606 0.102574 0.958780
0.636261 0.101207 0.957413
0.767779 0.099862 0.956068
0.894853 0.098562 0.954768
1.000000 0.097332 0.953538
0.000000 0.231482 0.959633
0.107520 0.230264 0.958415
0.233747 0.228973 0.957124
0.364758 0.227633 0.955784
0.498245 0.226268 0.954419
0.631900 0.224901 0.953052
0.763418 0.223556 0.951707
0.890492 0.222256 0.950407
1.000000 0.221026 0.949177
0.000000 0.359984 0.955103
0.102989 0.358766 0.953884
0.229217 0.357475 0.952593
0.360227 0.356135 0.951253
0.493714 0.354770 0.949888
0.627370 0.353403 0.948521
0.758888 0.352058 0.947176
0.885961 0.350758 0.945876
1.000000 0.349528 0.944646
0.000000 0.491002 0.950483
0.098369 0.489783 0.949265
0.224597 0.488492 0.947974
0.355608 0.487152 0.946634
0.489094 0.485787 0.945269
0.622750 0.484420 0.943902
0.754268 0.483075 0.942557
0.881342 0.481775 0.941257
1.000000 0.480545 0.940026
0.000000 0.622242 0.945856
0.093742 0.621023 0.944637
0.219970 0.619732 0.943347
0.350981 0.618392 0.942007
0.484467 0.617027 0.940641
0.618123 0.615660 0.939274
0.749641 0.614315 0.937929
0.876714 0.613016 0.936630
0.997036 0.611785 0.935399
0.000000 0.751412 0.941302
0.089188 0.750193 0.940083
0.215416 0.748902 0.938792
0.346426 0.747563 0.937452
0.479913 0.746197 0.936087
0.613569 0.744830 0.934720
0.745087 0.743485 0.933375
0.872160 0.742186 0.932075
0.992482 0.740955 0.930845
0.000000 0.876220 0.936901
0.084787 0.875001 0.935683
0.211015 0.873710 0.934392
0.342026 0.872370 0.933052
0.475512 0.871005 0.931687
0.609168 0.869638 0.930320
0.740686 0.868293 0.928975
0.867760 0.866994 0.927675
0.988082 0.865763 0.926444
0.000000 0.994373 0.932735
0.080622 0.993154 0.931517
0.206849 0.991863 0.930226
0.337860 0.990523 0.928886
0.471347 0.989158 0.927521
0.605002 0.987791 0.926154
0.736520 0.986446 0.924809
0.863594 0.985146 0.923509
0.983916 0.983916 0.922279
0.000000 0.000000 1.000000
0.115528 0.000000 1.000000
0.241756 0.000000 1.000000
0.372767 0.000000 1.000000
0.506253 0.000000 1.000000
0.639909 0.000000 1.000000
0.771427 0.000000 1.000000
0.898500 0.000000 1.000000
1.000000 0.000000 1.000000
0.000000 0.107518 1.000000
0.111610 0.106299 1.000000
0.237838 0.105008 1.000000
0.368848 0.103668 1.000000
0.502335 0.102303 1.000000
0.635991 0.100936 1.000000
0.767509 0.099591 1.000000
0.894582 0.098291 1.000000
1.000000 0.097061 1.000000
0.000000 0.231212 1.000000
0.107249 0.229993 1.000000
0.233477 0.228702 1.000000
0.364487 0.227362 1.000000
0.497974 0.225997 1.000000
0.631629 0.224630 1.000000
0.763147 0.223285 1.000000
0.890221 0.221986 1.000000
1.000000 0.220755 1.000000
0.000000 0.359714 1.000000
0.102718 0.358495 1.000000
0.228946 0.357204 1.000000
0.359957 0.355864 1.000000
0.493443 0.354499 1.000000
0.627099 0.353132 1.000000
0.758617 0.351787 1.000000
0.885690 0.350487 1.000000
1.000000 0.349257 1.000000
0.000000 0.490731 1.000000
0.098099 0.489512 1.000000
0.224327 0.488221 1.000000
0.355337 0.486882 1.000000
0.488824 0.485516 1.000000
0.622479 0.484149 1.000000
0.753997 0.482804 1.000000
0.881071 0.481505 1.000000
1.000000 0.480274 1.000000
0.000000 0.621971 1.000000
0.093471 0.620752 1.000000
0.219699 0.619462 1.000000
0.350710 0.618122 1.000000
0.484196 0.616756 1.000000
0.617852 0.615389 1.000000
0.749370 0.614044 1.000000
0.876444 0.612745 1.000000
0.996766 0.611514 1.000000
0.000000 0.751141 1.000000
0.088917 0.749923 1.000000
0.215145 0.748632 1.000000
0.346156 0.747292 1.000000
0.479642 0.745927 1.000000
0.613298 0.744560 1.000000
0.744816 0.743215 1.000000
0.871889 0.741915 1.000000
0.992211 0.740684 1.000000
0.000000 0.875949 1.000000
0.084517 0.874731 1.000000
0.210745 0.873440 1.000000
0.341755 0.872100 1.000000
0.475242 0.870734 1.000000
0.608897 0.869368 1.000000
0.740415 0.868022 1.000000
0.867489 0.866723 1.000000
0.987811 0.865492 1.000000
0.000000 0.994102 1.000000
0.080351 0.992883 1.000000
0.206579 0.991592 1.000000
0.337589 0.990253 1.000000
0.471076 0.988887 1.000000
0.604732 0.987520 1.000000
0.736250 0.986175 1.000000
0.863323 0.984876 1.000000
0.983645 0.983645 1.000000
