assets/LUTs/rescue_flat_boost_33.cube
TITLE "Rescue Flat Boost"
LUT_3D_SIZE 33
DOMAIN_MIN 0.0 0.0 0.0
DOMAIN_MAX 1.0 1.0 1.0
0.000000 0.000000 0.000000
0.000000 0.000000 0.000000
0.016662 0.000000 0.000000
0.048127 0.000000 0.000000
0.081627 0.000000 0.000000
0.116972 0.000000 0.000000
0.153974 0.000000 0.000000
0.192448 0.000000 0.000000
0.232210 0.000000 0.000000
0.273079 0.000000 0.000000
0.314878 0.000000 0.000000
0.357431 0.000000 0.000000
0.400568 0.000000 0.000000
0.444119 0.000000 0.000000
0.487923 0.000000 0.000000
0.531819 0.000000 0.000000
0.575651 0.000000 0.000000
0.619269 0.000000 0.000000
0.662526 0.000000 0.000000
0.705278 0.000000 0.000000
0.747388 0.000000 0.000000
0.788721 0.000000 0.000000
0.829148 0.000000 0.000000
0.868541 0.000000 0.000000
0.906780 0.000000 0.000000
0.943744 0.000000 0.000000
0.979320 0.000000 0.000000
1.000000 0.000000 0.000000
1.000000 0.000000 0.000000
1.000000 0.000000 0.000000
1.000000 0.000000 0.000000
1.000000 0.000000 0.000000
1.000000 0.000000 0.000000
0.000000 0.000000 0.000000
0.000000 0.000000 0.000000
0.016662 0.000000 0.000000
0.048127 0.000000 0.000000
0.081627 0.000000 0.000000
0.116972 0.000000 0.000000
0.153974 0.000000 0.000000
0.192448 0.000000 0.000000
0.232210 0.000000 0.000000
0.273079 0.000000 0.000000
0.314878 0.000000 0.000000
0.357431 0.000000 0.000000
0.400568 0.000000 0.000000
0.444119 0.000000 0.000000
0.487923 0.000000 0.000000
0.531819 0.000000 0.000000
0.575651 0.000000 0.000000
0.619269 0.000000 0.000000
0.662526 0.000000 0.000000
0.705278 0.000000 0.000000
0.747388 0.000000 0.000000
0.788721 0.000000 0.000000
0.829148 0.000000 0.000000
0.868541 0.000000 0.000000
0.906780 0.000000 0.000000
0.943744 0.000000 0.000000
0.979320 0.000000 0.000000
1.000000 0.000000 0.000000
1.000000 0.000000 0.000000
1.000000 0.000000 0.000000
1.000000 0.000000 0.000000
1.000000 0.000000 0.000000
1.000000 0.000000 0.000000
0.000000 0.014405 0.000000
0.000000 0.014405 0.000000
0.013450 0.013450 0.000000
0.044949 0.011656 0.000000
0.078485 0.009780 0.000000
0.113868 0.007838 0.000000
0.150910 0.005846 0.000000
0.189426 0.003822 0.000000
0.229232 0.001780 0.000000
0.270146 0.000000 0.000000
0.311992 0.000000 0.000000
0.354592 0.000000 0.000000
0.397777 0.000000 0.000000
0.441378 0.000000 0.000000
0.485232 0.000000 0.000000
0.529178 0.000000 0.000000
0.573061 0.000000 0.000000
0.616730 0.000000 0.000000
0.660037 0.000000 0.000000
0.702840 0.000000 0.000000
0.745000 0.000000 0.000000
0.786383 0.000000 0.000000
0.826859 0.000000 0.000000
0.866300 0.000000 0.000000
0.904586 0.000000 0.000000
0.941596 0.000000 0.000000
0.977216 0.000000 0.000000
1.000000 0.000000 0.000000
1.000000 0.000000 0.000000
1.000000 0.000000 0.000000
1.000000 0.000000 0.000000
1.000000 0.000000 0.000000
1.000000 0.000000 0.000000
0.000000 0.041662 0.000000
0.000000 0.041662 0.000000
0.007425 0.040717 0.000000
0.038927 0.038927 0.000000
0.072531 0.037024 0.000000
0.107986 0.035053 0.000000
0.145105 0.033031 0.000000
0.183700 0.030975 0.000000
0.223588 0.028900 0.000000
0.264588 0.026822 0.000000
0.306521 0.024754 0.000000
0.349212 0.022710 0.000000
0.392489 0.020702 0.000000
0.436184 0.018742 0.000000
0.480132 0.016840 0.000000
0.524174 0.015004 0.000000
0.568153 0.013245 0.000000
0.611918 0.011567 0.000000
0.655322 0.009978 0.000000
0.698221 0.008482 0.000000
0.740476 0.007081 0.000000
0.781953 0.005780 0.000000
0.822521 0.004578 0.000000
0.862054 0.003476 0.000000
0.900428 0.002474 0.000000
0.937525 0.001569 0.000000
0.973228 0.000759 0.000000
1.000000 0.000040 0.000000
1.000000 0.000000 0.000000
1.000000 0.000000 0.000000
1.000000 0.000000 0.000000
1.000000 0.000000 0.000000
1.000000 0.000000 0.000000
0.000000 0.070760 0.000000
0.000000 0.070760 0.000000
0.001121 0.069826 0.000000
0.032548 0.068056 0.000000
0.066163 0.066163 0.000000
0.101695 0.064161 0.000000
0.138895 0.062107 0.000000
0.177575 0.060017 0.000000
0.217552 0.057907 0.000000
0.258644 0.055792 0.000000
0.300671 0.053687 0.000000
0.343458 0.051604 0.000000
0.386833 0.049557 0.000000
0.430628 0.047557 0.000000
0.474677 0.045615 0.000000
0.518822 0.043739 0.000000
0.562904 0.041938 0.000000
0.606772 0.040220 0.000000
0.650279 0.038590 0.000000
0.693280 0.037052 0.000000
0.735637 0.035612 0.000000
0.777215 0.034270 0.000000
0.817882 0.033029 0.000000
0.857512 0.031888 0.000000
0.895981 0.030848 0.000000
0.933171 0.029906 0.000000
0.968964 0.029060 0.000000
1.000000 0.028307 0.000000
1.000000 0.027642 0.000000
1.000000 0.027060 0.000000
1.000000 0.026557 0.000000
1.000000 0.026126 0.000000
1.000000 0.025761 0.000000
0.000000 0.101549 0.000000
0.000000 0.101549 0.000000
0.000000 0.100626 0.000000
0.025944 0.098878 0.000000
0.059474 0.097008 0.000000
0.095025 0.095025 0.000000
0.132311 0.092937 0.000000
0.171082 0.090811 0.000000
0.211152 0.088663 0.000000
0.252341 0.086510 0.000000
0.294467 0.084365 0.000000
0.337357 0.082242 0.000000
0.380836 0.080153 0.000000
0.424737 0.078111 0.000000
0.468894 0.076126 0.000000
0.513146 0.074207 0.000000
0.557338 0.072363 0.000000
0.601315 0.070601 0.000000
0.644931 0.068927 0.000000
0.688041 0.067346 0.000000
0.730506 0.065862 0.000000
0.772190 0.064478 0.000000
0.812963 0.063195 0.000000
0.852696 0.062014 0.000000
0.891266 0.060933 0.000000
0.928554 0.059953 0.000000
0.964442 0.059069 0.000000
0.998818 0.058279 0.000000
1.000000 0.057578 0.000000
1.000000 0.056963 0.000000
1.000000 0.056429 0.000000
1.000000 0.055968 0.000000
1.000000 0.055576 0.000000
0.000000 0.133881 0.000000
0.000000 0.133881 0.000000
0.000000 0.132970 0.000000
0.019171 0.131245 0.000000
0.052611 0.129399 0.000000
0.088067 0.127442 0.000000
0.125382 0.125382 0.000000
0.164247 0.123218 0.000000
0.204417 0.121032 0.000000
0.245707 0.118838 0.000000
0.287939 0.116651 0.000000
0.330936 0.114485 0.000000
0.374525 0.112352 0.000000
0.418537 0.110266 0.000000
0.462807 0.108235 0.000000
0.507174 0.106271 0.000000
0.551480 0.104381 0.000000
0.595573 0.102573 0.000000
0.639303 0.100854 0.000000
0.682528 0.099228 0.000000
0.725106 0.097699 0.000000
0.766903 0.096270 0.000000
0.807786 0.094943 0.000000
0.847627 0.093718 0.000000
0.886304 0.092595 0.000000
0.923695 0.091573 0.000000
0.959684 0.090650 0.000000
0.994156 0.089821 0.000000
1.000000 0.089084 0.000000
1.000000 0.088434 0.000000
1.000000 0.087866 0.000000
1.000000 0.087374 0.000000
1.000000 0.086953 0.000000
0.000000 0.167609 0.000000
0.000000 0.167609 0.000000
0.000000 0.166711 0.000000
0.012283 0.165008 0.000000
0.045629 0.163188 0.000000
0.080987 0.161257 0.000000
0.118197 0.159226 0.000000
0.157102 0.157102 0.000000
0.197374 0.154874 0.000000
0.238771 0.152638 0.000000
0.281113 0.150407 0.000000
0.324222 0.148196 0.000000
0.367926 0.146018 0.000000
0.412055 0.143885 0.000000
0.456444 0.141808 0.000000
0.500929 0.139796 0.000000
0.545355 0.137858 0.000000
0.589568 0.136003 0.000000
0.633419 0.134235 0.000000
0.676763 0.132561 0.000000
0.719460 0.130985 0.000000
0.761374 0.129510 0.000000
0.802373 0.128137 0.000000
0.842328 0.126867 0.000000
0.881116 0.125700 0.000000
0.918615 0.124635 0.000000
0.954708 0.123669 0.000000
0.989282 0.122800 0.000000
1.000000 0.122025 0.000000
1.000000 0.121338 0.000000
1.000000 0.120735 0.000000
1.000000 0.120210 0.000000
1.000000 0.119759 0.000000
0.000000 0.202585 0.000000
0.000000 0.202585 0.000000
0.000000 0.201700 0.000000
0.005334 0.200022 0.000000
0.038583 0.198228 0.000000
0.073837 0.196325 0.000000
0.110938 0.194323 0.000000
0.149730 0.192230 0.000000
0.190054 0.190054 0.000000
0.231562 0.187773 0.000000
0.274017 0.185497 0.000000
0.317244 0.183240 0.000000
0.361067 0.181014 0.000000
0.405317 0.178833 0.000000
0.449828 0.176706 0.000000
0.494438 0.174645 0.000000
0.538989 0.172658 0.000000
0.583327 0.170752 0.000000
0.627303 0.168935 0.000000
0.670771 0.167212 0.000000
0.713592 0.165587 0.000000
0.755627 0.164062 0.000000
0.796746 0.162641 0.000000
0.836820 0.161324 0.000000
0.875722 0.160112 0.000000
0.913334 0.159002 0.000000
0.949536 0.157993 0.000000
0.984215 0.157082 0.000000
1.000000 0.156267 0.000000
1.000000 0.155542 0.000000
1.000000 0.154902 0.000000
1.000000 0.154344 0.000000
1.000000 0.153861 0.000000
0.000000 0.238664 0.000000
0.000000 0.238664 0.000000
0.000000 0.237792 0.000000
0.000000 0.236140 0.000000
0.031521 0.234373 0.000000
0.066669 0.232499 0.000000
0.103658 0.230527 0.000000
0.142332 0.228465 0.000000
0.182534 0.226322 0.000000
0.224106 0.224106 0.000000
0.266680 0.221783 0.000000
0.310027 0.219477 0.000000
0.353974 0.217203 0.000000
0.398349 0.214971 0.000000
0.442988 0.212795 0.000000
0.487726 0.210682 0.000000
0.532405 0.208644 0.000000
0.576872 0.206687 0.000000
0.620977 0.204818 0.000000
0.664575 0.203044 0.000000
0.707523 0.201367 0.000000
0.749685 0.199793 0.000000
0.790928 0.198322 0.000000
0.831123 0.196957 0.000000
0.870145 0.195697 0.000000
0.907873 0.194541 0.000000
0.944188 0.193487 0.000000
0.978975 0.192533 0.000000
1.000000 0.191676 0.000000
1.000000 0.190911 0.000000
1.000000 0.190235 0.000000
1.000000 0.189641 0.000000
1.000000 0.189126 0.000000
0.000000 0.275700 0.000000
0.000000 0.275700 0.000000
0.000000 0.274842 0.000000
0.000000 0.273216 0.000000
0.024493 0.271477 0.000000
0.059531 0.269633 0.000000
0.096404 0.267692 0.000000
0.134958 0.265663 0.000000
0.175034 0.263554 0.000000
0.216476 0.261373 0.000000
0.259128 0.259128 0.000000
0.302600 0.256773 0.000000
0.346674 0.254448 0.000000
0.391178 0.252165 0.000000
0.435947 0.249936 0.000000
0.480817 0.247771 0.000000
0.525630 0.245680 0.000000
0.570230 0.243670 0.000000
0.614468 0.241748 0.000000
0.658197 0.239921 0.000000
0.701277 0.238193 0.000000
0.743569 0.236567 0.000000
0.784940 0.235045 0.000000
0.825261 0.233630 0.000000
0.864406 0.232320 0.000000
0.902253 0.231117 0.000000
0.938684 0.230017 0.000000
0.973582 0.229019 0.000000
1.000000 0.228119 0.000000
1.000000 0.227313 0.000000
1.000000 0.226598 0.000000
1.000000 0.225969 0.000000
1.000000 0.225419 0.000000
0.000000 0.313551 0.000000
0.000000 0.313551 0.000000
0.000000 0.312707 0.000000
0.000000 0.311108 0.000000
0.017543 0.309397 0.000000
0.052468 0.307583 0.000000
0.089224 0.305675 0.000000
0.127653 0.303679 0.000000
0.167601 0.301605 0.000000
0.208910 0.299459 0.000000
0.251425 0.297252 0.000000
0.294989 0.294989 0.000000
0.339193 0.292612 0.000000
0.383830 0.290277 0.000000
0.428733 0.287994 0.000000
0.473738 0.285776 0.000000
0.518687 0.283630 0.000000
0.563423 0.281566 0.000000
0.607797 0.279590 0.000000
0.651662 0.277709 0.000000
0.694876 0.275927 0.000000
0.737301 0.274248 0.000000
0.778804 0.272674 0.000000
0.819253 0.271207 0.000000
0.858524 0.269848 0.000000
0.896494 0.268595 0.000000
0.933043 0.267448 0.000000
0.968057 0.266405 0.000000
1.000000 0.265461 0.000000
1.000000 0.264614 0.000000
1.000000 0.263860 0.000000
1.000000 0.263193 0.000000
1.000000 0.262609 0.000000
0.000000 0.352073 0.000000
0.000000 0.352073 0.000000
0.000000 0.351243 0.000000
0.000000 0.349671 0.000000
0.010714 0.347990 0.000000
0.045524 0.346207 0.000000
0.082159 0.344331 0.000000
0.120462 0.342370 0.000000
0.160278 0.340331 0.000000
0.201451 0.338222 0.000000
0.243826 0.336052 0.000000
0.287248 0.333828 0.000000
0.331559 0.331559 0.000000
0.376331 0.329170 0.000000
0.421371 0.326833 0.000000
0.466514 0.324560 0.000000
0.511601 0.322359 0.000000
0.556477 0.320239 0.000000
0.600990 0.318208 0.000000
0.644994 0.316272 0.000000
0.688345 0.314435 0.000000
0.730906 0.312702 0.000000
0.772542 0.311075 0.000000
0.813123 0.309556 0.000000
0.852522 0.308145 0.000000
0.890617 0.306843 0.000000
0.927288 0.305648 0.000000
0.962417 0.304557 0.000000
0.995893 0.303569 0.000000
1.000000 0.302680 0.000000
1.000000 0.301885 0.000000
1.000000 0.301180 0.000000
1.000000 0.300562 0.000000
0.000000 0.391125 0.000000
0.000000 0.391125 0.000000
0.000000 0.390310 0.000000
0.000000 0.388766 0.000000
0.004044 0.387114 0.000000
0.038737 0.385363 0.000000
0.075249 0.383520 0.000000
0.113423 0.381593 0.000000
0.153106 0.379591 0.000000
0.194141 0.377519 0.000000
0.236374 0.375388 0.000000
0.279650 0.373203 0.000000
0.323813 0.370974 0.000000
0.368708 0.368708 0.000000
0.413887 0.366316 0.000000
0.459170 0.363987 0.000000
0.504398 0.361729 0.000000
0.549416 0.359554 0.000000
0.594070 0.357466 0.000000
0.638214 0.355474 0.000000
0.681705 0.353581 0.000000
0.724404 0.351793 0.000000
0.766176 0.350112 0.000000
0.806891 0.348540 0.000000
0.846421 0.347077 0.000000
0.884642 0.345724 0.000000
0.921436 0.344480 0.000000
0.956685 0.343342 0.000000
0.990274 0.342309 0.000000
1.000000 0.341376 0.000000
1.000000 0.340541 0.000000
1.000000 0.339798 0.000000
1.000000 0.339143 0.000000
0.000000 0.430568 0.000000
0.000000 0.430568 0.000000
0.000000 0.429768 0.000000
0.000000 0.428252 0.000000
0.000000 0.426630 0.000000
0.032143 0.424911 0.000000
0.068530 0.423102 0.000000
0.106574 0.421210 0.000000
0.146122 0.419244 0.000000
0.187017 0.417210 0.000000
0.229106 0.415117 0.000000
0.272234 0.412973 0.000000
0.316247 0.410784 0.000000
0.360989 0.408560 0.000000
0.406306 0.406306 0.000000
0.451732 0.403920 0.000000
0.497103 0.401606 0.000000
0.542263 0.399373 0.000000
0.587061 0.397229 0.000000
0.631348 0.395180 0.000000
0.674980 0.393231 0.000000
0.717819 0.391387 0.000000
0.759729 0.389651 0.000000
0.800578 0.388025 0.000000
0.840240 0.386510 0.000000
0.878591 0.385106 0.000000
0.915510 0.383812 0.000000
0.950879 0.382626 0.000000
0.984583 0.381547 0.000000
1.000000 0.380570 0.000000
1.000000 0.379693 0.000000
1.000000 0.378912 0.000000
1.000000 0.378221 0.000000
0.000000 0.470263 0.000000
0.000000 0.470263 0.000000
0.000000 0.469478 0.000000
0.000000 0.467990 0.000000
0.000000 0.466399 0.000000
0.025772 0.464712 0.000000
0.062034 0.462937 0.000000
0.099947 0.461081 0.000000
0.139358 0.459151 0.000000
0.180112 0.457156 0.000000
0.222056 0.455102 0.000000
0.265035 0.452998 0.000000
0.308896 0.450850 0.000000
0.353484 0.448667 0.000000
0.398645 0.446456 0.000000
0.444225 0.444225 0.000000
0.489740 0.441853 0.000000
0.535045 0.439563 0.000000
0.579987 0.437361 0.000000
0.624417 0.435254 0.000000
0.668192 0.433249 0.000000
0.711172 0.431349 0.000000
0.753221 0.429557 0.000000
0.794208 0.427877 0.000000
0.834003 0.426309 0.000000
0.872484 0.424853 0.000000
0.909528 0.423509 0.000000
0.945019 0.422275 0.000000
0.978840 0.421149 0.000000
1.000000 0.420128 0.000000
1.000000 0.419209 0.000000
1.000000 0.418388 0.000000
1.000000 0.417661 0.000000
0.000000 0.510073 0.000000
0.000000 0.510073 0.000000
0.000000 0.509304 0.000000
0.000000 0.507845 0.000000
0.000000 0.506284 0.000000
0.019654 0.504630 0.000000
0.055790 0.502888 0.000000
0.093571 0.501068 0.000000
0.132844 0.499175 0.000000
0.173457 0.497218 0.000000
0.215254 0.495204 0.000000
0.258084 0.493140 0.000000
0.301791 0.491034 0.000000
0.346224 0.488893 0.000000
0.391228 0.486724 0.000000
0.436649 0.484536 0.000000
0.482334 0.482334 0.000000
0.527784 0.479986 0.000000
0.572872 0.477726 0.000000
0.617447 0.475562 0.000000
0.661365 0.473499 0.000000
0.704487 0.471543 0.000000
0.746676 0.469695 0.000000
0.787800 0.467960 0.000000
0.827729 0.466339 0.000000
0.866341 0.464831 0.000000
0.903512 0.463436 0.000000
0.939124 0.462154 0.000000
0.973063 0.460981 0.000000
1.000000 0.459916 0.000000
1.000000 0.458955 0.000000
1.000000 0.458095 0.000000
1.000000 0.457331 0.000000
0.000000 0.549865 0.000000
0.000000 0.549865 0.000000
0.000000 0.549110 0.000000
0.000000 0.547679 0.000000
0.000000 0.546150 0.000000
0.013813 0.544528 0.000000
0.049821 0.542821 0.000000
0.087470 0.541036 0.000000
0.126606 0.539180 0.000000
0.167076 0.537262 0.000000
0.208727 0.535287 0.000000
0.251407 0.533264 0.000000
0.294961 0.531199 0.000000
0.339238 0.529100 0.000000
0.384084 0.526974 0.000000
0.429346 0.524828 0.000000
0.474871 0.522670 0.000000
0.520506 0.520506 0.000000
0.565739 0.518189 0.000000
0.610459 0.515967 0.000000
0.654522 0.513847 0.000000
0.697786 0.511834 0.000000
0.740115 0.509931 0.000000
0.781376 0.508141 0.000000
0.821441 0.506465 0.000000
0.860183 0.504905 0.000000
0.897481 0.503460 0.000000
0.933216 0.502129 0.000000
0.967272 0.500910 0.000000
0.999534 0.499800 0.000000
1.000000 0.498797 0.000000
1.000000 0.497897 0.000000
1.000000 0.497096 0.000000
0.000000 0.589502 0.000000
0.000000 0.589502 0.000000
0.000000 0.588763 0.000000
0.000000 0.587361 0.000000
0.000000 0.585862 0.000000
0.008268 0.584272 0.000000
0.044150 0.582599 0.000000
0.081666 0.580850 0.000000
0.120665 0.579032 0.000000
0.160993 0.577152 0.000000
0.202497 0.575217 0.000000
0.245027 0.573234 0.000000
0.288428 0.571210 0.000000
0.332550 0.569153 0.000000
0.377238 0.567070 0.000000
0.422341 0.564967 0.000000
0.467706 0.562852 0.000000
0.513181 0.560732 0.000000
0.558613 0.558613 0.000000
0.603479 0.556334 0.000000
0.647685 0.554157 0.000000
0.691091 0.552087 0.000000
0.733560 0.550128 0.000000
0.774959 0.548284 0.000000
0.815158 0.546555 0.000000
0.854031 0.544942 0.000000
0.891456 0.543447 0.000000
0.927313 0.542067 0.000000
0.961486 0.540801 0.000000
0.993860 0.539647 0.000000
1.000000 0.538602 0.000000
1.000000 0.537662 0.000000
1.000000 0.536825 0.000000
0.000000 0.628855 0.000000
0.000000 0.628855 0.000000
0.000000 0.628130 0.000000
0.000000 0.626757 0.000000
0.000000 0.625288 0.000000
0.003036 0.623731 0.000000
0.038792 0.622092 0.000000
0.076177 0.620378 0.000000
0.115038 0.618597 0.000000
0.155224 0.616755 0.000000
0.196584 0.614860 0.000000
0.238964 0.612917 0.000000
0.282213 0.610935 0.000000
0.326179 0.608919 0.000000
0.370710 0.606878 0.000000
0.415655 0.604818 0.000000
0.460861 0.602746 0.000000
0.506176 0.600669 0.000000
0.551449 0.598594 0.000000
0.596528 0.596528 0.000000
0.640877 0.594294 0.000000
0.684425 0.592167 0.000000
0.727034 0.590153 0.000000
0.768569 0.588254 0.000000
0.808902 0.586472 0.000000
0.847905 0.584808 0.000000
0.885456 0.583262 0.000000
0.921435 0.581833 0.000000
0.955725 0.580521 0.000000
0.988211 0.579322 0.000000
1.000000 0.578235 0.000000
1.000000 0.577256 0.000000
1.000000 0.576382 0.000000
0.000000 0.667791 0.000000
0.000000 0.667791 0.000000
0.000000 0.667082 0.000000
0.000000 0.665737 0.000000
0.000000 0.664298 0.000000
0.000000 0.662773 0.000000
0.033760 0.661168 0.000000
0.071014 0.659489 0.000000
0.109740 0.657745 0.000000
0.149786 0.655941 0.000000
0.191000 0.654084 0.000000
0.233232 0.652182 0.000000
0.276330 0.650240 0.000000
0.320143 0.648266 0.000000
0.364518 0.646267 0.000000
0.409306 0.644250 0.000000
0.454354 0.642220 0.000000
0.499511 0.640186 0.000000
0.544625 0.638154 0.000000
0.589546 0.636130 0.000000
0.634122 0.634122 0.000000
0.677810 0.631940 0.000000
0.720557 0.629870 0.000000
0.762228 0.627917 0.000000
0.802694 0.626082 0.000000
0.841827 0.624366 0.000000
0.879503 0.622770 0.000000
0.915603 0.621294 0.000000
0.950009 0.619935 0.000000
0.982605 0.618693 0.000000
1.000000 0.617564 0.000000
1.000000 0.616546 0.000000
1.000000 0.615636 0.000000
0.000000 0.706183 0.000000
0.000000 0.706183 0.000000
0.000000 0.705488 0.000000
0.000000 0.704171 0.000000
0.000000 0.702762 0.000000
0.000000 0.701269 0.000000
0.029064 0.699697 0.000000
0.066189 0.698054 0.000000
0.104780 0.696345 0.000000
0.144687 0.694579 0.000000
0.185759 0.692761 0.000000
0.227844 0.690898 0.000000
0.270792 0.688996 0.000000
0.314453 0.687064 0.000000
0.358675 0.685106 0.000000
0.403307 0.683131 0.000000
0.448199 0.681143 0.000000
0.493199 0.679151 0.000000
0.538157 0.677161 0.000000
0.582922 0.675180 0.000000
0.627343 0.673213 0.000000
0.671269 0.671269 0.000000
0.714153 0.669145 0.000000
0.755958 0.667138 0.000000
0.796555 0.665251 0.000000
0.835816 0.663484 0.000000
0.873616 0.661839 0.000000
0.909836 0.660315 0.000000
0.944356 0.658911 0.000000
0.977061 0.657625 0.000000
1.000000 0.656455 0.000000
1.000000 0.655398 0.000000
1.000000 0.654452 0.000000
0.000000 0.743902 0.000000
0.000000 0.743902 0.000000
0.000000 0.743221 0.000000
0.000000 0.741932 0.000000
0.000000 0.740553 0.000000
0.000000 0.739090 0.000000
0.024709 0.737552 0.000000
0.061706 0.735943 0.000000
0.100165 0.734270 0.000000
0.139935 0.732540 0.000000
0.180866 0.730760 0.000000
0.222807 0.728936 0.000000
0.265608 0.727075 0.000000
0.309119 0.725183 0.000000
0.353189 0.723266 0.000000
0.397668 0.721332 0.000000
0.442405 0.719386 0.000000
0.487251 0.717436 0.000000
0.532055 0.715487 0.000000
0.576667 0.713547 0.000000
0.620935 0.711622 0.000000
0.664711 0.709718 0.000000
0.707842 0.707842 0.000000
0.749781 0.705783 0.000000
0.790507 0.703844 0.000000
0.829893 0.702027 0.000000
0.867816 0.700334 0.000000
0.904153 0.698763 0.000000
0.938786 0.697313 0.000000
0.971599 0.695985 0.000000
1.000000 0.694774 0.000000
1.000000 0.693679 0.000000
1.000000 0.692698 0.000000
0.000000 0.780822 0.000000
0.000000 0.780822 0.000000
0.000000 0.780156 0.000000
0.000000 0.778893 0.000000
0.000000 0.777543 0.000000
0.000000 0.776112 0.000000
0.020696 0.774605 0.000000
0.057568 0.773030 0.000000
0.095897 0.771392 0.000000
0.135533 0.769699 0.000000
0.176325 0.767956 0.000000
0.218124 0.766170 0.000000
0.260781 0.764348 0.000000
0.304145 0.762496 0.000000
0.348066 0.760619 0.000000
0.392395 0.758725 0.000000
0.436981 0.756821 0.000000
0.481676 0.754911 0.000000
0.526328 0.753004 0.000000
0.570789 0.751104 0.000000
0.614908 0.749219 0.000000
0.658535 0.747355 0.000000
0.701521 0.745519 0.000000
0.743716 0.743716 0.000000
0.784570 0.741727 0.000000
0.824080 0.739861 0.000000
0.862122 0.738119 0.000000
0.898575 0.736502 0.000000
0.933319 0.735009 0.000000
0.966237 0.733638 0.000000
0.997216 0.732388 0.000000
1.000000 0.731256 0.000000
1.000000 0.730240 0.000000
0.000000 0.816818 0.000000
0.000000 0.816818 0.000000
0.000000 0.816166 0.000000
0.000000 0.814930 0.000000
0.000000 0.813609 0.000000
0.000000 0.812207 0.000000
0.017023 0.810732 0.000000
0.053774 0.809190 0.000000
0.091976 0.807586 0.000000
0.131480 0.805929 0.000000
0.172137 0.804222 0.000000
0.213798 0.802474 0.000000
0.256313 0.800690 0.000000
0.299533 0.798876 0.000000
0.343309 0.797039 0.000000
0.387490 0.795185 0.000000
0.431929 0.793320 0.000000
0.476475 0.791451 0.000000
0.520980 0.789583 0.000000
0.565293 0.787723 0.000000
0.609266 0.785878 0.000000
0.652749 0.784053 0.000000
0.695593 0.782255 0.000000
0.737648 0.780490 0.000000
0.778765 0.778765 0.000000
0.818396 0.776851 0.000000
0.856556 0.775063 0.000000
0.893121 0.773401 0.000000
0.927973 0.771864 0.000000
0.960995 0.770452 0.000000
0.992071 0.769163 0.000000
1.000000 0.767994 0.000000
1.000000 0.766944 0.000000
0.000000 0.851768 0.000000
0.000000 0.851768 0.000000
0.000000 0.851130 0.000000
0.000000 0.849920 0.000000
0.000000 0.848625 0.000000
0.000000 0.847253 0.000000
0.013687 0.845808 0.000000
0.050318 0.844298 0.000000
0.088396 0.842729 0.000000
0.127773 0.841105 0.000000
0.168298 0.839435 0.000000
0.209824 0.837723 0.000000
0.252202 0.835976 0.000000
0.295282 0.834200 0.000000
0.338916 0.832401 0.000000
0.382955 0.830585 0.000000
0.427249 0.828759 0.000000
0.471651 0.826929 0.000000
0.516012 0.825100 0.000000
0.560182 0.823279 0.000000
0.604012 0.821472 0.000000
0.647354 0.819686 0.000000
0.690059 0.817925 0.000000
0.731978 0.816197 0.000000
0.772962 0.814507 0.000000
0.812862 0.812862 0.000000
0.851136 0.811029 0.000000
0.887812 0.809323 0.000000
0.922770 0.807745 0.000000
0.955892 0.806293 0.000000
0.987063 0.804966 0.000000
1.000000 0.803761 0.000000
1.000000 0.802678 0.000000
0.000000 0.885549 0.000000
0.000000 0.885549 0.000000
0.000000 0.884924 0.000000
0.000000 0.883738 0.000000
0.000000 0.882471 0.000000
0.000000 0.881127 0.000000
0.010678 0.879712 0.000000
0.047194 0.878233 0.000000
0.085152 0.876696 0.000000
0.124405 0.875106 0.000000
0.164803 0.873470 0.000000
0.206198 0.871793 0.000000
0.248442 0.870082 0.000000
0.291387 0.868343 0.000000
0.334883 0.866581 0.000000
0.378783 0.864803 0.000000
0.422939 0.863014 0.000000
0.467201 0.861222 0.000000
0.511422 0.859431 0.000000
0.555453 0.857647 0.000000
0.599145 0.855878 0.000000
0.642351 0.854128 0.000000
0.684921 0.852403 0.000000
0.726708 0.850711 0.000000
0.767563 0.849056 0.000000
0.807338 0.847445 0.000000
0.845884 0.845884 0.000000
