assets/LUTs/rescue_punch_33.cube
TITLE "Rescue Punch"
LUT_3D_SIZE 33
DOMAIN_MIN 0.0 0.0 0.0
DOMAIN_MAX 1.0 1.0 1.0
0.007912 0.000000 0.000000
0.039330 0.000000 0.000000
0.071491 0.000000 0.000000
0.104304 0.000000 0.000000
0.137679 0.000000 0.000000
0.171528 0.000000 0.000000
0.205762 0.000000 0.000000
0.240299 0.000000 0.000000
0.275056 0.000000 0.000000
0.309953 0.000000 0.000000
0.344911 0.000000 0.000000
0.379857 0.000000 0.000000
0.414716 0.000000 0.000000
0.449420 0.000000 0.000000
0.483900 0.000000 0.000000
0.518092 0.000000 0.000000
0.551934 0.000000 0.000000
0.585367 0.000000 0.000000
0.618334 0.000000 0.000000
0.650781 0.000000 0.000000
0.682657 0.000000 0.000000
0.713915 0.000000 0.000000
0.744507 0.000000 0.000000
0.774392 0.000000 0.000000
0.803527 0.000000 0.000000
0.831876 0.000000 0.000000
0.859401 0.000000 0.000000
0.886070 0.000000 0.000000
0.911850 0.000000 0.000000
0.936713 0.000000 0.000000
0.960629 0.000000 0.000000
0.983574 0.000000 0.000000
1.000000 0.000000 0.000000
0.003798 0.028030 0.000000
0.035269 0.026803 0.000000
0.067547 0.025580 0.000000
0.100480 0.024397 0.000000
0.133979 0.023263 0.000000
0.167953 0.022185 0.000000
0.202317 0.021172 0.000000
0.236985 0.020231 0.000000
0.271876 0.019368 0.000000
0.306908 0.018588 0.000000
0.342003 0.017898 0.000000
0.377087 0.017302 0.000000
0.412086 0.016804 0.000000
0.446930 0.016407 0.000000
0.481551 0.016113 0.000000
0.515885 0.015924 0.000000
0.549869 0.015842 0.000000
0.583443 0.015866 0.000000
0.616552 0.015996 0.000000
0.649140 0.016231 0.000000
0.681157 0.016569 0.000000
0.712553 0.017007 0.000000
0.743283 0.017542 0.000000
0.773304 0.018169 0.000000
0.802574 0.018885 0.000000
0.831055 0.019684 0.000000
0.858710 0.020559 0.000000
0.885507 0.021504 0.000000
0.911412 0.022513 0.000000
0.936396 0.023576 0.000000
0.960431 0.024686 0.000000
0.983491 0.025835 0.000000
1.000000 0.026709 0.000000
0.000000 0.057216 0.000000
0.031130 0.056024 0.000000
0.063473 0.054790 0.000000
0.096531 0.053558 0.000000
0.130157 0.052373 0.000000
0.164262 0.051243 0.000000
0.198758 0.050177 0.000000
0.233562 0.049182 0.000000
0.268590 0.048264 0.000000
0.303762 0.047429 0.000000
0.338999 0.046682 0.000000
0.374226 0.046029 0.000000
0.409369 0.045474 0.000000
0.444358 0.045019 0.000000
0.479126 0.044667 0.000000
0.513606 0.044420 0.000000
0.547736 0.044279 0.000000
0.581457 0.044245 0.000000
0.614711 0.044317 0.000000
0.647445 0.044494 0.000000
0.679606 0.044774 0.000000
0.711147 0.045155 0.000000
0.742019 0.045633 0.000000
0.772180 0.046205 0.000000
0.801589 0.046865 0.000000
0.830207 0.047609 0.000000
0.857997 0.048431 0.000000
0.884925 0.049324 0.000000
0.910959 0.050281 0.000000
0.936069 0.051294 0.000000
0.960226 0.052356 0.000000
0.983405 0.053457 0.000000
1.000000 0.054297 0.000000
0.000000 0.087169 0.000000
0.027107 0.086013 0.000000
0.059328 0.084820 0.000000
0.092464 0.083586 0.000000
0.126221 0.082348 0.000000
0.160460 0.081165 0.000000
0.195094 0.080045 0.000000
0.230038 0.078994 0.000000
0.265208 0.078019 0.000000
0.300523 0.077127 0.000000
0.335906 0.076322 0.000000
0.371280 0.075611 0.000000
0.406572 0.074996 0.000000
0.441710 0.074481 0.000000
0.476628 0.074070 0.000000
0.511259 0.073763 0.000000
0.545540 0.073562 0.000000
0.579411 0.073467 0.000000
0.612816 0.073479 0.000000
0.645700 0.073597 0.000000
0.678010 0.073818 0.000000
0.709698 0.074140 0.000000
0.740717 0.074559 0.000000
0.771023 0.075074 0.000000
0.800575 0.075677 0.000000
0.829334 0.076365 0.000000
0.857262 0.077132 0.000000
0.884326 0.077971 0.000000
0.910492 0.078875 0.000000
0.935732 0.079837 0.000000
0.960016 0.080848 0.000000
0.983317 0.081901 0.000000
1.000000 0.082705 0.000000
0.000000 0.117820 0.000000
0.023240 0.116701 0.000000
0.055321 0.115546 0.000000
0.088331 0.114358 0.000000
0.122179 0.113127 0.000000
0.156556 0.111890 0.000000
0.191331 0.110713 0.000000
0.226418 0.109605 0.000000
0.261734 0.108572 0.000000
0.297197 0.107621 0.000000
0.332730 0.106757 0.000000
0.368255 0.105985 0.000000
0.403699 0.105310 0.000000
0.438991 0.104734 0.000000
0.474063 0.104261 0.000000
0.508848 0.103892 0.000000
0.543285 0.103630 0.000000
0.577311 0.103474 0.000000
0.610870 0.103424 0.000000
0.643908 0.103480 0.000000
0.676371 0.103640 0.000000
0.708211 0.103902 0.000000
0.739380 0.104262 0.000000
0.769835 0.104717 0.000000
0.799534 0.105262 0.000000
0.828437 0.105892 0.000000
0.856507 0.106602 0.000000
0.883710 0.107386 0.000000
0.910014 0.108235 0.000000
0.935386 0.109144 0.000000
0.959799 0.110104 0.000000
0.983226 0.111107 0.000000
1.000000 0.111875 0.000000
0.000000 0.149100 0.000000
0.019557 0.148018 0.000000
0.051494 0.146902 0.000000
0.084356 0.145754 0.000000
0.118076 0.144575 0.000000
0.152559 0.143355 0.000000
0.187478 0.142120 0.000000
0.222712 0.140954 0.000000
0.258177 0.139862 0.000000
0.293792 0.138850 0.000000
0.329477 0.137925 0.000000
0.365157 0.137092 0.000000
0.400758 0.136354 0.000000
0.436207 0.135716 0.000000
0.471436 0.135180 0.000000
0.506380 0.134748 0.000000
0.540975 0.134422 0.000000
0.575160 0.134203 0.000000
0.608878 0.134091 0.000000
0.642073 0.134084 0.000000
0.674693 0.134182 0.000000
0.706688 0.134381 0.000000
0.738012 0.134680 0.000000
0.768619 0.135074 0.000000
0.798468 0.135559 0.000000
0.827519 0.136131 0.000000
0.855735 0.136783 0.000000
0.883080 0.137510 0.000000
0.909523 0.138304 0.000000
0.935032 0.139158 0.000000
0.959578 0.140065 0.000000
0.983133 0.141017 0.000000
1.000000 0.141748 0.000000
0.000000 0.180938 0.000000
0.016085 0.179895 0.000000
0.047875 0.178819 0.000000
0.080586 0.177711 0.000000
0.114151 0.176575 0.000000
0.148502 0.175412 0.000000
0.183541 0.174206 0.000000
0.218925 0.172979 0.000000
0.254543 0.171826 0.000000
0.290312 0.170753 0.000000
0.326154 0.169766 0.000000
0.361993 0.168870 0.000000
0.397752 0.168068 0.000000
0.433362 0.167366 0.000000
0.468753 0.166766 0.000000
0.503859 0.166270 0.000000
0.538616 0.165880 0.000000
0.572963 0.165596 0.000000
0.606842 0.165419 0.000000
0.640198 0.165348 0.000000
0.672978 0.165382 0.000000
0.705132 0.165518 0.000000
0.736613 0.165754 0.000000
0.767376 0.166087 0.000000
0.797378 0.166511 0.000000
0.826581 0.167022 0.000000
0.854945 0.167615 0.000000
0.882437 0.168283 0.000000
0.909022 0.169021 0.000000
0.934670 0.169820 0.000000
0.959351 0.170673 0.000000
0.983038 0.171572 0.000000
1.000000 0.172266 0.000000
0.000000 0.213269 0.000000
0.012848 0.212265 0.000000
0.044488 0.211229 0.000000
0.077045 0.210163 0.000000
0.110452 0.209069 0.000000
0.144641 0.207950 0.000000
0.179547 0.206807 0.000000
0.215066 0.205620 0.000000
0.250839 0.204405 0.000000
0.286766 0.203269 0.000000
0.322768 0.202218 0.000000
0.358767 0.201258 0.000000
0.394690 0.200392 0.000000
0.430463 0.199624 0.000000
0.466018 0.198958 0.000000
0.501289 0.198397 0.000000
0.536211 0.197941 0.000000
0.570723 0.197591 0.000000
0.604767 0.197349 0.000000
0.638287 0.197213 0.000000
0.671230 0.197182 0.000000
0.703546 0.197253 0.000000
0.735188 0.197425 0.000000
0.766109 0.197695 0.000000
0.796268 0.198056 0.000000
0.825625 0.198506 0.000000
0.854141 0.199039 0.000000
0.881781 0.199648 0.000000
0.908512 0.200328 0.000000
0.934301 0.201070 0.000000
0.959120 0.201869 0.000000
0.982941 0.202714 0.000000
1.000000 0.203369 0.000000
0.000000 0.246022 0.000000
0.009868 0.245059 0.000000
0.041356 0.244064 0.000000
0.073756 0.243040 0.000000
0.107002 0.241990 0.000000
0.141027 0.240915 0.000000
0.175765 0.239817 0.000000
0.211149 0.238699 0.000000
0.247072 0.237536 0.000000
0.283160 0.236336 0.000000
0.319324 0.235221 0.000000
0.355487 0.234195 0.000000
0.391575 0.233263 0.000000
0.427515 0.232429 0.000000
0.463237 0.231697 0.000000
0.498676 0.231068 0.000000
0.533765 0.230545 0.000000
0.568445 0.230129 0.000000
0.602657 0.229820 0.000000
0.636344 0.229617 0.000000
0.669453 0.229520 0.000000
0.701934 0.229526 0.000000
0.733738 0.229634 0.000000
0.764821 0.229838 0.000000
0.795139 0.230137 0.000000
0.824652 0.230524 0.000000
0.853323 0.230996 0.000000
0.881114 0.231545 0.000000
0.907992 0.232165 0.000000
0.933926 0.232851 0.000000
0.958886 0.233593 0.000000
0.982843 0.234384 0.000000
1.000000 0.235000 0.000000
0.000000 0.279134 0.000000
0.007166 0.278210 0.000000
0.038499 0.277257 0.000000
0.070740 0.276276 0.000000
0.103823 0.275270 0.000000
0.137681 0.274240 0.000000
0.172248 0.273189 0.000000
0.207459 0.272118 0.000000
0.243247 0.271029 0.000000
0.279500 0.269893 0.000000
0.315828 0.268712 0.000000
0.352158 0.267620 0.000000
0.388414 0.266621 0.000000
0.424523 0.265720 0.000000
0.460415 0.264920 0.000000
0.496023 0.264224 0.000000
0.531284 0.263633 0.000000
0.566134 0.263149 0.000000
0.600515 0.262772 0.000000
0.634372 0.262502 0.000000
0.667649 0.262338 0.000000
0.700297 0.262278 0.000000
0.732267 0.262319 0.000000
0.763514 0.262459 0.000000
0.793993 0.262693 0.000000
0.823666 0.263017 0.000000
0.852492 0.263426 0.000000
0.880437 0.263914 0.000000
0.907465 0.264475 0.000000
0.933546 0.265102 0.000000
0.958648 0.265787 0.000000
0.982743 0.266524 0.000000
1.000000 0.267100 0.000000
0.000000 0.312536 0.000000
0.004760 0.311654 0.000000
0.035937 0.310743 0.000000
0.068017 0.309806 0.000000
0.100934 0.308844 0.000000
0.134622 0.307860 0.000000
0.169017 0.306855 0.000000
0.204052 0.305832 0.000000
0.239661 0.304791 0.000000
0.275780 0.303736 0.000000
0.312289 0.302631 0.000000
0.348787 0.301472 0.000000
0.385212 0.300406 0.000000
0.421492 0.299437 0.000000
0.457557 0.298568 0.000000
0.493337 0.297803 0.000000
0.528770 0.297144 0.000000
0.563793 0.296591 0.000000
0.598347 0.296146 0.000000
0.632374 0.295807 0.000000
0.665822 0.295575 0.000000
0.698640 0.295447 0.000000
0.730777 0.295422 0.000000
0.762190 0.295496 0.000000
0.792833 0.295665 0.000000
0.822666 0.295924 0.000000
0.851651 0.296270 0.000000
0.879751 0.296697 0.000000
0.906932 0.297197 0.000000
0.933160 0.297765 0.000000
0.958406 0.298393 0.000000
0.982641 0.299074 0.000000
1.000000 0.299609 0.000000
0.000000 0.346165 0.000000
0.002666 0.345324 0.000000
0.033684 0.344456 0.000000
0.065601 0.343563 0.000000
0.098351 0.342647 0.000000
0.131869 0.341709 0.000000
0.166089 0.340751 0.000000
0.200946 0.339775 0.000000
0.236375 0.338784 0.000000
0.272310 0.337778 0.000000
0.308685 0.336760 0.000000
0.345379 0.335690 0.000000
0.381976 0.334556 0.000000
0.418429 0.333518 0.000000
0.454667 0.332580 0.000000
0.490622 0.331746 0.000000
0.526230 0.331017 0.000000
0.561427 0.330395 0.000000
0.596155 0.329880 0.000000
0.630356 0.329473 0.000000
0.663976 0.329172 0.000000
0.696964 0.328976 0.000000
0.729271 0.328883 0.000000
0.760851 0.328890 0.000000
0.791660 0.328993 0.000000
0.821656 0.329188 0.000000
0.850801 0.329470 0.000000
0.879058 0.329834 0.000000
0.906392 0.330273 0.000000
0.932771 0.330781 0.000000
0.958163 0.331351 0.000000
0.982539 0.331976 0.000000
1.000000 0.332471 0.000000
0.000000 0.379957 0.000000
0.000897 0.379158 0.000000
0.031756 0.378333 0.000000
0.063509 0.377484 0.000000
0.096090 0.376613 0.000000
0.129436 0.375722 0.000000
0.163479 0.374812 0.000000
0.198157 0.373885 0.000000
0.233403 0.372942 0.000000
0.269153 0.371987 0.000000
0.305341 0.371019 0.000000
0.341903 0.370042 0.000000
0.378712 0.369010 0.000000
0.415339 0.367903 0.000000
0.451752 0.366895 0.000000
0.487883 0.365991 0.000000
0.523666 0.365192 0.000000
0.559040 0.364500 0.000000
0.593943 0.363915 0.000000
0.628319 0.363438 0.000000
0.662113 0.363068 0.000000
0.695274 0.362803 0.000000
0.727752 0.362642 0.000000
0.759501 0.362582 0.000000
0.790477 0.362619 0.000000
0.820637 0.362748 0.000000
0.849944 0.362966 0.000000
0.878359 0.363267 0.000000
0.905848 0.363644 0.000000
0.932377 0.364092 0.000000
0.957917 0.364604 0.000000
0.982436 0.365171 0.000000
1.000000 0.365625 0.000000
0.000000 0.413849 0.000000
0.000000 0.413092 0.000000
0.030164 0.412310 0.000000
0.061751 0.411506 0.000000
0.094163 0.410681 0.000000
0.127334 0.409836 0.000000
0.161201 0.408974 0.000000
0.195698 0.408096 0.000000
0.230760 0.407203 0.000000
0.266324 0.406298 0.000000
0.302324 0.405381 0.000000
0.338695 0.404455 0.000000
0.375373 0.403522 0.000000
0.412227 0.402531 0.000000
0.448816 0.401453 0.000000
0.485124 0.400478 0.000000
0.521085 0.399608 0.000000
0.556636 0.398846 0.000000
0.591716 0.398191 0.000000
0.626268 0.397643 0.000000
0.660237 0.397204 0.000000
0.693572 0.396870 0.000000
0.726222 0.396640 0.000000
0.758141 0.396512 0.000000
0.789285 0.396482 0.000000
0.819611 0.396546 0.000000
0.849080 0.396699 0.000000
0.877655 0.396936 0.000000
0.905300 0.397251 0.000000
0.931981 0.397639 0.000000
0.957669 0.398091 0.000000
0.982332 0.398601 0.000000
1.000000 0.399014 0.000000
0.000000 0.447778 0.000000
0.000000 0.447063 0.000000
0.028917 0.446325 0.000000
0.060338 0.445566 0.000000
0.092579 0.444787 0.000000
0.125576 0.443990 0.000000
0.159264 0.443176 0.000000
0.193579 0.442346 0.000000
0.228457 0.441504 0.000000
0.263833 0.440649 0.000000
0.299643 0.439783 0.000000
0.335823 0.438909 0.000000
0.372308 0.438028 0.000000
0.409035 0.437140 0.000000
0.445865 0.436193 0.000000
0.482351 0.435147 0.000000
0.518490 0.434206 0.000000
0.554219 0.433373 0.000000
0.589477 0.432647 0.000000
0.624206 0.432029 0.000000
0.658351 0.431519 0.000000
0.691860 0.431116 0.000000
0.724684 0.430817 0.000000
0.756774 0.430621 0.000000
0.788087 0.430523 0.000000
0.818579 0.430521 0.000000
0.848212 0.430609 0.000000
0.876947 0.430782 0.000000
0.904749 0.431035 0.000000
0.931584 0.431362 0.000000
0.957420 0.431755 0.000000
0.982227 0.432207 0.000000
1.000000 0.432578 0.000000
0.000000 0.481684 0.000000
0.000000 0.481011 0.000000
0.028022 0.480317 0.000000
0.059276 0.479603 0.000000
0.091346 0.478870 0.000000
0.124167 0.478120 0.000000
0.157677 0.477355 0.000000
0.191809 0.476575 0.000000
0.226502 0.475782 0.000000
0.261690 0.474978 0.000000
0.297310 0.474164 0.000000
0.333298 0.473341 0.000000
0.369589 0.472512 0.000000
0.406120 0.471677 0.000000
0.442827 0.470838 0.000000
0.479568 0.469937 0.000000
0.515886 0.468925 0.000000
0.551794 0.468020 0.000000
0.587230 0.467223 0.000000
0.622136 0.466535 0.000000
0.656458 0.465954 0.000000
0.690143 0.465481 0.000000
0.723140 0.465114 0.000000
0.755402 0.464849 0.000000
0.786884 0.464684 0.000000
0.817544 0.464615 0.000000
0.847341 0.464637 0.000000
0.876237 0.464747 0.000000
0.904196 0.464937 0.000000
0.931184 0.465202 0.000000
0.957170 0.465536 0.000000
0.982123 0.465931 0.000000
1.000000 0.466260 0.000000
0.000000 0.515506 0.000000
0.000000 0.514876 0.000000
0.027484 0.514226 0.000000
0.058571 0.513557 0.000000
0.090469 0.512870 0.000000
0.123114 0.512168 0.000000
0.156444 0.511450 0.000000
0.190395 0.510720 0.000000
0.224902 0.509977 0.000000
0.259902 0.509224 0.000000
0.295331 0.508461 0.000000
0.331126 0.507691 0.000000
0.367223 0.506914 0.000000
0.403559 0.506132 0.000000
0.440069 0.505346 0.000000
0.476690 0.504558 0.000000
0.513278 0.503704 0.000000
0.549364 0.502728 0.000000
0.584979 0.501860 0.000000
0.620064 0.501100 0.000000
0.654563 0.500450 0.000000
0.688423 0.499906 0.000000
0.721594 0.499469 0.000000
0.754028 0.499136 0.000000
0.785680 0.498903 0.000000
0.816507 0.498768 0.000000
0.846468 0.498725 0.000000
0.875525 0.498770 0.000000
0.903642 0.498898 0.000000
0.930784 0.499102 0.000000
0.956920 0.499376 0.000000
0.982018 0.499713 0.000000
1.000000 0.500000 0.000000
0.000000 0.549186 0.000000
0.000000 0.548598 0.000000
0.027304 0.547992 0.000000
0.058223 0.547368 0.000000
0.089950 0.546728 0.000000
0.122420 0.546073 0.000000
0.155570 0.545404 0.000000
0.189338 0.544722 0.000000
0.223659 0.544030 0.000000
0.258471 0.543327 0.000000
0.293710 0.542616 0.000000
0.329313 0.541898 0.000000
0.365216 0.541173 0.000000
0.401356 0.540444 0.000000
0.437670 0.539711 0.000000
0.474094 0.538976 0.000000
0.510565 0.538241 0.000000
0.546935 0.537435 0.000000
0.582728 0.536496 0.000000
0.617991 0.535666 0.000000
0.652667 0.534945 0.000000
0.686703 0.534332 0.000000
0.720048 0.533825 0.000000
0.752654 0.533424 0.000000
0.784476 0.533123 0.000000
0.815470 0.532921 0.000000
0.845595 0.532813 0.000000
0.874813 0.532794 0.000000
0.903088 0.532859 0.000000
0.930384 0.533001 0.000000
0.956669 0.533216 0.000000
0.981913 0.533495 0.000000
1.000000 0.533740 0.000000
0.000000 0.582664 0.000000
0.000000 0.582119 0.000000
0.027481 0.581557 0.000000
0.058233 0.580978 0.000000
0.089789 0.580384 0.000000
0.122084 0.579776 0.000000
0.155055 0.579156 0.000000
0.188641 0.578524 0.000000
0.222777 0.577881 0.000000
0.257401 0.577229 0.000000
0.292449 0.576570 0.000000
0.327860 0.575903 0.000000
0.363569 0.575231 0.000000
0.399514 0.574554 0.000000
0.435632 0.573875 0.000000
0.471859 0.573193 0.000000
0.508134 0.572510 0.000000
0.544392 0.571828 0.000000
0.580481 0.571072 0.000000
0.615922 0.570172 0.000000
0.650774 0.569380 0.000000
0.684985 0.568697 0.000000
0.718504 0.568122 0.000000
0.751282 0.567651 0.000000
0.783274 0.567284 0.000000
0.814434 0.567015 0.000000
0.844724 0.566841 0.000000
0.874103 0.566758 0.000000
0.902535 0.566760 0.000000
0.929985 0.566842 0.000000
0.956419 0.566997 0.000000
0.981808 0.567218 0.000000
1.000000 0.567422 0.000000
0.000000 0.615885 0.000000
0.000000 0.615383 0.000000
0.028013 0.614864 0.000000
0.058599 0.614330 0.000000
0.089983 0.613782 0.000000
0.122104 0.613221 0.000000
0.154897 0.612649 0.000000
0.188301 0.612066 0.000000
0.222252 0.611473 0.000000
0.256689 0.610872 0.000000
0.291548 0.610263 0.000000
0.326767 0.609649 0.000000
0.362283 0.609029 0.000000
0.398033 0.608405 0.000000
0.433956 0.607778 0.000000
0.469987 0.607149 0.000000
0.506066 0.606519 0.000000
0.542128 0.605889 0.000000
0.578112 0.605261 0.000000
0.613860 0.604557 0.000000
0.648888 0.603695 0.000000
0.683274 0.602943 0.000000
0.716966 0.602299 0.000000
0.749915 0.601760 0.000000
0.782075 0.601325 0.000000
0.813403 0.600990 0.000000
0.843856 0.600752 0.000000
0.873395 0.600605 0.000000
0.901984 0.600544 0.000000
0.929587 0.600565 0.000000
0.956170 0.600660 0.000000
0.981703 0.600824 0.000000
1.000000 0.600986 0.000000
0.000000 0.648792 0.000000
0.000000 0.648332 0.000000
0.028893 0.647856 0.000000
0.059314 0.647367 0.000000
0.090529 0.646865 0.000000
0.122476 0.646351 0.000000
0.155091 0.645826 0.000000
0.188314 0.645292 0.000000
0.222082 0.644749 0.000000
0.256332 0.644198 0.000000
0.291003 0.643641 0.000000
0.326031 0.643077 0.000000
0.361355 0.642509 0.000000
0.396912 0.641937 0.000000
0.432640 0.641363 0.000000
0.468477 0.640786 0.000000
0.504360 0.640209 0.000000
0.540228 0.639633 0.000000
0.576017 0.639057 0.000000
0.611665 0.638484 0.000000
0.647012 0.637831 0.000000
0.681572 0.637010 0.000000
0.715436 0.636297 0.000000
0.748556 0.635690 0.000000
0.780884 0.635188 0.000000
0.812376 0.634788 0.000000
0.842992 0.634484 0.000000
0.872691 0.634274 0.000000
0.901436 0.634151 0.000000
0.929191 0.634111 0.000000
0.955923 0.634148 0.000000
0.981599 0.634254 0.000000
1.000000 0.634375 0.000000
0.000000 0.681330 0.000000
0.000710 0.680911 0.000000
0.030115 0.680479 0.000000
0.060372 0.680034 0.000000
0.091418 0.679577 0.000000
0.123192 0.679110 0.000000
0.155632 0.678633 0.000000
0.188675 0.678147 0.000000
0.222260 0.677653 0.000000
0.256326 0.677152 0.000000
0.290809 0.676645 0.000000
0.325648 0.676133 0.000000
0.360781 0.675617 0.000000
0.396146 0.675097 0.000000
0.431681 0.674574 0.000000
0.467325 0.674050 0.000000
0.503014 0.673525 0.000000
0.538688 0.673001 0.000000
0.574283 0.672477 0.000000
0.609739 0.671956 0.000000
0.644993 0.671438 0.000000
0.679882 0.670837 0.000000
0.713917 0.670056 0.000000
0.747205 0.669382 0.000000
0.779700 0.668814 0.000000
0.811357 0.668348 0.000000
0.842135 0.667980 0.000000
0.871992 0.667706 0.000000
0.900891 0.667522 0.000000
0.928798 0.667422 0.000000
0.955677 0.667400 0.000000
0.981496 0.667450 0.000000
1.000000 0.667529 0.000000
0.000000 0.713444 0.000000
0.002421 0.713066 0.000000
0.031668 0.712677 0.000000
0.061761 0.712276 0.000000
0.092640 0.711865 0.000000
0.124243 0.711444 0.000000
0.156508 0.711014 0.000000
0.189374 0.710576 0.000000
0.222779 0.710131 0.000000
0.256660 0.709680 0.000000
0.290958 0.709223 0.000000
0.325610 0.708761 0.000000
0.360554 0.708295 0.000000
0.395728 0.707827 0.000000
0.431072 0.707356 0.000000
0.466524 0.706884 0.000000
0.502021 0.706411 0.000000
0.537502 0.705938 0.000000
0.572907 0.705467 0.000000
0.608172 0.704997 0.000000
0.643236 0.704530 0.000000
0.678038 0.704066 0.000000
0.712411 0.703517 0.000000
0.745867 0.702777 0.000000
0.778527 0.702142 0.000000
0.810347 0.701611 0.000000
0.841285 0.701180 0.000000
0.871299 0.700844 0.000000
0.900352 0.700598 0.000000
0.928408 0.700439 0.000000
0.955433 0.700358 0.000000
0.981394 0.700352 0.000000
1.000000 0.700391 0.000000
0.000000 0.745081 0.000000
0.004448 0.744745 0.000000
0.033538 0.744398 0.000000
0.063470 0.744040 0.000000
0.094184 0.743673 0.000000
0.125618 0.743298 0.000000
0.157710 0.742915 0.000000
0.190400 0.742525 0.000000
0.223625 0.742128 0.000000
0.257326 0.741725 0.000000
0.291440 0.741318 0.000000
0.325906 0.740907 0.000000
0.360663 0.740492 0.000000
0.395649 0.740074 0.000000
0.430804 0.739654 0.000000
0.466066 0.739233 0.000000
0.501373 0.738811 0.000000
0.536664 0.738390 0.000000
0.571879 0.737970 0.000000
0.606955 0.737551 0.000000
0.641832 0.737134 0.000000
0.676447 0.736721 0.000000
0.710741 0.736312 0.000000
0.744543 0.735814 0.000000
0.777367 0.735114 0.000000
0.809348 0.734519 0.000000
0.840444 0.734024 0.000000
0.870613 0.733627 0.000000
0.899818 0.733321 0.000000
0.928023 0.733102 0.000000
0.955192 0.732964 0.000000
0.981293 0.732902 0.000000
1.000000 0.732900 0.000000
0.000000 0.776190 0.000000
0.006775 0.775894 0.000000
0.035710 0.775588 0.000000
0.065484 0.775274 0.000000
0.096034 0.774951 0.000000
0.127301 0.774621 0.000000
0.159223 0.774284 0.000000
0.191739 0.773940 0.000000
0.224788 0.773591 0.000000
0.258309 0.773237 0.000000
0.292242 0.772879 0.000000
0.326525 0.772517 0.000000
0.361097 0.772152 0.000000
0.395898 0.771784 0.000000
0.430866 0.771415 0.000000
0.465940 0.771044 0.000000
0.501059 0.770673 0.000000
0.536163 0.770303 0.000000
0.571191 0.769933 0.000000
0.606080 0.769564 0.000000
0.640772 0.769198 0.000000
0.675203 0.768834 0.000000
0.709315 0.768474 0.000000
0.743044 0.768118 0.000000
0.776221 0.767670 0.000000
0.808361 0.767012 0.000000
0.839613 0.766455 0.000000
0.869936 0.765996 0.000000
0.899291 0.765630 0.000000
0.927642 0.765353 0.000000
0.954953 0.765159 0.000000
0.981193 0.765041 0.000000
1.000000 0.765000 0.000000
0.000000 0.806718 0.000000
0.009386 0.806461 0.000000
0.038169 0.806197 0.000000
0.067785 0.805925 0.000000
0.098175 0.805645 0.000000
0.129277 0.805360 0.000000
0.161031 0.805068 0.000000
0.193376 0.804771 0.000000
0.226251 0.804469 0.000000
0.259596 0.804162 0.000000
0.293350 0.803852 0.000000
0.327452 0.803539 0.000000
0.361842 0.803223 0.000000
0.396460 0.802905 0.000000
0.431243 0.802585 0.000000
0.466133 0.802265 0.000000
0.501068 0.801944 0.000000
0.535987 0.801623 0.000000
0.570830 0.801303 0.000000
0.605536 0.800984 0.000000
0.640044 0.800667 0.000000
0.674295 0.800352 0.000000
0.708226 0.800040 0.000000
0.741778 0.799732 0.000000
0.774890 0.799428 0.000000
0.807389 0.799030 0.000000
0.838795 0.798411 0.000000
0.869269 0.797892 0.000000
0.898772 0.797468 0.000000
0.927267 0.797133 0.000000
0.954719 0.796883 0.000000
0.981094 0.796711 0.000000
1.000000 0.796631 0.000000
0.000000 0.836614 0.000000
0.012260 0.836397 0.000000
0.040893 0.836173 0.000000
0.070355 0.835943 0.000000
0.100587 0.835706 0.000000
0.131527 0.835464 0.000000
0.163116 0.835217 0.000000
0.195292 0.834965 0.000000
0.227996 0.834709 0.000000
0.261168 0.834450 0.000000
0.294746 0.834187 0.000000
0.328671 0.833922 0.000000
0.362882 0.833654 0.000000
0.397319 0.833384 0.000000
0.431922 0.833114 0.000000
0.466630 0.832842 0.000000
0.501383 0.832570 0.000000
0.536120 0.832299 0.000000
0.570782 0.832027 0.000000
0.605307 0.831757 0.000000
0.639636 0.831489 0.000000
0.673708 0.831222 0.000000
0.707463 0.830958 0.000000
0.740841 0.830697 0.000000
0.773780 0.830439 0.000000
0.806222 0.830185 0.000000
0.837991 0.829835 0.000000
