assets/LUTs/rescue_teal_orange_33.cube
TITLE "Rescue Teal-Orange"
LUT_3D_SIZE 5
DOMAIN_MIN 0.0 0.0 0.0
DOMAIN_MAX 1.0 1.0 1.0
0.000000 0.003606 0.025686
0.248279 0.000000 0.015328
0.536732 0.000000 0.007509
0.808393 0.000000 0.004402
1.000000 0.000000 0.005500
0.000000 0.245456 0.000000
0.229448 0.238318 0.000000
0.524300 0.231345 0.000000
0.802195 0.228910 0.000000
1.000000 0.230462 0.000000
0.000000 0.521118 0.000000
0.214802 0.515879 0.000000
0.509660 0.509673 0.000000
0.794542 0.504340 0.000000
1.000000 0.503304 0.000000
0.000000 0.790722 0.000000
0.215241 0.787316 0.000000
0.501565 0.783395 0.000000
0.787666 0.779456 0.000000
1.000000 0.776041 0.000000
0.000000 1.000000 0.000000
0.226584 1.000000 0.000000
0.505904 1.000000 0.000000
0.785224 1.000000 0.000000
1.000000 1.000000 0.000000
0.000000 0.001164 0.287101
0.245734 0.000000 0.278050
0.535444 0.000000 0.262564
0.807728 0.000000 0.251041
1.000000 0.000000 0.244898
0.000000 0.242941 0.255338
0.227367 0.235860 0.246098
0.529778 0.227668 0.234746
0.815418 0.223989 0.228073
1.000000 0.224438 0.226103
0.000000 0.519328 0.223082
0.207123 0.516629 0.208909
0.509097 0.508521 0.198011
0.801764 0.501934 0.199447
1.000000 0.499915 0.204489
0.000000 0.789828 0.206131
0.201899 0.791306 0.187835
0.495384 0.785468 0.179449
0.788661 0.779626 0.171716
1.000000 0.775113 0.183747
0.000000 1.000000 0.203872
0.209516 1.000000 0.182736
0.495659 1.000000 0.176489
0.781648 1.000000 0.170285
1.000000 1.000000 0.166568
0.000000 0.000000 0.572917
0.238310 0.000000 0.566408
0.532810 0.000000 0.557726
0.806958 0.000000 0.537636
1.000000 0.000000 0.523078
0.000000 0.238937 0.548337
0.225580 0.233110 0.549597
0.527398 0.225015 0.539023
0.814041 0.221996 0.522864
1.000000 0.223109 0.512479
0.000000 0.517220 0.518993
0.205037 0.513882 0.513260
0.507076 0.505772 0.502188
0.808790 0.497728 0.491421
1.000000 0.494455 0.485962
0.000000 0.788497 0.492542
0.199815 0.789593 0.481934
0.486831 0.786463 0.465771
0.788450 0.778413 0.455342
1.000000 0.772647 0.456872
0.000000 1.000000 0.482088
0.206775 1.000000 0.467307
0.481486 1.000000 0.447432
0.775797 1.000000 0.438805
1.000000 1.000000 0.432511
0.000000 0.000000 0.839395
0.232359 0.000000 0.835384
0.518536 0.000000 0.829125
0.804868 0.000000 0.822823
1.000000 0.000000 0.801214
0.000000 0.236448 0.821997
0.225262 0.231875 0.833758
0.518744 0.225995 0.825801
0.812418 0.220106 0.817360
1.000000 0.221784 0.798811
0.000000 0.511738 0.801001
0.211940 0.509658 0.805773
0.504953 0.503006 0.806834
0.806882 0.494941 0.795642
1.000000 0.492259 0.781692
0.000000 0.787162 0.778997
0.198432 0.787594 0.776804
0.484226 0.783896 0.769873
0.786771 0.775686 0.758306
1.000000 0.768665 0.749336
0.000000 1.000000 0.760346
0.205999 1.000000 0.753981
0.478437 1.000000 0.742200
0.768475 1.000000 0.726707
1.000000 1.000000 0.717792
0.000000 0.000827 1.000000
0.228613 0.000000 1.000000
0.507933 0.000000 1.000000
0.787252 0.000000 1.000000
1.000000 0.000000 1.000000
0.000000 0.235508 1.000000
0.226165 0.232026 1.000000
0.512476 0.228054 1.000000
0.798989 0.224083 1.000000
1.000000 0.220647 1.000000
0.000000 0.508244 1.000000
0.219069 0.507233 1.000000
0.504305 0.501842 1.000000
0.799351 0.495585 1.000000
1.000000 0.490475 1.000000
0.000000 0.781262 1.000000
0.211196 0.782754 1.000000
0.489433 0.780249 1.000000
0.784628 0.773211 1.000000
1.000000 0.766111 1.000000
0.000000 1.000000 0.999813
0.205329 1.000000 1.000000
0.477144 1.000000 0.997322
0.765751 1.000000 0.989245
1.000000 1.000000 0.978746
