assets/LUTs/rescue_teal_orange_33.cube
TITLE "Rescue Teal-Orange"
LUT_3D_SIZE 9
DOMAIN_MIN 0.0 0.0 0.0
DOMAIN_MAX 1.0 1.0 1.0
0.000000 0.003606 0.025686
0.111049 0.000000 0.020462
0.248279 0.000000 0.015328
0.392088 0.000000 0.010898
0.536732 0.000000 0.007509
0.677030 0.000000 0.005340
0.808393 0.000000 0.004402
0.926797 0.000000 0.004550
1.000000 0.000000 0.005500
0.000000 0.117715 0.008773
0.100850 0.113971 0.003497
0.239588 0.109884 0.000000
0.384988 0.106528 0.000000
0.531240 0.104213 0.000000
0.673106 0.103077 0.000000
0.805945 0.103100 0.000000
0.925688 0.104106 0.000000
1.000000 0.105790 0.000000
0.000000 0.245456 0.000000
0.090930 0.242208 0.000000
0.229448 0.238318 0.000000
0.376426 0.234333 0.000000
0.524300 0.231345 0.000000
0.667788 0.229537 0.000000
0.802195 0.228910 0.000000
0.923392 0.229313 0.000000
1.000000 0.230462 0.000000
0.000000 0.381609 0.000000
0.083763 0.378820 0.000000
0.220367 0.375443 0.000000
0.367377 0.371818 0.000000
0.517010 0.368121 0.000000
0.662245 0.365589 0.000000
0.798338 0.364263 0.000000
0.921102 0.364016 0.000000
1.000000 0.364557 0.000000
0.000000 0.521118 0.000000
0.080179 0.518725 0.000000
0.214802 0.515879 0.000000
0.359678 0.512825 0.000000
0.509660 0.509673 0.000000
0.656703 0.506391 0.000000
0.794542 0.504340 0.000000
0.918929 0.503421 0.000000
1.000000 0.503304 0.000000
0.000000 0.659102 0.000000
0.080498 0.657045 0.000000
0.213140 0.654729 0.000000
0.355884 0.652247 0.000000
0.503657 0.649686 0.000000
0.651362 0.647111 0.000000
0.790947 0.644337 0.000000
0.916956 0.642745 0.000000
1.000000 0.642051 0.000000
0.000000 0.790722 0.000000
0.084512 0.789119 0.000000
0.215241 0.787316 0.000000
0.355925 0.785385 0.000000
0.501565 0.783395 0.000000
0.647166 0.781417 0.000000
0.787666 0.779456 0.000000
0.915242 0.777214 0.000000
1.000000 0.776041 0.000000
0.000000 0.911672 0.000000
0.091504 0.910490 0.000000
0.220455 0.909163 0.000000
0.359226 0.907745 0.000000
0.502885 0.906286 0.000000
0.646504 0.904839 0.000000
0.785161 0.903451 0.000000
0.913818 0.902067 0.000000
1.000000 0.900517 0.000000
0.000000 1.000000 0.000000
0.099104 1.000000 0.000000
0.226584 1.000000 0.000000
0.363808 1.000000 0.000000
0.505904 1.000000 0.000000
0.648000 1.000000 0.000000
0.785224 1.000000 0.000000
0.912704 1.000000 0.000000
1.000000 1.000000 0.000000
0.000000 0.002319 0.150228
0.109723 0.000000 0.145562
0.247381 0.000000 0.139056
0.391334 0.000000 0.132684
0.536127 0.000000 0.127285
0.676574 0.000000 0.123106
0.808080 0.000000 0.120226
0.926618 0.000000 0.118571
1.000000 0.000000 0.117924
0.000000 0.116379 0.133850
0.099723 0.112671 0.129197
0.239898 0.108356 0.123379
0.386932 0.104754 0.118126
0.534916 0.102174 0.113886
0.678553 0.100762 0.110865
0.813141 0.100508 0.109104
0.934541 0.101248 0.108488
1.000000 0.102689 0.108762
0.000000 0.244312 0.116037
0.088798 0.241509 0.110290
0.228596 0.237305 0.104478
0.377361 0.233022 0.100886
0.527095 0.229734 0.098493
0.672443 0.227626 0.097331
0.808645 0.226710 0.097376
0.931511 0.226844 0.098447
1.000000 0.227756 0.100221
0.000000 0.380614 0.100355
0.080390 0.378840 0.093488
0.218219 0.375174 0.088148
0.366881 0.371106 0.082723
0.518369 0.367105 0.082236
0.665464 0.364272 0.083103
0.803352 0.362657 0.085109
0.927785 0.362142 0.088001
1.000000 0.362478 0.091387
0.000000 0.520277 0.088033
0.075324 0.519569 0.080008
0.211311 0.516379 0.075368
0.357840 0.512883 0.070565
0.509531 0.509272 0.065614
0.658434 0.505690 0.068583
0.798069 0.503350 0.072619
0.924124 0.502162 0.077396
1.000000 0.501903 0.082453
0.000000 0.658438 0.079696
0.074130 0.658726 0.070685
0.208307 0.656000 0.066790
0.352703 0.653075 0.062608
0.502186 0.650056 0.058289
0.651605 0.647026 0.054280
0.792986 0.643962 0.060345
0.920664 0.642102 0.067009
1.000000 0.641247 0.073734
0.000000 0.790435 0.075429
0.076848 0.791544 0.065832
0.209111 0.789330 0.062495
0.351448 0.786956 0.058913
0.498799 0.784509 0.055215
0.646110 0.782072 0.051527
0.788269 0.779675 0.048698
0.917513 0.777165 0.057182
1.000000 0.775735 0.065521
0.000000 0.911803 0.074795
0.082635 0.913606 0.064835
0.213121 0.911868 0.062016
0.353544 0.910007 0.058991
0.498914 0.908090 0.055870
0.644243 0.906184 0.052760
0.784552 0.904354 0.049767
0.914754 0.902570 0.048235
1.000000 0.900606 0.058071
0.000000 1.000000 0.076910
0.090381 1.000000 0.066775
0.219293 1.000000 0.064415
0.358022 1.000000 0.061883
0.501638 1.000000 0.059273
0.645213 1.000000 0.056674
0.783828 1.000000 0.054175
0.912568 1.000000 0.051862
1.000000 1.000000 0.051620
0.000000 0.001164 0.287101
0.107579 0.000000 0.283104
0.245734 0.000000 0.278050
0.390483 0.000000 0.270233
0.535444 0.000000 0.262564
0.676059 0.000000 0.256113
0.807728 0.000000 0.251041
0.926416 0.000000 0.247349
1.000000 0.000000 0.244898
0.000000 0.114672 0.272262
0.098796 0.111233 0.269859
0.238497 0.107007 0.264547
0.385951 0.103469 0.257432
0.534102 0.101068 0.250921
0.677908 0.099835 0.245629
0.812658 0.099754 0.241676
0.934209 0.100655 0.239022
1.000000 0.102238 0.237492
0.000000 0.242941 0.255338
0.087824 0.240036 0.251437
0.227367 0.235860 0.246098
0.378023 0.231272 0.239948
0.529778 0.227668 0.234746
0.677187 0.225232 0.230763
0.815418 0.223989 0.228073
0.940201 0.223810 0.226594
1.000000 0.224438 0.226103
0.000000 0.379490 0.237615
0.079427 0.377573 0.232553
0.215629 0.374522 0.225909
0.366031 0.370004 0.219827
0.519615 0.365659 0.216572
0.668810 0.362488 0.214606
0.808727 0.360546 0.213875
0.935045 0.359727 0.214225
1.000000 0.359795 0.215361
0.000000 0.519328 0.223082
0.074524 0.518477 0.216861
0.207123 0.516629 0.208909
0.355474 0.512650 0.203519
0.509097 0.508521 0.198011
0.660100 0.504601 0.198148
0.801764 0.501934 0.199447
0.929703 0.500443 0.201683
1.000000 0.499915 0.204489
0.000000 0.657663 0.212534
0.073324 0.657877 0.205155
0.202559 0.657137 0.196138
0.348821 0.653712 0.191413
0.500237 0.650175 0.186530
0.651591 0.646631 0.181906
0.795001 0.643241 0.185235
0.924563 0.641077 0.189357
1.000000 0.639953 0.193832
0.000000 0.789828 0.206131
0.075680 0.791071 0.197632
0.201899 0.791306 0.187835
0.346101 0.788433 0.183710
0.495384 0.785468 0.179449
0.644628 0.782514 0.175199
0.788661 0.779626 0.171716
0.919790 0.776812 0.177659
1.000000 0.775113 0.183747
0.000000 0.911353 0.203513
0.080962 0.913552 0.193975
0.204548 0.914625 0.183634
0.346837 0.912264 0.180066
0.494139 0.909829 0.176382
0.641401 0.907406 0.172709
0.783576 0.905076 0.169173
0.915523 0.902841 0.166972
1.000000 0.900608 0.174558
0.000000 1.000000 0.203872
0.088127 1.000000 0.193414
0.209516 1.000000 0.182736
0.350111 1.000000 0.179662
0.495659 1.000000 0.176489
0.641167 1.000000 0.173327
0.781648 1.000000 0.170285
0.912120 1.000000 0.167468
1.000000 1.000000 0.166568
0.000000 0.000273 0.429933
0.105613 0.000000 0.426646
0.241903 0.000000 0.422136
0.388645 0.000000 0.417270
0.534709 0.000000 0.408172
0.675505 0.000000 0.399277
0.807349 0.000000 0.391845
0.926200 0.000000 0.385959
1.000000 0.000000 0.381567
0.000000 0.113187 0.416751
0.098141 0.110037 0.416771
0.235962 0.106297 0.412181
0.384398 0.102290 0.406822
0.533228 0.099878 0.398419
0.677214 0.098838 0.390683
0.812140 0.098943 0.384370
0.933853 0.100018 0.379524
1.000000 0.101754 0.376052
0.000000 0.240784 0.401698
0.088791 0.238169 0.400220
0.226305 0.234319 0.397617
0.376639 0.229791 0.391833
0.528745 0.226309 0.384380
0.676335 0.224066 0.377953
0.814741 0.223009 0.372903
0.939687 0.223004 0.369231
1.000000 0.223785 0.366799
0.000000 0.378208 0.385301
0.078546 0.376167 0.382210
0.214493 0.372968 0.377786
0.364777 0.368463 0.371917
0.520589 0.363756 0.365683
0.672059 0.360218 0.360664
0.814171 0.357921 0.356986
0.942517 0.356775 0.354599
1.000000 0.356553 0.353313
0.000000 0.518305 0.368464
0.073662 0.517301 0.364184
0.206099 0.515280 0.358425
0.352584 0.512046 0.351146
0.508287 0.507360 0.345030
0.661552 0.503075 0.342117
0.805399 0.500057 0.340471
0.935367 0.498239 0.339971
1.000000 0.497422 0.340354
0.000000 0.656828 0.355535
0.072639 0.656889 0.350097
0.201472 0.656071 0.343029
0.344299 0.654044 0.334574
0.497795 0.649950 0.329086
0.651234 0.645854 0.323789
0.796828 0.642112 0.324173
0.928418 0.639622 0.325558
1.000000 0.638209 0.327611
0.000000 0.789175 0.346833
0.075165 0.790265 0.340276
0.200518 0.790609 0.331945
0.340003 0.789669 0.322557
0.491366 0.786147 0.317691
0.642690 0.782635 0.312836
0.788741 0.779219 0.308639
0.921898 0.776079 0.311846
1.000000 0.774091 0.315511
0.000000 0.910868 0.342080
0.080606 0.912914 0.334483
0.202726 0.914338 0.324978
0.339275 0.914340 0.314906
0.488657 0.911348 0.310616
0.637999 0.908367 0.306338
0.782182 0.905499 0.302217
0.916009 0.902779 0.299287
1.000000 0.900257 0.304451
0.000000 1.000000 0.340548
0.087910 1.000000 0.332031
0.207168 1.000000 0.321487
0.341252 1.000000 0.310954
0.488880 1.000000 0.307176
0.636468 1.000000 0.303408
0.778958 1.000000 0.299781
0.911296 1.000000 0.296421
1.000000 1.000000 0.294804
0.000000 0.000000 0.572917
0.103953 0.000000 0.570356
0.238310 0.000000 0.566408
0.382972 0.000000 0.562148
0.532810 0.000000 0.557726
0.674933 0.000000 0.547513
0.806958 0.000000 0.537636
0.925977 0.000000 0.529480
1.000000 0.000000 0.523078
0.000000 0.112034 0.561451
0.097835 0.109184 0.563979
0.233712 0.105948 0.560127
0.380068 0.102498 0.555373
0.531660 0.098914 0.550440
0.676497 0.097806 0.540877
0.811603 0.098104 0.532119
0.933485 0.099358 0.525002
1.000000 0.101253 0.519521
0.000000 0.238937 0.548337
0.090166 0.236621 0.549367
0.225580 0.233110 0.549597
0.373826 0.229129 0.544534
0.527398 0.225015 0.539023
0.675454 0.222860 0.530358
0.814041 0.221996 0.522864
0.939155 0.222170 0.516921
1.000000 0.223109 0.512479
0.000000 0.375612 0.534025
0.081729 0.373871 0.533443
0.215577 0.371010 0.531852
0.363599 0.366869 0.529033
0.519300 0.362180 0.522954
0.671001 0.358824 0.515450
0.813333 0.356709 0.509316
0.941928 0.355721 0.504637
1.000000 0.355631 0.501314
0.000000 0.517220 0.518993
0.072796 0.516075 0.516741
0.205037 0.513882 0.513260
0.351324 0.510462 0.508408
0.507076 0.505772 0.502188
0.662682 0.501110 0.496116
0.808790 0.497728 0.491421
0.940858 0.495572 0.488087
1.000000 0.494455 0.485962
0.000000 0.655962 0.503625
0.071928 0.655865 0.500197
0.200593 0.654868 0.495399
0.343001 0.652743 0.489139
0.494892 0.649331 0.481632
0.650491 0.644664 0.475628
0.798346 0.640558 0.472962
0.932037 0.637729 0.471514
1.000000 0.636016 0.471059
0.000000 0.788497 0.492542
0.074631 0.789428 0.487995
0.199815 0.789593 0.481934
0.338477 0.788720 0.474313
0.486831 0.786463 0.465771
0.640308 0.782375 0.460288
0.788450 0.778413 0.455342
0.923708 0.774935 0.455715
1.000000 0.772647 0.456872
0.000000 0.910365 0.485577
0.080236 0.912252 0.479991
0.202187 0.913497 0.472756
0.337369 0.913785 0.463871
0.482605 0.912534 0.454547
0.634101 0.908977 0.449641
0.780365 0.905551 0.444915
0.916139 0.902330 0.441219
1.000000 0.899508 0.443874
0.000000 1.000000 0.482088
0.087685 1.000000 0.475581
0.206775 1.000000 0.467307
0.338875 1.000000 0.457303
0.481486 1.000000 0.447432
0.631228 1.000000 0.443038
0.775797 1.000000 0.438805
0.910069 1.000000 0.434882
1.000000 1.000000 0.432511
0.000000 0.000000 0.710896
0.102674 0.000000 0.709049
0.235099 0.000000 0.705663
0.377681 0.000000 0.702009
0.525365 0.000000 0.698214
0.673088 0.000000 0.694408
0.806568 0.000000 0.683416
0.925756 0.000000 0.672989
1.000000 0.000000 0.664577
0.000000 0.111274 0.701147
0.097911 0.108723 0.706183
0.231843 0.105992 0.703056
0.376119 0.103099 0.698909
0.525557 0.100092 0.694603
0.675034 0.097075 0.690285
0.811068 0.097266 0.679857
0.933118 0.098699 0.670470
1.000000 0.100753 0.662978
0.000000 0.237481 0.689970
0.091921 0.235465 0.693509
0.225235 0.232293 0.696572
0.371393 0.228861 0.692218
0.522812 0.225324 0.687335
0.674271 0.221776 0.682441
0.813341 0.220984 0.672813
0.938624 0.221337 0.664600
1.000000 0.222435 0.658147
0.000000 0.373408 0.677745
0.085293 0.371967 0.679671
0.217040 0.369444 0.680914
0.362802 0.365668 0.681144
0.516345 0.361552 0.675733
0.669937 0.357433 0.670217
0.812458 0.355509 0.661646
0.941220 0.354700 0.654696
1.000000 0.354769 0.649363
0.000000 0.514242 0.664873
0.078232 0.513396 0.665130
0.208357 0.511546 0.664486
0.352372 0.508493 0.662686
0.505813 0.504175 0.659588
0.661510 0.499505 0.653334
0.807903 0.496287 0.646165
0.940270 0.494275 0.640524
1.000000 0.493279 0.636349
0.000000 0.655096 0.651725
0.071217 0.654840 0.650307
0.199713 0.653663 0.647781
0.341940 0.651346 0.643964
0.493488 0.647798 0.638814
0.649368 0.643082 0.632471
0.799483 0.638611 0.626756
0.935275 0.635444 0.622475
1.000000 0.633432 0.619511
0.000000 0.787818 0.638262
0.074096 0.788591 0.635726
0.199112 0.788577 0.631935
0.337593 0.787510 0.626759
0.485262 0.785257 0.620200
0.637546 0.781722 0.612757
0.787779 0.777215 0.607050
0.925138 0.773398 0.604590
1.000000 0.770811 0.603238
0.000000 0.909861 0.629086
0.079865 0.911589 0.625510
0.201648 0.912655 0.620545
0.336649 0.912750 0.614105
0.480714 0.911701 0.606237
0.629822 0.909193 0.597960
0.778166 0.905210 0.592629
0.915888 0.901488 0.588155
1.000000 0.898367 0.588302
0.000000 1.000000 0.623638
0.087460 1.000000 0.619142
0.206381 1.000000 0.613139
0.338300 1.000000 0.605579
0.479175 1.000000 0.596553
0.625607 1.000000 0.587683
0.772256 1.000000 0.582845
0.908460 1.000000 0.578359
1.000000 1.000000 0.575223
0.000000 0.000000 0.839395
0.101800 0.000000 0.838226
0.232359 0.000000 0.835384
0.372932 0.000000 0.832314
0.518536 0.000000 0.829125
0.664180 0.000000 0.825924
0.804868 0.000000 0.822823
0.925542 0.000000 0.811568
1.000000 0.000000 0.801214
0.000000 0.110912 0.831302
0.098344 0.108651 0.838761
0.230399 0.106408 0.836325
0.372667 0.104053 0.832762
0.520025 0.101603 0.829061
0.667423 0.099143 0.825349
0.809804 0.096758 0.821754
0.932764 0.098064 0.810939
1.000000 0.100271 0.801506
0.000000 0.236448 0.821997
0.093977 0.234721 0.827959
0.225262 0.231875 0.833758
0.369405 0.228975 0.830079
0.518744 0.225995 0.825801
0.668123 0.223004 0.821512
0.812418 0.220106 0.817360
0.938112 0.220533 0.807205
1.000000 0.221784 0.798811
0.000000 0.371653 0.811787
0.089096 0.370501 0.816136
0.218814 0.368305 0.820114
0.362392 0.364880 0.823289
0.513854 0.361319 0.818512
0.665366 0.357758 0.813602
0.811613 0.354351 0.808743
0.940538 0.353715 0.799600
1.000000 0.353937 0.792325
0.000000 0.511738 0.801001
0.083844 0.511181 0.803680
0.211940 0.509658 0.805773
0.353771 0.506957 0.806918
0.504953 0.503006 0.806834
0.658673 0.498853 0.801281
0.806882 0.494941 0.795642
0.939411 0.493102 0.787808
1.000000 0.492259 0.781692
0.000000 0.651904 0.789999
0.078390 0.651943 0.791009
0.204864 0.651093 0.791215
0.344949 0.649116 0.790331
0.494318 0.645910 0.788206
0.648077 0.641532 0.784758
0.798448 0.637035 0.778556
0.934581 0.633993 0.772031
1.000000 0.632084 0.767073
0.000000 0.787162 0.778997
0.073579 0.787782 0.778401
0.198432 0.787594 0.776804
0.336738 0.786342 0.773988
0.484226 0.783896 0.769873
0.636059 0.780281 0.764539
0.786771 0.775686 0.758306
0.926158 0.771542 0.753110
1.000000 0.768665 0.749336
0.000000 0.909373 0.767684
0.079506 0.910948 0.766050
0.201127 0.911841 0.763278
0.335952 0.911750 0.759198
0.479836 0.910508 0.753775
0.628066 0.908096 0.747132
0.775681 0.904508 0.740038
0.915286 0.900303 0.734804
1.000000 0.896892 0.732528
0.000000 1.000000 0.760346
0.087241 1.000000 0.757792
0.205999 1.000000 0.753981
0.337744 1.000000 0.748782
0.478437 1.000000 0.742200
0.623477 1.000000 0.734399
0.768475 1.000000 0.726707
0.906544 1.000000 0.721678
1.000000 1.000000 0.717792
0.000000 0.000367 0.954587
0.101306 0.000000 0.954039
0.230132 0.000000 0.951702
0.368839 0.000000 0.949176
0.512511 0.000000 0.946549
0.656222 0.000000 0.943911
0.795044 0.000000 0.941352
0.924042 0.000000 0.938966
1.000000 0.000000 0.928140
0.000000 0.110904 0.948034
0.099064 0.108911 0.957743
0.229377 0.107122 0.955939
0.369778 0.105267 0.952919
0.515204 0.103335 0.949781
0.660669 0.101393 0.946632
0.801185 0.099507 0.943580
0.931757 0.097746 0.940736
1.000000 0.099824 0.930188
0.000000 0.235816 0.940468
0.096205 0.234358 0.948679
0.225606 0.231816 0.957021
0.367877 0.229409 0.953959
0.515284 0.226947 0.950244
0.662730 0.224474 0.946517
0.805160 0.222075 0.942908
0.937509 0.219838 0.939546
1.000000 0.221181 0.929477
0.000000 0.370349 0.932129
0.092946 0.369466 0.938728
0.220780 0.367574 0.945248
0.362330 0.364476 0.951160
0.511858 0.361432 0.946962
0.661437 0.358387 0.942614
0.805926 0.355437 0.938405
0.939905 0.352800 0.934206
1.000000 0.353165 0.925127
0.000000 0.509739 0.923281
0.089374 0.509452 0.928211
0.215586 0.508232 0.932845
0.355389 0.505858 0.936727
0.504473 0.502248 0.939434
0.656261 0.498613 0.934443
0.802883 0.495091 0.929612
0.938614 0.492013 0.924625
1.000000 0.491312 0.916705
0.000000 0.649211 0.914217
0.085601 0.649519 0.917477
0.210190 0.648971 0.920226
0.348247 0.647322 0.922077
0.495516 0.644454 0.922785
0.647181 0.640423 0.922069
0.795935 0.636330 0.916618
0.933620 0.632729 0.911059
1.000000 0.630963 0.904297
0.000000 0.783978 0.905259
0.081767 0.784861 0.906906
0.204789 0.784963 0.907834
0.341159 0.784013 0.907725
0.486681 0.781869 0.906403
0.636589 0.778546 0.903850
0.785521 0.774231 0.900080
0.925282 0.770047 0.894175
1.000000 0.767252 0.888532
0.000000 0.908919 0.896451
0.079172 0.910352 0.896620
0.200641 0.911084 0.895886
0.335305 0.910820 0.893999
0.479020 0.909398 0.890846
0.627082 0.906808 0.886474
0.774192 0.903197 0.881094
0.914408 0.898875 0.875222
1.000000 0.895195 0.870696
0.000000 1.000000 0.887357
0.087037 1.000000 0.886605
0.205644 1.000000 0.884832
0.337226 1.000000 0.881826
0.477752 1.000000 0.877514
0.622623 1.000000 0.871984
0.766651 1.000000 0.865485
0.904446 1.000000 0.859012
1.000000 1.000000 0.854420
0.000000 0.000827 1.000000
0.101133 0.000015 1.000000
0.228613 0.000000 1.000000
0.365837 0.000000 1.000000
0.507933 0.000000 1.000000
0.650028 0.000000 1.000000
0.787252 0.000000 1.000000
0.914733 0.000000 1.000000
1.000000 0.000000 1.000000
0.000000 0.111032 1.000000
0.099957 0.109405 1.000000
0.228727 0.108019 1.000000
0.367477 0.106606 1.000000
0.511192 0.105133 1.000000
0.654947 0.103649 1.000000
0.793810 0.102205 1.000000
0.922847 0.100856 1.000000
1.000000 0.099653 1.000000
0.000000 0.235508 1.000000
0.098433 0.234300 1.000000
0.226165 0.232026 1.000000
0.366780 0.230058 1.000000
0.512476 0.228054 1.000000
0.658212 0.226039 1.000000
0.798989 0.224083 1.000000
0.929804 0.222257 1.000000
1.000000 0.220647 1.000000
0.000000 0.369498 1.000000
0.096611 0.368814 1.000000
0.222776 0.367190 1.000000
0.362529 0.364381 1.000000
0.510347 0.361795 1.000000
0.658215 0.359209 1.000000
0.801052 0.356701 1.000000
0.933780 0.354363 1.000000
1.000000 0.352482 1.000000
0.000000 0.508244 1.000000
0.094526 0.508184 1.000000
0.219069 0.507233 1.000000
0.357076 0.505148 1.000000
0.504305 0.501842 1.000000
0.654382 0.498664 1.000000
0.799351 0.495585 1.000000
0.934060 0.492716 1.000000
1.000000 0.490475 1.000000
0.000000 0.647089 1.000000
0.092241 0.647635 1.000000
0.215161 0.647357 1.000000
0.351422 0.645996 1.000000
0.496831 0.643428 1.000000
0.646644 0.639704 1.000000
0.793746 0.636054 1.000000
0.930437 0.632655 1.000000
1.000000 0.629971 1.000000
0.000000 0.781262 1.000000
0.089843 0.782383 1.000000
0.211196 0.782754 1.000000
0.345771 0.782093 1.000000
0.489433 0.780249 1.000000
0.637482 0.777225 1.000000
0.784628 0.773211 1.000000
0.923232 0.769299 1.000000
1.000000 0.766111 1.000000
0.000000 0.905976 1.000000
0.087447 0.907631 1.000000
0.207345 0.908606 1.000000
0.340353 0.908594 1.000000
0.482393 0.907423 1.000000
0.628819 0.905072 1.000000
0.774387 0.901682 1.000000
0.913276 0.897565 1.000000
1.000000 0.893840 0.995688
0.000000 1.000000 0.999813
0.086855 1.000000 1.000000
0.205329 1.000000 1.000000
0.336768 1.000000 0.999623
0.477144 1.000000 0.997322
0.621866 1.000000 0.993802
0.765751 1.000000 0.989245
0.903051 1.000000 0.983993
1.000000 1.000000 0.978746
