assets/LUTs/rescue_cool_clean_33.cube
TITLE "Rescue Cool Clean"
LUT_3D_SIZE 33
DOMAIN_MIN 0.0 0.0 0.0
DOMAIN_MAX 1.0 1.0 1.0
0.000000 0.001705 0.011193
0.016884 0.001498 0.010985
0.045113 0.001154 0.010642
0.074075 0.000801 0.010289
0.103719 0.000440 0.009928
0.133997 0.000071 0.009559
0.164858 0.000000 0.009183
0.196255 0.000000 0.008801
0.228137 0.000000 0.008412
0.260454 0.000000 0.008019
0.293159 0.000000 0.007620
0.326201 0.000000 0.007218
0.359532 0.000000 0.006812
0.393101 0.000000 0.006403
0.426860 0.000000 0.005992
0.460759 0.000000 0.005579
0.494749 0.000000 0.005165
0.528781 0.000000 0.004750
0.562805 0.000000 0.004336
0.596772 0.000000 0.003922
0.630633 0.000000 0.003510
0.664338 0.000000 0.003099
0.697839 0.000000 0.002691
0.731085 0.000000 0.002286
0.764028 0.000000 0.001885
0.796618 0.000000 0.001488
0.828806 0.000000 0.001096
0.860542 0.000000 0.000709
0.891778 0.000000 0.000329
0.922464 0.000000 0.000000
0.952550 0.000000 0.000000
0.981988 0.000000 0.000000
1.000000 0.000000 0.000000
0.000000 0.029499 0.010020
0.015711 0.029292 0.009813
0.043941 0.028948 0.009469
0.072902 0.028595 0.009116
0.102546 0.028234 0.008755
0.132824 0.027866 0.008386
0.163686 0.027490 0.008010
0.195082 0.027107 0.007628
0.226964 0.026719 0.007240
0.259282 0.026325 0.006846
0.291986 0.025927 0.006448
0.325029 0.025524 0.006045
0.358359 0.025118 0.005639
0.391928 0.024710 0.005230
0.425687 0.024298 0.004819
0.459586 0.023885 0.004406
0.493576 0.023471 0.003992
0.527608 0.023057 0.003578
0.561632 0.022642 0.003163
0.595599 0.022229 0.002749
0.629460 0.021816 0.002337
0.663166 0.021406 0.001926
0.696666 0.020998 0.001518
0.729912 0.020593 0.001113
0.762855 0.020191 0.000712
0.795445 0.019795 0.000315
0.827633 0.019402 0.000000
0.859369 0.019016 0.000000
0.890605 0.018635 0.000000
0.921291 0.018262 0.000000
0.951377 0.017895 0.000000
0.980815 0.017537 0.000000
1.000000 0.017187 0.000000
0.000000 0.058072 0.008814
0.014505 0.057865 0.008607
0.042735 0.057521 0.008263
0.071697 0.057169 0.007911
0.101341 0.056808 0.007550
0.131619 0.056439 0.007181
0.162480 0.056063 0.006805
0.193877 0.055680 0.006422
0.225758 0.055292 0.006034
0.258076 0.054898 0.005640
0.290781 0.054500 0.005242
0.323823 0.054098 0.004840
0.357153 0.053692 0.004434
0.390723 0.053283 0.004025
0.424482 0.052872 0.003614
0.458381 0.052459 0.003201
0.492371 0.052045 0.002787
0.526403 0.051630 0.002372
0.560427 0.051216 0.001958
0.594394 0.050802 0.001544
0.628255 0.050389 0.001131
0.661960 0.049979 0.000721
0.695460 0.049571 0.000313
0.728707 0.049166 0.000000
0.761650 0.048765 0.000000
0.794240 0.048368 0.000000
0.826427 0.047976 0.000000
0.858164 0.047589 0.000000
0.889400 0.047209 0.000000
0.920085 0.046835 0.000000
0.950172 0.046468 0.000000
0.979610 0.046110 0.000000
1.000000 0.045760 0.000000
0.000000 0.087372 0.007578
0.013269 0.087165 0.007371
0.041499 0.086821 0.007027
0.070461 0.086469 0.006674
0.100105 0.086107 0.006313
0.130382 0.085739 0.005945
0.161244 0.085363 0.005569
0.192640 0.084980 0.005186
0.224522 0.084592 0.004798
0.256840 0.084198 0.004404
0.289545 0.083800 0.004006
0.322587 0.083397 0.003603
0.355917 0.082992 0.003197
0.389487 0.082583 0.002789
0.423245 0.082171 0.002377
0.457145 0.081759 0.001964
0.491135 0.081344 0.001550
0.525166 0.080930 0.001136
0.559190 0.080516 0.000721
0.593158 0.080102 0.000308
0.627019 0.079689 0.000000
0.660724 0.079279 0.000000
0.694224 0.078871 0.000000
0.727471 0.078466 0.000000
0.760413 0.078065 0.000000
0.793003 0.077668 0.000000
0.825191 0.077276 0.000000
0.856928 0.076889 0.000000
0.888163 0.076508 0.000000
0.918849 0.076135 0.000000
0.948936 0.075768 0.000000
0.978373 0.075410 0.000000
1.000000 0.075060 0.000000
0.000000 0.117347 0.006314
0.012005 0.117140 0.006106
0.040234 0.116796 0.005763
0.069196 0.116443 0.005410
0.098840 0.116082 0.005049
0.129118 0.115713 0.004680
0.159979 0.115337 0.004304
0.191376 0.114955 0.003922
0.223257 0.114566 0.003533
0.255575 0.114173 0.003140
0.288280 0.113774 0.002741
0.321322 0.113372 0.002339
0.354653 0.112966 0.001933
0.388222 0.112557 0.001524
0.421981 0.112146 0.001113
0.455880 0.111733 0.000700
0.489870 0.111319 0.000286
0.523902 0.110904 0.000000
0.557926 0.110490 0.000000
0.591893 0.110076 0.000000
0.625754 0.109664 0.000000
0.659459 0.109253 0.000000
0.692960 0.108845 0.000000
0.726206 0.108440 0.000000
0.759149 0.108039 0.000000
0.791739 0.107642 0.000000
0.823927 0.107250 0.000000
0.855663 0.106863 0.000000
0.886899 0.106483 0.000000
0.917585 0.106109 0.000000
0.947671 0.105743 0.000000
0.977109 0.105384 0.000000
1.000000 0.105034 0.000000
0.000000 0.147944 0.005023
0.010714 0.147736 0.004815
0.038943 0.147393 0.004472
0.067905 0.147040 0.004119
0.097549 0.146679 0.003758
0.127827 0.146310 0.003389
0.158688 0.145934 0.003013
0.190085 0.145552 0.002631
0.221967 0.145163 0.002242
0.254284 0.144770 0.001849
0.286989 0.144371 0.001450
0.320031 0.143969 0.001048
0.353362 0.143563 0.000642
0.386931 0.143154 0.000233
0.420690 0.142743 0.000000
0.454589 0.142330 0.000000
0.488579 0.141916 0.000000
0.522611 0.141501 0.000000
0.556635 0.141087 0.000000
0.590602 0.140673 0.000000
0.624463 0.140261 0.000000
0.658168 0.139850 0.000000
0.691669 0.139442 0.000000
0.724915 0.139037 0.000000
0.757858 0.138636 0.000000
0.790448 0.138239 0.000000
0.822636 0.137847 0.000000
0.854372 0.137460 0.000000
0.885608 0.137080 0.000000
0.916294 0.136706 0.000000
0.946380 0.136340 0.000000
0.975818 0.135981 0.000000
1.000000 0.135631 0.000000
0.000000 0.179111 0.003708
0.009399 0.178904 0.003501
0.037628 0.178560 0.003157
0.066590 0.178207 0.002804
0.096234 0.177846 0.002443
0.126512 0.177477 0.002074
0.157373 0.177101 0.001698
0.188770 0.176719 0.001316
0.220652 0.176330 0.000927
0.252969 0.175937 0.000534
0.285674 0.175538 0.000135
0.318716 0.175136 0.000000
0.352047 0.174730 0.000000
0.385616 0.174321 0.000000
0.419375 0.173910 0.000000
0.453274 0.173497 0.000000
0.487264 0.173083 0.000000
0.521296 0.172668 0.000000
0.555320 0.172254 0.000000
0.589287 0.171840 0.000000
0.623148 0.171428 0.000000
0.656853 0.171017 0.000000
0.690354 0.170609 0.000000
0.723600 0.170204 0.000000
0.756543 0.169803 0.000000
0.789133 0.169406 0.000000
0.821321 0.169014 0.000000
0.853057 0.168627 0.000000
0.884293 0.168247 0.000000
0.914979 0.167873 0.000000
0.945065 0.167507 0.000000
0.974503 0.167148 0.000000
1.000000 0.166798 0.000000
0.000000 0.210796 0.002371
0.008062 0.210589 0.002164
0.036292 0.210245 0.001820
0.065253 0.209892 0.001467
0.094897 0.209531 0.001106
0.125175 0.209162 0.000737
0.156037 0.208786 0.000361
0.187433 0.208404 0.000000
0.219315 0.208016 0.000000
0.251633 0.207622 0.000000
0.284337 0.207224 0.000000
0.317380 0.206821 0.000000
0.350710 0.206415 0.000000
0.384279 0.206006 0.000000
0.418038 0.205595 0.000000
0.451937 0.205182 0.000000
0.485927 0.204768 0.000000
0.519959 0.204354 0.000000
0.553983 0.203939 0.000000
0.587950 0.203525 0.000000
0.621811 0.203113 0.000000
0.655516 0.202702 0.000000
0.689017 0.202294 0.000000
0.722263 0.201889 0.000000
0.755206 0.201488 0.000000
0.787796 0.201091 0.000000
0.819984 0.200699 0.000000
0.851720 0.200313 0.000000
0.882956 0.199932 0.000000
0.913642 0.199558 0.000000
0.943728 0.199192 0.000000
0.973166 0.198833 0.000000
1.000000 0.198483 0.000000
0.000000 0.242947 0.001014
0.006705 0.242740 0.000807
0.034935 0.242396 0.000463
0.063897 0.242043 0.000111
0.093541 0.241682 0.000000
0.123818 0.241313 0.000000
0.154680 0.240938 0.000000
0.186076 0.240555 0.000000
0.217958 0.240167 0.000000
0.250276 0.239773 0.000000
0.282981 0.239375 0.000000
0.316023 0.238972 0.000000
0.349353 0.238566 0.000000
0.382923 0.238157 0.000000
0.416682 0.237746 0.000000
0.450581 0.237333 0.000000
0.484571 0.236919 0.000000
0.518603 0.236505 0.000000
0.552627 0.236090 0.000000
0.586594 0.235677 0.000000
0.620455 0.235264 0.000000
0.654160 0.234854 0.000000
0.687660 0.234446 0.000000
0.720907 0.234041 0.000000
0.753849 0.233639 0.000000
0.786439 0.233242 0.000000
0.818627 0.232850 0.000000
0.850364 0.232464 0.000000
0.881600 0.232083 0.000000
0.912285 0.231710 0.000000
0.942372 0.231343 0.000000
0.971810 0.230985 0.000000
1.000000 0.230634 0.000000
0.000000 0.275512 0.000000
0.005331 0.275305 0.000000
0.033561 0.274961 0.000000
0.062523 0.274608 0.000000
0.092167 0.274247 0.000000
0.122445 0.273879 0.000000
0.153306 0.273503 0.000000
0.184703 0.273120 0.000000
0.216584 0.272732 0.000000
0.248902 0.272338 0.000000
0.281607 0.271940 0.000000
0.314649 0.271537 0.000000
0.347979 0.271131 0.000000
0.381549 0.270723 0.000000
0.415308 0.270311 0.000000
0.449207 0.269898 0.000000
0.483197 0.269484 0.000000
0.517229 0.269070 0.000000
0.551253 0.268655 0.000000
0.585220 0.268242 0.000000
0.619081 0.267829 0.000000
0.652786 0.267419 0.000000
0.686286 0.267011 0.000000
0.719533 0.266606 0.000000
0.752476 0.266204 0.000000
0.785066 0.265807 0.000000
0.817253 0.265415 0.000000
0.848990 0.265029 0.000000
0.880226 0.264648 0.000000
0.910911 0.264275 0.000000
0.940998 0.263908 0.000000
0.970436 0.263550 0.000000
0.999175 0.263199 0.000000
0.000000 0.308439 0.000000
0.003942 0.308232 0.000000
0.032172 0.307888 0.000000
0.061133 0.307535 0.000000
0.090778 0.307174 0.000000
0.121055 0.306805 0.000000
0.151917 0.306429 0.000000
0.183313 0.306047 0.000000
0.215195 0.305659 0.000000
0.247513 0.305265 0.000000
0.280218 0.304867 0.000000
0.313260 0.304464 0.000000
0.346590 0.304058 0.000000
0.380160 0.303649 0.000000
0.413918 0.303238 0.000000
0.447818 0.302825 0.000000
0.481808 0.302411 0.000000
0.515839 0.301997 0.000000
0.549863 0.301582 0.000000
0.583831 0.301168 0.000000
0.617691 0.300756 0.000000
0.651397 0.300345 0.000000
0.684897 0.299937 0.000000
0.718144 0.299532 0.000000
0.751086 0.299131 0.000000
0.783676 0.298734 0.000000
0.815864 0.298342 0.000000
0.847601 0.297956 0.000000
0.878836 0.297575 0.000000
0.909522 0.297201 0.000000
0.939609 0.296835 0.000000
0.969046 0.296476 0.000000
0.997786 0.296126 0.000000
0.000000 0.341675 0.000000
0.002540 0.341468 0.000000
0.030770 0.341124 0.000000
0.059731 0.340771 0.000000
0.089375 0.340410 0.000000
0.119653 0.340042 0.000000
0.150515 0.339666 0.000000
0.181911 0.339283 0.000000
0.213793 0.338895 0.000000
0.246111 0.338501 0.000000
0.278815 0.338103 0.000000
0.311858 0.337700 0.000000
0.345188 0.337294 0.000000
0.378757 0.336885 0.000000
0.412516 0.336474 0.000000
0.446415 0.336061 0.000000
0.480405 0.335647 0.000000
0.514437 0.335233 0.000000
0.548461 0.334818 0.000000
0.582428 0.334405 0.000000
0.616289 0.333992 0.000000
0.649995 0.333582 0.000000
0.683495 0.333174 0.000000
0.716741 0.332769 0.000000
0.749684 0.332367 0.000000
0.782274 0.331970 0.000000
0.814462 0.331578 0.000000
0.846198 0.331192 0.000000
0.877434 0.330811 0.000000
0.908120 0.330438 0.000000
0.938206 0.330071 0.000000
0.967644 0.329713 0.000000
0.996384 0.329362 0.000000
0.000000 0.375169 0.000000
0.001127 0.374962 0.000000
0.029356 0.374618 0.000000
0.058318 0.374265 0.000000
0.087962 0.373904 0.000000
0.118240 0.373535 0.000000
0.149102 0.373159 0.000000
0.180498 0.372777 0.000000
0.212380 0.372388 0.000000
0.244698 0.371995 0.000000
0.277402 0.371596 0.000000
0.310444 0.371194 0.000000
0.343775 0.370788 0.000000
0.377344 0.370379 0.000000
0.411103 0.369968 0.000000
0.445002 0.369555 0.000000
0.478992 0.369141 0.000000
0.513024 0.368726 0.000000
0.547048 0.368312 0.000000
0.581015 0.367898 0.000000
0.614876 0.367486 0.000000
0.648581 0.367075 0.000000
0.682082 0.366667 0.000000
0.715328 0.366262 0.000000
0.748271 0.365861 0.000000
0.780861 0.365464 0.000000
0.813049 0.365072 0.000000
0.844785 0.364685 0.000000
0.876021 0.364305 0.000000
0.906707 0.363931 0.000000
0.936793 0.363565 0.000000
0.966231 0.363206 0.000000
0.994971 0.362856 0.000000
0.000000 0.408868 0.000000
0.000000 0.408661 0.000000
0.027935 0.408317 0.000000
0.056896 0.407964 0.000000
0.086541 0.407603 0.000000
0.116818 0.407234 0.000000
0.147680 0.406858 0.000000
0.179076 0.406476 0.000000
0.210958 0.406087 0.000000
0.243276 0.405694 0.000000
0.275980 0.405295 0.000000
0.309023 0.404893 0.000000
0.342353 0.404487 0.000000
0.375922 0.404078 0.000000
0.409681 0.403667 0.000000
0.443580 0.403254 0.000000
0.477570 0.402840 0.000000
0.511602 0.402425 0.000000
0.545626 0.402011 0.000000
0.579593 0.401597 0.000000
0.613454 0.401185 0.000000
0.647160 0.400774 0.000000
0.680660 0.400366 0.000000
0.713906 0.399961 0.000000
0.746849 0.399560 0.000000
0.779439 0.399163 0.000000
0.811627 0.398771 0.000000
0.843363 0.398384 0.000000
0.874599 0.398004 0.000000
0.905285 0.397630 0.000000
0.935371 0.397264 0.000000
0.964809 0.396905 0.000000
0.993549 0.396555 0.000000
0.000000 0.442720 0.000000
0.000000 0.442513 0.000000
0.026506 0.442169 0.000000
0.055468 0.441816 0.000000
0.085112 0.441455 0.000000
0.115390 0.441086 0.000000
0.146252 0.440710 0.000000
0.177648 0.440328 0.000000
0.209530 0.439939 0.000000
0.241848 0.439546 0.000000
0.274552 0.439147 0.000000
0.307594 0.438745 0.000000
0.340925 0.438339 0.000000
0.374494 0.437930 0.000000
0.408253 0.437519 0.000000
0.442152 0.437106 0.000000
0.476142 0.436692 0.000000
0.510174 0.436277 0.000000
0.544198 0.435863 0.000000
0.578165 0.435449 0.000000
0.612026 0.435037 0.000000
0.645731 0.434626 0.000000
0.679232 0.434218 0.000000
0.712478 0.433813 0.000000
0.745421 0.433412 0.000000
0.778011 0.433015 0.000000
0.810199 0.432623 0.000000
0.841935 0.432236 0.000000
0.873171 0.431856 0.000000
0.903857 0.431482 0.000000
0.933943 0.431116 0.000000
0.963381 0.430757 0.000000
0.992121 0.430407 0.000000
0.000000 0.476673 0.000000
0.000000 0.476465 0.000000
0.025074 0.476122 0.000000
0.054036 0.475769 0.000000
0.083680 0.475408 0.000000
0.113957 0.475039 0.000000
0.144819 0.474663 0.000000
0.176215 0.474281 0.000000
0.208097 0.473892 0.000000
0.240415 0.473499 0.000000
0.273120 0.473100 0.000000
0.306162 0.472698 0.000000
0.339492 0.472292 0.000000
0.373062 0.471883 0.000000
0.406820 0.471472 0.000000
0.440720 0.471059 0.000000
0.474710 0.470645 0.000000
0.508741 0.470230 0.000000
0.542765 0.469816 0.000000
0.576733 0.469402 0.000000
0.610594 0.468990 0.000000
0.644299 0.468579 0.000000
0.677799 0.468171 0.000000
0.711046 0.467766 0.000000
0.743988 0.467365 0.000000
0.776578 0.466968 0.000000
0.808766 0.466576 0.000000
0.840503 0.466189 0.000000
0.871738 0.465809 0.000000
0.902424 0.465435 0.000000
0.932511 0.465069 0.000000
0.961948 0.464710 0.000000
0.990688 0.464360 0.000000
0.000000 0.510674 0.000000
0.000000 0.510467 0.000000
0.023639 0.510123 0.000000
0.052601 0.509771 0.000000
0.082245 0.509410 0.000000
0.112523 0.509041 0.000000
0.143384 0.508665 0.000000
0.174781 0.508282 0.000000
0.206663 0.507894 0.000000
0.238980 0.507500 0.000000
0.271685 0.507102 0.000000
0.304727 0.506700 0.000000
0.338058 0.506294 0.000000
0.371627 0.505885 0.000000
0.405386 0.505473 0.000000
0.439285 0.505061 0.000000
0.473275 0.504647 0.000000
0.507307 0.504232 0.000000
0.541331 0.503818 0.000000
0.575298 0.503404 0.000000
0.609159 0.502991 0.000000
0.642864 0.502581 0.000000
0.676365 0.502173 0.000000
0.709611 0.501768 0.000000
0.742554 0.501367 0.000000
0.775144 0.500970 0.000000
0.807332 0.500578 0.000000
0.839068 0.500191 0.000000
0.870304 0.499811 0.000000
0.900990 0.499437 0.000000
0.931076 0.499070 0.000000
0.960514 0.498712 0.000000
0.989254 0.498362 0.000000
0.000000 0.544673 0.000000
0.000000 0.544466 0.000000
0.022205 0.544122 0.000000
0.051167 0.543769 0.000000
0.080811 0.543408 0.000000
0.111088 0.543039 0.000000
0.141950 0.542663 0.000000
0.173346 0.542281 0.000000
0.205228 0.541892 0.000000
0.237546 0.541499 0.000000
0.270251 0.541100 0.000000
0.303293 0.540698 0.000000
0.336623 0.540292 0.000000
0.370193 0.539883 0.000000
0.403951 0.539472 0.000000
0.437851 0.539059 0.000000
0.471841 0.538645 0.000000
0.505872 0.538230 0.000000
0.539896 0.537816 0.000000
0.573864 0.537402 0.000000
0.607725 0.536990 0.000000
0.641430 0.536579 0.000000
0.674930 0.536171 0.000000
0.708177 0.535766 0.000000
0.741119 0.535365 0.000000
0.773709 0.534968 0.000000
0.805897 0.534576 0.000000
0.837634 0.534189 0.000000
0.868869 0.533809 0.000000
0.899555 0.533435 0.000000
0.929642 0.533069 0.000000
0.959079 0.532710 0.000000
0.987819 0.532360 0.000000
0.000000 0.578616 0.000000
0.000000 0.578409 0.000000
0.020773 0.578065 0.000000
0.049734 0.577712 0.000000
0.079379 0.577351 0.000000
0.109656 0.576982 0.000000
0.140518 0.576606 0.000000
0.171914 0.576224 0.000000
0.203796 0.575835 0.000000
0.236114 0.575442 0.000000
0.268819 0.575043 0.000000
0.301861 0.574641 0.000000
0.335191 0.574235 0.000000
0.368760 0.573826 0.000000
0.402519 0.573415 0.000000
0.436418 0.573002 0.000000
0.470409 0.572588 0.000000
0.504440 0.572173 0.000000
0.538464 0.571759 0.000000
0.572432 0.571345 0.000000
0.606292 0.570933 0.000000
0.639998 0.570522 0.000000
0.673498 0.570114 0.000000
0.706744 0.569709 0.000000
0.739687 0.569308 0.000000
0.772277 0.568911 0.000000
0.804465 0.568519 0.000000
0.836202 0.568132 0.000000
0.867437 0.567752 0.000000
0.898123 0.567378 0.000000
0.928210 0.567012 0.000000
0.957647 0.566653 0.000000
0.986387 0.566303 0.000000
0.000000 0.612451 0.000000
0.000000 0.612244 0.000000
0.019345 0.611900 0.000000
0.048307 0.611547 0.000000
0.077951 0.611186 0.000000
0.108229 0.610817 0.000000
0.139090 0.610441 0.000000
0.170487 0.610059 0.000000
0.202368 0.609671 0.000000
0.234686 0.609277 0.000000
0.267391 0.608879 0.000000
0.300433 0.608476 0.000000
0.333764 0.608070 0.000000
0.367333 0.607661 0.000000
0.401092 0.607250 0.000000
0.434991 0.606837 0.000000
0.468981 0.606423 0.000000
0.503013 0.606009 0.000000
0.537037 0.605594 0.000000
0.571004 0.605181 0.000000
0.604865 0.604768 0.000000
0.638570 0.604358 0.000000
0.672071 0.603949 0.000000
0.705317 0.603545 0.000000
0.738260 0.603143 0.000000
0.770850 0.602746 0.000000
0.803038 0.602354 0.000000
0.834774 0.601968 0.000000
0.866010 0.601587 0.000000
0.896696 0.601213 0.000000
0.926782 0.600847 0.000000
0.956220 0.600488 0.000000
0.984960 0.600138 0.000000
0.000000 0.646127 0.000000
0.000000 0.645919 0.000000
0.017924 0.645576 0.000000
0.046886 0.645223 0.000000
0.076530 0.644862 0.000000
0.106808 0.644493 0.000000
0.137670 0.644117 0.000000
0.169066 0.643735 0.000000
0.200948 0.643346 0.000000
0.233266 0.642953 0.000000
0.265970 0.642554 0.000000
0.299012 0.642152 0.000000
0.332343 0.641746 0.000000
0.365912 0.641337 0.000000
0.399671 0.640926 0.000000
0.433570 0.640513 0.000000
0.467560 0.640099 0.000000
0.501592 0.639684 0.000000
0.535616 0.639270 0.000000
0.569583 0.638856 0.000000
0.603444 0.638444 0.000000
0.637149 0.638033 0.000000
0.670650 0.637625 0.000000
0.703896 0.637220 0.000000
0.736839 0.636819 0.000000
0.769429 0.636422 0.000000
0.801617 0.636030 0.000000
0.833353 0.635643 0.000000
0.864589 0.635263 0.000000
0.895275 0.634889 0.000000
0.925361 0.634522 0.000000
0.954799 0.634164 0.000000
0.983539 0.633814 0.000000
0.000000 0.679590 0.000000
0.000000 0.679383 0.000000
0.016513 0.679039 0.000000
0.045474 0.678686 0.000000
0.075118 0.678325 0.000000
0.105396 0.677956 0.000000
0.136258 0.677581 0.000000
0.167654 0.677198 0.000000
0.199536 0.676810 0.000000
0.231854 0.676416 0.000000
0.264558 0.676018 0.000000
0.297601 0.675615 0.000000
0.330931 0.675209 0.000000
0.364500 0.674800 0.000000
0.398259 0.674389 0.000000
0.432158 0.673976 0.000000
0.466148 0.673562 0.000000
0.500180 0.673148 0.000000
0.534204 0.672733 0.000000
0.568171 0.672320 0.000000
0.602032 0.671907 0.000000
0.635738 0.671497 0.000000
0.669238 0.671089 0.000000
0.702484 0.670684 0.000000
0.735427 0.670282 0.000000
0.768017 0.669885 0.000000
0.800205 0.669493 0.000000
0.831941 0.669107 0.000000
0.863177 0.668726 0.000000
0.893863 0.668353 0.000000
0.923949 0.667986 0.000000
0.953387 0.667628 0.000000
0.982127 0.667277 0.000000
0.000000 0.712790 0.000000
0.000000 0.712583 0.000000
0.015112 0.712239 0.000000
0.044073 0.711886 0.000000
0.073718 0.711525 0.000000
0.103995 0.711156 0.000000
0.134857 0.710780 0.000000
0.166253 0.710398 0.000000
0.198135 0.710009 0.000000
0.230453 0.709616 0.000000
0.263158 0.709217 0.000000
0.296200 0.708815 0.000000
0.329530 0.708409 0.000000
0.363100 0.708000 0.000000
0.396858 0.707589 0.000000
0.430758 0.707176 0.000000
0.464748 0.706762 0.000000
0.498779 0.706347 0.000000
0.532803 0.705933 0.000000
0.566771 0.705519 0.000000
0.600632 0.705107 0.000000
0.634337 0.704696 0.000000
0.667837 0.704288 0.000000
0.701084 0.703883 0.000000
0.734026 0.703482 0.000000
0.766616 0.703085 0.000000
0.798804 0.702693 0.000000
0.830541 0.702306 0.000000
0.861776 0.701926 0.000000
0.892462 0.701552 0.000000
0.922549 0.701186 0.000000
0.951986 0.700827 0.000000
0.980726 0.700477 0.000000
0.000000 0.745673 0.000000
0.000000 0.745466 0.000000
0.013725 0.745122 0.000000
0.042686 0.744769 0.000000
0.072330 0.744408 0.000000
0.102608 0.744039 0.000000
0.133470 0.743663 0.000000
0.164866 0.743281 0.000000
0.196748 0.742893 0.000000
0.229066 0.742499 0.000000
0.261770 0.742101 0.000000
0.294812 0.741698 0.000000
0.328143 0.741292 0.000000
0.361712 0.740883 0.000000
0.395471 0.740472 0.000000
0.429370 0.740059 0.000000
0.463360 0.739645 0.000000
0.497392 0.739231 0.000000
0.531416 0.738816 0.000000
0.565383 0.738403 0.000000
0.599244 0.737990 0.000000
0.632949 0.737580 0.000000
0.666450 0.737171 0.000000
0.699696 0.736767 0.000000
0.732639 0.736365 0.000000
0.765229 0.735968 0.000000
0.797417 0.735576 0.000000
0.829153 0.735190 0.000000
0.860389 0.734809 0.000000
0.891075 0.734435 0.000000
0.921161 0.734069 0.000000
0.950599 0.733710 0.000000
0.979339 0.733360 0.000000
0.000000 0.778188 0.000000
0.000000 0.777981 0.000000
0.012353 0.777637 0.000000
0.041314 0.777284 0.000000
0.070959 0.776923 0.000000
0.101236 0.776554 0.000000
0.132098 0.776178 0.000000
0.163494 0.775796 0.000000
0.195376 0.775408 0.000000
0.227694 0.775014 0.000000
0.260398 0.774616 0.000000
0.293441 0.774213 0.000000
0.326771 0.773807 0.000000
0.360340 0.773398 0.000000
0.394099 0.772987 0.000000
0.427998 0.772574 0.000000
0.461988 0.772160 0.000000
0.496020 0.771746 0.000000
0.530044 0.771331 0.000000
0.564011 0.770917 0.000000
0.597872 0.770505 0.000000
0.631578 0.770095 0.000000
0.665078 0.769686 0.000000
0.698324 0.769281 0.000000
0.731267 0.768880 0.000000
0.763857 0.768483 0.000000
0.796045 0.768091 0.000000
0.827781 0.767705 0.000000
0.859017 0.767324 0.000000
0.889703 0.766950 0.000000
0.919789 0.766584 0.000000
0.949227 0.766225 0.000000
0.977967 0.765875 0.000000
0.000000 0.810282 0.000000
0.000000 0.810075 0.000000
0.010999 0.809731 0.000000
0.039960 0.809379 0.000000
0.069604 0.809018 0.000000
0.099882 0.808649 0.000000
0.130744 0.808273 0.000000
0.162140 0.807890 0.000000
0.194022 0.807502 0.000000
0.226340 0.807108 0.000000
0.259044 0.806710 0.000000
0.292087 0.806308 0.000000
0.325417 0.805902 0.000000
0.358986 0.805493 0.000000
0.392745 0.805082 0.000000
0.426644 0.804669 0.000000
0.460634 0.804255 0.000000
0.494666 0.803840 0.000000
0.528690 0.803426 0.000000
0.562657 0.803012 0.000000
0.596518 0.802600 0.000000
0.630224 0.802189 0.000000
0.663724 0.801781 0.000000
0.696970 0.801376 0.000000
0.729913 0.800975 0.000000
0.762503 0.800578 0.000000
0.794691 0.800186 0.000000
0.826427 0.799799 0.000000
0.857663 0.799419 0.000000
0.888349 0.799045 0.000000
0.918435 0.798678 0.000000
0.947873 0.798320 0.000000
0.976613 0.797970 0.000000
0.000000 0.841904 0.000000
0.000000 0.841697 0.000000
0.009664 0.841353 0.000000
0.038626 0.841001 0.000000
0.068270 0.840639 0.000000
0.098548 0.840271 0.000000
0.129409 0.839895 0.000000
0.160806 0.839512 0.000000
0.192688 0.839124 0.000000
0.225006 0.838730 0.000000
0.257710 0.838332 0.000000
0.290752 0.837929 0.000000
0.324083 0.837524 0.000000
0.357652 0.837115 0.000000
0.391411 0.836703 0.000000
0.425310 0.836291 0.000000
0.459300 0.835876 0.000000
0.493332 0.835462 0.000000
0.527356 0.835048 0.000000
0.561323 0.834634 0.000000
0.595184 0.834221 0.000000
0.628889 0.833811 0.000000
0.662390 0.833403 0.000000
0.695636 0.832998 0.000000
0.728579 0.832597 0.000000
0.761169 0.832200 0.000000
0.793357 0.831807 0.000000
