assets/LUTs/rescue_lowlight_33.cube
TITLE "Rescue Low-Light"
LUT_3D_SIZE 9
DOMAIN_MIN 0.0 0.0 0.0
DOMAIN_MAX 1.0 1.0 1.0
0.035830 0.023673 0.010150
0.134140 0.028050 0.014447
0.238440 0.032098 0.018418
0.347504 0.035813 0.022060
0.459991 0.039193 0.025370
0.574453 0.042236 0.028345
0.689321 0.044939 0.030984
0.802908 0.047301 0.033285
0.913403 0.049320 0.035246
0.049485 0.133264 0.023350
0.150195 0.137547 0.026534
0.256838 0.141476 0.029382
0.368108 0.145047 0.031894
0.482590 0.148258 0.034066
0.598750 0.151110 0.035899
0.714935 0.153599 0.037390
0.829366 0.155726 0.038538
0.940140 0.157488 0.039343
0.059277 0.250343 0.032755
0.162175 0.254426 0.034799
0.270990 0.258136 0.036502
0.384344 0.261470 0.037864
0.500740 0.264427 0.038882
0.618562 0.267008 0.039558
0.736070 0.269210 0.039889
0.851396 0.271034 0.039876
0.962541 0.272478 0.039518
0.065132 0.373172 0.038289
0.170012 0.376964 0.039178
0.280846 0.380371 0.039723
0.396177 0.383390 0.039924
0.514432 0.386023 0.039781
0.633910 0.388268 0.039294
0.752785 0.390126 0.038462
0.869097 0.391596 0.037288
0.980753 0.392677 0.035771
0.067010 0.499845 0.039910
0.173669 0.503271 0.039637
0.286371 0.506307 0.039020
0.403588 0.508951 0.038059
0.523664 0.511205 0.036755
0.644816 0.513068 0.035109
0.765131 0.514540 0.033122
0.882559 0.515622 0.030795
0.994909 0.516313 0.028130
0.064896 0.628281 0.037606
0.173125 0.631283 0.036173
0.287550 0.633897 0.034398
0.406566 0.636123 0.032282
0.528438 0.637962 0.029828
0.651301 0.639413 0.027036
0.773154 0.640478 0.023908
0.891855 0.641155 0.020447
1.000000 0.641446 0.016656
0.058806 0.756218 0.031395
0.168384 0.758757 0.028812
0.284377 0.760918 0.025893
0.405105 0.762701 0.022639
0.528755 0.764107 0.019053
0.653377 0.765136 0.015137
0.776883 0.765789 0.010895
0.897041 0.766065 0.006328
1.000000 0.765966 0.001442
0.048784 0.881208 0.021323
0.159469 0.883264 0.017612
0.276864 0.884959 0.013572
0.399210 0.886294 0.009207
0.524616 0.887270 0.004519
0.651049 0.887886 0.000000
0.776334 0.888144 0.000000
0.898147 0.888043 0.000000
1.000000 0.887584 0.000000
0.034903 1.000000 0.007473
0.146428 1.000000 0.002664
0.265033 1.000000 0.000000
0.388887 1.000000 0.000000
0.516018 1.000000 0.000000
0.644312 1.000000 0.000000
0.771504 1.000000 0.000000
0.895181 1.000000 0.000000
1.000000 1.000000 0.000000
0.037391 0.025212 0.104389
0.135954 0.029476 0.109664
0.240501 0.033410 0.114594
0.349794 0.037011 0.119175
0.462489 0.040275 0.123407
0.577126 0.043202 0.127286
0.692128 0.045788 0.130810
0.805800 0.048032 0.133977
0.916321 0.049934 0.136786
0.050658 0.134774 0.120816
0.151599 0.138935 0.124914
0.258470 0.142741 0.128659
0.369957 0.146189 0.132049
0.484637 0.149278 0.135081
0.600967 0.152005 0.137754
0.717285 0.154370 0.140068
0.831804 0.156371 0.142020
0.942610 0.158009 0.143610
0.060052 0.251786 0.133237
0.163160 0.255741 0.136134
0.272188 0.259322 0.138671
0.385747 0.262527 0.140848
0.502334 0.265355 0.142664
0.620324 0.267806 0.144117
0.737969 0.269878 0.145207
0.853390 0.271572 0.145933
0.964579 0.272886 0.146296
0.065505 0.374517 0.141577
0.170575 0.378177 0.143256
0.281605 0.381450 0.144572
0.397132 0.384337 0.145524
0.515573 0.386837 0.146113
0.635220 0.388949 0.146338
0.754237 0.390674 0.146198
0.870657 0.392010 0.145695
0.982374 0.392959 0.144827
0.066977 0.501065 0.145790
0.173805 0.504357 0.146241
0.286690 0.507258 0.146328
0.404093 0.509768 0.146051
0.524352 0.511888 0.145410
0.645676 0.513617 0.144405
0.766143 0.514955 0.143036
0.883692 0.515903 0.141306
0.996124 0.516460 0.139213
0.064459 0.629355 0.145851
0.172835 0.632224 0.145072
0.287426 0.634705 0.143930
0.406620 0.636798 0.142425
0.528673 0.638504 0.140557
0.651713 0.639822 0.138328
0.773728 0.640754 0.135739
0.892569 0.641299 0.132790
1.000000 0.641457 0.129484
0.057967 0.757132 0.141762
0.167668 0.759541 0.139757
0.283812 0.761572 0.137392
0.404709 0.763226 0.134666
0.528538 0.764502 0.131583
0.653342 0.765402 0.128142
0.777023 0.765926 0.124346
0.897339 0.766074 0.120197
1.000000 0.765845 0.115697
0.047549 0.881954 0.133543
0.158332 0.883886 0.130324
0.275858 0.885458 0.126749
0.398363 0.886669 0.122819
0.523946 0.887522 0.118537
0.650566 0.888015 0.113905
0.776039 0.888150 0.108926
0.898032 0.887926 0.103601
1.000000 0.887344 0.097935
0.033281 1.000000 0.121242
0.144875 1.000000 0.116828
0.263591 1.000000 0.112064
0.387592 1.000000 0.106954
0.514896 1.000000 0.101500
0.643380 1.000000 0.095706
0.770773 1.000000 0.089574
0.894651 1.000000 0.083110
1.000000 1.000000 0.076316
0.038912 0.026712 0.203928
0.137727 0.030864 0.210185
0.242518 0.034683 0.216081
0.352041 0.038169 0.221614
0.464941 0.041318 0.226781
0.579752 0.044128 0.231581
0.694889 0.046597 0.236012
0.808646 0.048724 0.240072
0.919193 0.050507 0.243759
0.051790 0.136242 0.223610
0.152961 0.140281 0.228638
0.260058 0.143965 0.233299
0.371761 0.147289 0.237590
0.486638 0.150254 0.241509
0.603137 0.152857 0.245056
0.719589 0.155098 0.248228
0.834197 0.156974 0.251026
0.945036 0.158486 0.253447
0.060787 0.253185 0.239115
0.164104 0.257012 0.242893
0.273341 0.260464 0.246299
0.387105 0.263540 0.249330
0.503882 0.266239 0.251985
0.622040 0.268560 0.254264
0.739822 0.270502 0.256166
0.855340 0.272066 0.257691
0.966575 0.273250 0.258837
0.065836 0.375816 0.250377
0.171094 0.379343 0.252891
0.282319 0.382484 0.255027
0.398041 0.385239 0.256787
0.516668 0.387605 0.258169
0.636484 0.389585 0.259172
0.755645 0.391176 0.259797
0.872173 0.392380 0.260043
0.983953 0.393195 0.259911
0.066903 0.502238 0.257354
0.173898 0.505396 0.258592
0.286963 0.508163 0.259453
0.404552 0.510540 0.259935
0.524994 0.512525 0.260038
0.646491 0.514120 0.259762
0.767110 0.515325 0.259108
0.884782 0.516138 0.258075
0.997299 0.516561 0.256663
0.063980 0.630383 0.260018
0.172501 0.633119 0.259978
0.287257 0.635467 0.259559
0.406628 0.637427 0.258762
0.528863 0.639000 0.257586
0.652079 0.640185 0.256032
0.774258 0.640984 0.254100
0.893240 0.641396 0.251791
1.000000 0.641422 0.249107
0.057087 0.758001 0.258362
0.166910 0.760281 0.257043
0.283202 0.762182 0.255346
0.404267 0.763706 0.253272
0.528275 0.764854 0.250821
0.653261 0.765624 0.247994
0.777118 0.766019 0.244792
0.897595 0.766038 0.241217
1.000000 0.765680 0.237268
0.046273 0.882658 0.252390
0.157152 0.884466 0.249797
0.274809 0.885914 0.246828
0.397471 0.887002 0.243485
0.523230 0.887731 0.239768
0.650037 0.888102 0.235679
0.775700 0.888114 0.231220
0.897874 0.887767 0.226391
1.000000 0.887062 0.221195
0.031621 1.000000 0.242124
0.143280 1.000000 0.238267
0.262106 1.000000 0.234037
0.386250 1.000000 0.229438
0.513727 1.000000 0.224470
0.642403 1.000000 0.219136
0.769998 1.000000 0.213437
0.894080 1.000000 0.207376
1.000000 1.000000 0.200956
0.040395 0.028174 0.307583
0.139459 0.032212 0.314797
0.244492 0.035917 0.321638
0.354242 0.039287 0.328103
0.467348 0.042320 0.334191
0.582333 0.045013 0.339900
0.697603 0.047365 0.345228
0.811445 0.049374 0.350175
0.922019 0.051039 0.354740
0.052882 0.137668 0.330448
0.154281 0.141585 0.336393
0.261603 0.145146 0.341958
0.373520 0.148347 0.347143
0.488592 0.151188 0.351945
0.605261 0.153667 0.356365
0.721847 0.155783 0.360401
0.836544 0.157534 0.364053
0.947418 0.158921 0.367319
0.061481 0.254541 0.349003
0.165004 0.258239 0.353661
0.274450 0.261562 0.357936
0.388417 0.264508 0.361826
0.505384 0.267078 0.365332
0.623711 0.269269 0.368453
0.741629 0.271081 0.371187
0.857244 0.272515 0.373535
0.968528 0.273568 0.375496
0.066127 0.377070 0.363197
0.171571 0.380465 0.366557
0.282989 0.383473 0.369532
0.398904 0.386094 0.372120
0.517717 0.388328 0.374322
0.637703 0.390175 0.376137
0.757007 0.391633 0.377564
0.873645 0.392703 0.378605
0.985491 0.393385 0.379257
0.066788 0.503366 0.372998
0.173948 0.506390 0.375053
0.287192 0.509023 0.376722
0.404965 0.511265 0.378003
0.525591 0.513117 0.378897
0.647260 0.514577 0.379403
0.768032 0.515648 0.379521
0.885830 0.516327 0.379251
0.998434 0.516616 0.378594
0.063460 0.631365 0.378386
0.172124 0.633968 0.379134
0.287044 0.636183 0.379493
0.406591 0.638010 0.379465
0.529007 0.639450 0.379049
0.652400 0.640503 0.378245
0.774744 0.641169 0.377054
0.893869 0.641449 0.375475
1.000000 0.641342 0.373509
0.056166 0.758826 0.379353
0.166108 0.760976 0.378790
0.282547 0.762748 0.377840
0.403779 0.764142 0.376503
0.527966 0.765160 0.374777
0.653134 0.765802 0.372665
0.777169 0.766068 0.370167
0.897809 0.765958 0.367282
1.000000 0.765471 0.364011
0.044959 0.883319 0.375896
0.155930 0.885004 0.374025
0.273714 0.886328 0.371766
0.396533 0.887293 0.369122
0.522468 0.887899 0.366091
0.649464 0.888146 0.362674
0.775316 0.888035 0.358873
0.897675 0.887565 0.354687
1.000000 0.886737 0.350118
0.029922 1.000000 0.368022
0.141644 1.000000 0.364845
0.260576 1.000000 0.361283
0.384864 1.000000 0.357336
0.512512 1.000000 0.353005
0.641380 1.000000 0.348291
0.769179 1.000000 0.343195
0.893466 1.000000 0.337718
1.000000 1.000000 0.331862
0.041838 0.029596 0.414130
0.141149 0.033521 0.422248
0.246423 0.037111 0.429981
0.356399 0.040366 0.437330
0.469709 0.043283 0.444291
0.584867 0.045859 0.450865
0.700271 0.048093 0.457051
0.814198 0.049984 0.462849
0.924799 0.051531 0.468257
0.053934 0.139052 0.440006
0.155558 0.142847 0.446821
0.263103 0.146285 0.453249
0.375234 0.149363 0.459288
0.490501 0.152079 0.464938
0.607339 0.154434 0.470199
0.724059 0.156425 0.475070
0.838845 0.158051 0.479551
0.949755 0.159313 0.483642
0.062134 0.255852 0.461469
0.165861 0.259421 0.466972
0.275515 0.262615 0.472086
0.389684 0.265432 0.476810
0.506840 0.267872 0.481143
0.625335 0.269933 0.485087
0.743391 0.271616 0.488639
0.859105 0.272919 0.491802
0.970437 0.273842 0.494573
0.066376 0.378278 0.478493
0.172004 0.381540 0.482679
0.283614 0.384416 0.486475
0.399722 0.386904 0.489880
0.518720 0.389005 0.492895
0.638875 0.390719 0.495519
0.758325 0.392044 0.497752
0.875073 0.392981 0.499595
0.986987 0.393529 0.501047
0.066632 0.504447 0.491066
0.173954 0.507337 0.493933
0.287375 0.509836 0.496409
0.405333 0.511944 0.498495
0.526141 0.513662 0.500190
0.647983 0.514989 0.501494
0.768910 0.515925 0.502407
0.886835 0.516470 0.502930
0.999528 0.516625 0.503062
0.062900 0.632302 0.499181
0.171704 0.634772 0.500729
0.286785 0.636853 0.501885
0.406508 0.638548 0.502651
0.529104 0.639855 0.503026
0.652676 0.640775 0.503010
0.775186 0.641309 0.502604
0.894455 0.641455 0.501807
1.000000 0.641216 0.500619
0.055205 0.759606 0.502839
0.165263 0.761626 0.503066
0.281847 0.763269 0.502903
0.403245 0.764534 0.502349
0.527611 0.765423 0.501404
0.652963 0.765936 0.500069
0.777176 0.766072 0.498342
0.897981 0.765833 0.496226
1.000000 0.765217 0.493718
0.043604 0.883938 0.502038
0.154665 0.885499 0.500945
0.272576 0.886699 0.499462
0.395549 0.887541 0.497588
0.521660 0.888024 0.495324
0.648844 0.888148 0.492669
0.774889 0.887914 0.489623
0.897434 0.887322 0.486186
1.000000 0.886370 0.482359
0.028185 1.000000 0.496778
0.139966 1.000000 0.494366
0.259002 1.000000 0.491563
0.383432 1.000000 0.488370
0.511251 1.000000 0.484786
0.640312 1.000000 0.480811
0.768315 1.000000 0.476446
0.892809 1.000000 0.471692
1.000000 1.000000 0.466547
0.043242 0.030980 0.522301
0.142798 0.034790 0.531239
0.248310 0.038266 0.539783
0.358511 0.041405 0.547934
0.472023 0.044205 0.555692
0.587354 0.046664 0.563056
0.702892 0.048781 0.570027
0.816905 0.050554 0.576605
0.927533 0.051982 0.582791
0.054946 0.140394 0.550912
0.156793 0.144067 0.558521
0.264559 0.147381 0.565737
0.376902 0.150336 0.572560
0.492364 0.152928 0.578989
0.609371 0.155158 0.585026
0.726225 0.157024 0.590671
0.841102 0.158525 0.595923
0.952049 0.159661 0.600785
0.062746 0.257119 0.575036
0.166676 0.260559 0.581317
0.276535 0.263624 0.587205
0.390905 0.266312 0.592702
0.508251 0.268622 0.597807
0.626913 0.270553 0.602520
0.745108 0.272106 0.606843
0.860921 0.273279 0.610775
0.972305 0.274072 0.614318
0.066584 0.379441 0.594677
0.172393 0.382571 0.599634
0.284195 0.385313 0.604200
0.400494 0.387669 0.608375
0.519678 0.389637 0.612160
0.640002 0.391217 0.615555
0.759598 0.392409 0.618561
0.876459 0.393213 0.621178
0.988442 0.393628 0.623407
0.066435 0.505483 0.609851
0.173918 0.508239 0.613489
0.287514 0.510603 0.616737
0.405655 0.512578 0.619596
0.526645 0.514161 0.622066
0.648661 0.515354 0.624148
0.769744 0.516156 0.625842
0.887797 0.516567 0.627148
1.000000 0.516588 0.628067
0.062298 0.633193 0.620575
0.171241 0.635530 0.622899
0.286482 0.637478 0.624834
0.406379 0.639040 0.626381
0.529156 0.640214 0.627541
0.652906 0.641002 0.628313
0.775583 0.641403 0.628698
0.895000 0.641417 0.628695
1.000000 0.641044 0.628305
0.054204 0.760342 0.626865
0.164376 0.762232 0.627878
0.281103 0.763745 0.628504
0.402665 0.764882 0.628742
0.527210 0.765641 0.628593
0.652745 0.766025 0.628057
0.777139 0.766033 0.627133
0.898111 0.765664 0.625821
1.000000 0.764920 0.624122
0.042211 0.884514 0.628731
0.153358 0.885951 0.628436
0.271393 0.887029 0.627753
0.394520 0.887747 0.626683
0.520807 0.888107 0.625224
0.648179 0.888109 0.623379
0.774417 0.887751 0.621144
0.897150 0.887036 0.618522
1.000000 0.885961 0.615510
0.026410 1.000000 0.626177
0.138246 1.000000 0.624572
0.257384 1.000000 0.622580
0.381954 1.000000 0.620199
0.509945 1.000000 0.617429
0.639198 1.000000 0.614271
0.767407 1.000000 0.610723
0.892111 1.000000 0.606785
1.000000 1.000000 0.602457
0.044607 0.032325 0.630787
0.144405 0.036021 0.640429
0.250154 0.039381 0.649671
0.360578 0.042404 0.658513
0.474292 0.045087 0.666958
0.589795 0.047429 0.675005
0.705467 0.049428 0.682656
0.819565 0.051082 0.689912
0.930222 0.052392 0.696774
0.055918 0.141695 0.661751
0.157986 0.145245 0.670045
0.265971 0.148436 0.677943
0.378525 0.151266 0.685444
0.494181 0.153734 0.692552
0.611357 0.155839 0.699266
0.728345 0.157580 0.705588
0.843313 0.158956 0.711520
0.954298 0.159967 0.717063
0.063317 0.258342 0.688177
0.167447 0.261653 0.695135
0.277510 0.264589 0.701701
0.392081 0.267147 0.707876
0.509615 0.269327 0.713661
0.628445 0.271129 0.719057
0.746779 0.272551 0.724065
0.862693 0.273593 0.728688
0.974130 0.274256 0.732926
0.066751 0.380558 0.710108
0.172740 0.383555 0.715746
0.284730 0.386165 0.720995
0.401221 0.388388 0.725858
0.520589 0.390223 0.730335
0.641084 0.391670 0.734427
0.760826 0.392729 0.738136
0.877801 0.393399 0.741463
0.989855 0.393681 0.744409
0.066196 0.506472 0.727595
0.173837 0.509094 0.731927
0.287608 0.511325 0.735874
0.405931 0.513165 0.739439
0.527104 0.514614 0.742621
0.649294 0.515673 0.745423
0.770533 0.516341 0.747845
0.888716 0.516619 0.749887
1.000000 0.516505 0.751550
0.061656 0.634038 0.740686
0.170734 0.636242 0.743725
0.286134 0.638058 0.746383
0.406204 0.639486 0.748661
0.529161 0.640528 0.750560
0.653091 0.641183 0.752080
0.775936 0.641451 0.753223
0.895502 0.641333 0.753987
1.000000 0.640827 0.754374
0.053162 0.761033 0.749423
0.163445 0.762794 0.751179
0.280314 0.764178 0.752556
0.402040 0.765185 0.753556
0.526763 0.765815 0.754178
0.652483 0.766070 0.754422
0.777057 0.765949 0.754289
0.898199 0.765451 0.753779
1.000000 0.764577 0.752892
0.040778 0.885048 0.753835
0.152009 0.886361 0.754315
0.270165 0.887316 0.754416
0.393445 0.887911 0.754141
0.519907 0.888148 0.753488
0.647468 0.888026 0.752458
0.773901 0.887546 0.751049
0.896825 0.886707 0.749263
1.000000 0.885509 0.747097
0.024596 1.000000 0.753939
0.136485 1.000000 0.753143
0.255723 1.000000 0.751970
0.380432 1.000000 0.750419
0.508592 1.000000 0.748489
0.638038 1.000000 0.746180
0.766454 1.000000 0.743491
0.891370 1.000000 0.740421
1.000000 1.000000 0.736969
0.045932 0.033631 0.738235
0.145971 0.037212 0.748435
0.251954 0.040456 0.758228
0.362601 0.043363 0.767618
0.476516 0.045929 0.776607
0.592190 0.048153 0.785196
0.707995 0.050034 0.793388
0.822179 0.051571 0.801186
0.932865 0.052761 0.808592
0.056849 0.142953 0.771062
0.159136 0.146380 0.779900
0.267340 0.149447 0.788339
0.380103 0.152154 0.796382
0.495952 0.154497 0.804031
0.613296 0.156478 0.811290
0.730419 0.158093 0.818160
0.845479 0.159344 0.824643
0.956504 0.160229 0.830743
0.063847 0.259520 0.799319
0.168176 0.262703 0.806820
0.278441 0.265509 0.813932
0.393211 0.267938 0.820655
0.510933 0.269988 0.826994
0.629932 0.271659 0.832949
0.748405 0.272951 0.838524
0.864421 0.273864 0.843720
0.975912 0.274396 0.848541
0.066877 0.381630 0.823096
0.173043 0.384494 0.829289
0.285221 0.386972 0.835101
0.401901 0.389061 0.840532
0.521454 0.390763 0.845586
0.642119 0.392077 0.850265
0.762009 0.393002 0.854570
0.879099 0.393540 0.858504
0.991228 0.393689 0.862068
0.065917 0.507416 0.842486
0.173714 0.509903 0.847398
0.287656 0.512000 0.851936
0.406161 0.513706 0.856100
0.527516 0.515022 0.859894
0.649880 0.515946 0.863320
0.771278 0.516480 0.866377
0.889593 0.516624 0.869069
1.000000 0.516376 0.871396
0.060973 0.634838 0.857578
0.170184 0.636909 0.861232
0.285741 0.638592 0.864518
0.405983 0.639887 0.867437
0.529121 0.640796 0.869991
0.653230 0.641318 0.872181
0.776245 0.641454 0.874007
0.895962 0.641203 0.875472
1.000000 0.640565 0.876575
0.052081 0.761680 0.868445
0.162472 0.763311 0.870861
0.279480 0.764566 0.872914
0.401369 0.765443 0.874603
0.526270 0.765945 0.875931
0.652174 0.766071 0.876897
0.776932 0.765820 0.877503
0.898245 0.765194 0.877749
1.000000 0.764191 0.877634
0.039305 0.885539 0.875148
0.150617 0.886729 0.876339
0.268894 0.887560 0.877169
0.392324 0.888033 0.877638
0.518961 0.888147 0.877747
0.646712 0.887902 0.877496
0.773340 0.887299 0.876885
0.896457 0.886337 0.875913
1.000000 0.885015 0.874579
0.022745 1.000000 0.877722
0.134683 1.000000 0.877695
0.254018 1.000000 0.877308
0.378863 1.000000 0.876560
0.507193 1.000000 0.875451
0.636832 1.000000 0.873981
0.765456 1.000000 0.872149
0.890586 1.000000 0.869953
1.000000 1.000000 0.867394
0.047218 0.034897 0.843247
0.147494 0.038363 0.853826
0.253711 0.041492 0.863993
0.364578 0.044282 0.873754
0.478693 0.046731 0.883111
0.594538 0.048838 0.892068
0.710477 0.050600 0.900630
0.824748 0.052018 0.908799
0.935463 0.053090 0.916579
0.057740 0.144169 0.877337
0.160243 0.147473 0.886543
0.268663 0.150417 0.895350
0.381635 0.152999 0.903763
0.497677 0.155218 0.911785
0.615190 0.157073 0.919419
0.732447 0.158564 0.926671
0.847600 0.159689 0.933543
0.958665 0.160448 0.940039
0.064337 0.260655 0.906840
0.168861 0.263708 0.914715
0.279327 0.266385 0.922205
0.394296 0.268684 0.929313
0.512205 0.270604 0.936042
0.631372 0.272146 0.942397
0.749986 0.273307 0.948382
0.866105 0.274089 0.953999
0.977652 0.274491 0.959251
0.066962 0.382657 0.931900
0.173303 0.385388 0.938488
0.285667 0.387732 0.944703
0.402536 0.389689 0.950548
0.522273 0.391258 0.956026
0.643109 0.392438 0.961143
0.763148 0.393231 0.965899
0.880355 0.393635 0.970299
0.992559 0.393650 0.974345
0.065596 0.508313 0.952661
0.173547 0.510667 0.958003
0.287660 0.512630 0.962982
0.406345 0.514202 0.967604
0.527882 0.515383 0.971869
0.650422 0.516174 0.975782
0.771978 0.516574 0.979345
0.890427 0.516583 0.982560
1.000000 0.516201 0.985430
0.060249 0.635592 0.969257
0.169591 0.637530 0.973390
0.285303 0.639080 0.977170
0.405717 0.640243 0.980601
0.529035 0.641019 0.983685
0.653323 0.641409 0.986424
0.776510 0.641411 0.988821
0.896380 0.641028 0.990876
1.000000 0.640257 0.992592
0.050959 0.762282 0.981807
0.161456 0.763784 0.984761
0.278602 0.764909 0.987370
0.400652 0.765658 0.989638
0.525731 0.766031 0.991565
0.651821 0.766027 0.993152
0.776763 0.765648 0.994402
0.898250 0.764892 0.995314
1.000000 0.763760 0.995890
0.037794 0.885988 0.990406
0.149183 0.887055 0.992204
0.267577 0.887763 0.993664
0.391158 0.888112 0.994786
0.517969 0.888103 0.995571
0.645911 0.887736 0.996020
0.772736 0.887009 0.996133
0.896047 0.885924 0.995910
1.000000 0.884479 0.995351
0.020856 1.000000 0.995122
0.132840 1.000000 0.995780
0.252269 1.000000 0.996102
0.377250 1.000000 0.996088
0.505748 1.000000 0.995738
0.635581 1.000000 0.995052
0.764414 1.000000 0.994029
0.889760 1.000000 0.992669
1.000000 1.000000 0.990970
