assets/LUTs/rescue_vibrance_soft_33.cube
TITLE "Rescue Vibrance Soft"
LUT_3D_SIZE 9
DOMAIN_MIN 0.0 0.0 0.0
DOMAIN_MAX 1.0 1.0 1.0
0.004204 0.000000 0.000000
0.137548 0.000000 0.000000
0.272870 0.000000 0.000000
0.407642 0.000000 0.000000
0.539591 0.000000 0.000000
0.666712 0.000000 0.000000
0.787276 0.000000 0.000000
0.899825 0.000000 0.000000
1.000000 0.000000 0.000000
0.000000 0.123666 0.000000
0.124166 0.119658 0.000000
0.261382 0.115904 0.000000
0.398104 0.113272 0.000000
0.532030 0.111882 0.000000
0.661128 0.111779 0.000000
0.783640 0.112936 0.000000
0.898079 0.115252 0.000000
1.000000 0.118438 0.000000
0.000000 0.251810 0.000000
0.111816 0.248371 0.000000
0.249348 0.244758 0.000000
0.388113 0.241313 0.000000
0.524111 0.239098 0.000000
0.655280 0.238170 0.000000
0.779832 0.238515 0.000000
0.896249 0.240043 0.000000
1.000000 0.242500 0.000000
0.000000 0.382178 0.000000
0.103229 0.379319 0.000000
0.238526 0.376325 0.000000
0.377820 0.373224 0.000000
0.515953 0.370159 0.000000
0.649255 0.368382 0.000000
0.775908 0.367890 0.000000
0.894364 0.368606 0.000000
1.000000 0.370312 0.000000
0.000000 0.512746 0.000000
0.098815 0.510475 0.000000
0.231829 0.508099 0.000000
0.368795 0.505651 0.000000
0.507674 0.503143 0.000000
0.643141 0.500504 0.000000
0.771927 0.499163 0.000000
0.892452 0.499055 0.000000
1.000000 0.500000 0.000000
0.000000 0.641589 0.000000
0.098732 0.639908 0.000000
0.229463 0.638148 0.000000
0.364077 0.636335 0.000000
0.500602 0.634497 0.000000
0.637027 0.632626 0.000000
0.767946 0.630436 0.000000
0.890539 0.629504 0.000000
1.000000 0.629687 0.000000
0.000000 0.766883 0.000000
0.102887 0.765782 0.000000
0.231368 0.764629 0.000000
0.363665 0.763442 0.000000
0.497840 0.762238 0.000000
0.631953 0.761035 0.000000
0.764022 0.759811 0.000000
0.888655 0.758067 0.000000
1.000000 0.757500 0.000000
0.000000 0.886898 0.000000
0.110943 0.886361 0.000000
0.237239 0.885798 0.000000
0.367288 0.885218 0.000000
0.499182 0.884630 0.000000
0.631015 0.884042 0.000000
0.760880 0.883463 0.000000
0.886825 0.882858 0.000000
1.000000 0.881563 0.000000
0.003684 1.000000 0.000000
0.122330 1.000000 0.000000
0.246542 1.000000 0.000000
0.374443 1.000000 0.000000
0.504160 1.000000 0.000000
0.633817 1.000000 0.000000
0.761538 1.000000 0.000000
0.885450 1.000000 0.000000
1.000000 1.000000 0.000000
0.002828 0.000000 0.131365
0.136241 0.000000 0.127232
0.271748 0.000000 0.121856
0.406711 0.000000 0.117554
0.538852 0.000000 0.114470
0.666166 0.000000 0.112674
0.786921 0.000000 0.112163
0.899655 0.000000 0.112860
1.000000 0.000000 0.114550
0.000000 0.122370 0.117863
0.122928 0.118340 0.113758
0.262346 0.114226 0.109732
0.401335 0.111224 0.106819
0.537560 0.109458 0.105144
0.668956 0.108980 0.104757
0.793732 0.109768 0.105634
0.910367 0.111725 0.107677
1.000000 0.114579 0.110612
0.000000 0.250722 0.105242
0.108928 0.247960 0.099927
0.248483 0.243809 0.095868
0.389515 0.239994 0.094999
0.527812 0.237403 0.095396
0.661278 0.236100 0.097079
0.788094 0.236075 0.099995
0.906708 0.237244 0.104018
1.000000 0.239370 0.108782
0.000000 0.381304 0.096383
0.098646 0.379849 0.089824
0.235960 0.376311 0.086287
0.377337 0.372656 0.082821
0.517768 0.369215 0.085352
0.653368 0.367063 0.089169
0.782286 0.366201 0.094187
0.902938 0.366558 0.100248
1.000000 0.367933 0.106897
0.000000 0.512090 0.091694
0.092513 0.511960 0.083873
0.227544 0.509039 0.080952
0.366586 0.506031 0.077944
0.507578 0.502960 0.075161
0.645342 0.499946 0.081143
0.776392 0.498235 0.088293
0.899113 0.497768 0.096423
1.000000 0.498382 0.104985
0.000000 0.641151 0.091335
0.090711 0.642347 0.082252
0.223458 0.640043 0.079947
0.360149 0.637670 0.077574
0.498780 0.635263 0.075167
0.637316 0.632830 0.073117
0.770498 0.630270 0.082400
0.895288 0.628979 0.092599
1.000000 0.628831 0.103072
0.000000 0.766659 0.095218
0.093171 0.769162 0.084891
0.223668 0.767465 0.083194
0.358042 0.765717 0.081446
0.494323 0.763945 0.079674
0.630541 0.762173 0.077902
0.764690 0.760395 0.076591
0.891519 0.758293 0.088829
1.000000 0.757394 0.101187
0.000000 0.886882 0.103010
0.099582 0.890654 0.091475
0.227895 0.889547 0.090368
0.360020 0.888406 0.089227
0.494020 0.887250 0.088071
0.627958 0.886094 0.086915
0.759897 0.884955 0.085776
0.887860 0.883812 0.085170
1.000000 0.882185 0.099358
0.003206 1.000000 0.114146
0.109399 1.000000 0.101459
0.235627 1.000000 0.100914
0.365605 1.000000 0.100354
0.497428 1.000000 0.099785
0.629190 1.000000 0.099217
0.758985 1.000000 0.098657
0.884908 1.000000 0.098114
1.000000 1.000000 0.097611
0.001721 0.000000 0.268682
0.133174 0.000000 0.265224
0.270535 0.000000 0.261359
0.405703 0.000000 0.254410
0.538054 0.000000 0.248642
0.665577 0.000000 0.244163
0.786537 0.000000 0.241009
0.899470 0.000000 0.239142
1.000000 0.000000 0.238462
0.000000 0.120604 0.257161
0.121443 0.116934 0.255970
0.261012 0.112803 0.251664
0.400278 0.109988 0.246086
0.536784 0.108412 0.241708
0.668460 0.108124 0.238618
0.793512 0.109097 0.236832
0.910414 0.111235 0.236293
1.000000 0.114257 0.236840
0.000000 0.249496 0.244905
0.107391 0.246592 0.241915
0.247162 0.242399 0.237640
0.390646 0.238183 0.233517
0.531431 0.235186 0.230614
0.667383 0.233477 0.229000
0.796648 0.233052 0.228667
0.917637 0.233833 0.229538
1.000000 0.235600 0.231389
0.000000 0.380284 0.233402
0.097188 0.378738 0.229039
0.232800 0.375912 0.223458
0.376430 0.371656 0.219300
0.519348 0.367810 0.218532
0.657434 0.365251 0.219051
0.788800 0.363989 0.220820
0.911828 0.363958 0.223730
1.000000 0.364975 0.227465
0.000000 0.511278 0.226029
0.091134 0.511110 0.220274
0.222524 0.509673 0.213370
0.363812 0.506058 0.209756
0.507089 0.502379 0.206272
0.647339 0.498959 0.208956
0.780838 0.496848 0.212858
0.905935 0.495993 0.217836
1.000000 0.496248 0.223484
0.000000 0.640548 0.222986
0.089410 0.641757 0.215839
0.216578 0.641709 0.207613
0.355516 0.638729 0.204633
0.496424 0.635707 0.201611
0.637245 0.632666 0.198861
0.772875 0.629706 0.204895
0.900041 0.628027 0.211942
1.000000 0.627521 0.219502
0.000000 0.766262 0.224224
0.091948 0.768829 0.215706
0.214955 0.770149 0.206176
0.351576 0.767795 0.203822
0.490135 0.765407 0.201434
0.628630 0.763021 0.199048
0.765028 0.760643 0.197048
0.894233 0.758153 0.206134
1.000000 0.756896 0.215579
0.000000 0.886686 0.229449
0.098434 0.890570 0.219599
0.217403 0.893218 0.208804
0.351774 0.891472 0.207057
0.488052 0.889700 0.205285
0.624267 0.887929 0.203514
0.758450 0.886185 0.201770
0.888594 0.884460 0.200496
1.000000 0.882475 0.211770
0.003200 1.000000 0.238134
0.108324 1.000000 0.227013
0.223437 1.000000 0.215010
0.355661 1.000000 0.213843
0.489762 1.000000 0.212659
0.623800 1.000000 0.211476
0.755839 1.000000 0.210310
0.883938 1.000000 0.209180
1.000000 1.000000 0.208134
0.000998 0.000000 0.404855
0.130303 0.000000 0.401977
0.265673 0.000000 0.398964
0.404665 0.000000 0.395475
0.537231 0.000000 0.386940
0.664969 0.000000 0.379695
0.786141 0.000000 0.373817
0.899280 0.000000 0.369307
1.000000 0.000000 0.366183
0.000000 0.119184 0.395359
0.120323 0.115903 0.397196
0.257778 0.112328 0.393620
0.399043 0.108753 0.389677
0.535764 0.107392 0.382532
0.667656 0.107319 0.376677
0.792920 0.108505 0.372167
0.910028 0.110849 0.368985
1.000000 0.114061 0.367088
0.000000 0.247301 0.385178
0.108236 0.244762 0.385279
0.245635 0.240956 0.384149
0.389281 0.236722 0.379731
0.530355 0.233920 0.374041
0.666597 0.232407 0.369641
0.796147 0.232174 0.366565
0.917412 0.233141 0.364774
1.000000 0.235081 0.364163
0.000000 0.379233 0.374633
0.095940 0.377489 0.372801
0.231218 0.374510 0.369729
0.375077 0.370209 0.365343
0.520559 0.365943 0.361174
0.661208 0.362967 0.358293
0.795098 0.361293 0.356714
0.920574 0.360861 0.356375
1.000000 0.361508 0.357107
0.000000 0.510442 0.364494
0.090101 0.510077 0.361270
0.221022 0.508539 0.356741
0.360536 0.505668 0.350988
0.506167 0.501362 0.346782
0.648980 0.497523 0.346066
0.785003 0.495000 0.346619
0.912548 0.493745 0.348349
1.000000 0.493630 0.350993
0.000000 0.639928 0.358685
0.088592 0.640939 0.354069
0.215157 0.640844 0.348082
0.350322 0.639403 0.340967
0.493579 0.635748 0.337311
0.636753 0.632080 0.333839
0.774908 0.628707 0.336524
0.904522 0.626629 0.340323
1.000000 0.625752 0.344880
0.000000 0.765854 0.357197
0.091342 0.768223 0.351209
0.213613 0.769549 0.343786
0.344493 0.769518 0.335328
0.485400 0.766497 0.332306
0.626242 0.763476 0.329286
0.764959 0.760482 0.326576
0.896612 0.757591 0.332413
1.000000 0.755964 0.338855
0.000000 0.886483 0.359775
0.098035 0.890170 0.352456
0.216137 0.892876 0.343639
0.342857 0.894213 0.333877
0.481484 0.891808 0.331471
0.620046 0.889403 0.329067
0.756540 0.887034 0.326698
0.888934 0.884711 0.324735
1.000000 0.882355 0.333006
0.003194 1.000000 0.365934
0.108121 1.000000 0.357343
0.222245 1.000000 0.347196
0.344993 1.000000 0.336189
0.481442 1.000000 0.334371
0.617828 1.000000 0.332554
0.752178 1.000000 0.330765
0.882521 1.000000 0.329028
1.000000 1.000000 0.327423
0.000698 0.000000 0.537517
0.127823 0.000000 0.535228
0.260910 0.000000 0.532832
0.397951 0.000000 0.530364
0.536395 0.000000 0.527333
0.664352 0.000000 0.517281
0.785740 0.000000 0.508637
0.899087 0.000000 0.501444
1.000000 0.000000 0.495840
0.000000 0.118177 0.530078
0.119620 0.115291 0.534988
0.254792 0.112332 0.532029
0.393980 0.109284 0.528981
0.534729 0.106357 0.525489
0.666839 0.106503 0.516827
0.792318 0.107904 0.509551
0.909635 0.110456 0.503686
1.000000 0.113861 0.499309
0.000000 0.245469 0.521967
0.109597 0.243318 0.525227
0.244511 0.239926 0.527315
0.385948 0.236272 0.523660
0.529111 0.232676 0.519685
0.665571 0.231381 0.512478
0.795336 0.231363 0.506636
0.916811 0.232539 0.502161
1.000000 0.234672 0.499070
0.000000 0.376609 0.513611
0.099289 0.375236 0.514919
0.232148 0.372644 0.515133
0.373529 0.368748 0.514034
0.519178 0.364463 0.509561
0.660121 0.361684 0.503853
0.794301 0.360205 0.499488
0.920059 0.359963 0.496446
1.000000 0.360785 0.494680
0.000000 0.509594 0.505057
0.089052 0.509028 0.504402
0.219764 0.507281 0.502562
0.358930 0.504249 0.499434
0.504798 0.499896 0.494993
0.650212 0.495632 0.490827
0.788797 0.492690 0.487981
0.918829 0.491030 0.486412
1.000000 0.490539 0.486008
0.000000 0.639297 0.496439
0.087762 0.640109 0.494393
0.214117 0.639805 0.491096
0.348796 0.638258 0.486467
0.490257 0.635355 0.480640
0.635820 0.631051 0.476435
0.776538 0.627260 0.475721
0.908638 0.624775 0.476222
1.000000 0.623523 0.477730
0.000000 0.765439 0.492184
0.090728 0.767608 0.488765
0.212789 0.768725 0.484032
0.343047 0.768642 0.477924
0.480160 0.767169 0.470734
0.623384 0.763505 0.467070
0.764455 0.759884 0.463639
0.898594 0.756587 0.466178
1.000000 0.754585 0.469571
0.000000 0.886277 0.492076
0.097629 0.889765 0.487326
0.215522 0.892261 0.481198
0.341488 0.893598 0.473655
0.474382 0.893513 0.465142
0.615326 0.890466 0.462094
0.754168 0.887463 0.459091
0.888846 0.884531 0.456430
1.000000 0.881801 0.461652
0.003188 1.000000 0.495670
0.107915 1.000000 0.489649
0.221829 1.000000 0.482191
0.343698 1.000000 0.473277
0.472563 1.000000 0.463500
0.611331 1.000000 0.461040
0.748029 1.000000 0.458617
0.880648 1.000000 0.456265
1.000000 1.000000 0.454092
0.000835 0.000000 0.664622
0.125778 0.000000 0.662922
0.256582 0.000000 0.661142
0.391271 0.000000 0.659309
0.527872 0.000000 0.657451
0.663735 0.000000 0.654930
0.785338 0.000000 0.643519
0.898894 0.000000 0.633642
1.000000 0.000000 0.625557
0.000000 0.117606 0.659241
0.119354 0.115116 0.667226
0.252243 0.112773 0.664883
0.389079 0.110360 0.662470
0.527857 0.107914 0.660024
0.666022 0.105686 0.657042
0.791717 0.107302 0.646999
0.909242 0.110063 0.638450
1.000000 0.113661 0.631592
0.000000 0.244073 0.653202
0.111396 0.242311 0.659621
0.243824 0.239333 0.664928
0.382909 0.236314 0.661909
0.523968 0.233251 0.658846
0.664545 0.230355 0.655380
0.794525 0.230553 0.646772
0.916209 0.231938 0.639613
1.000000 0.234263 0.634040
0.000000 0.374363 0.646980
0.103222 0.373379 0.651447
0.233589 0.371194 0.654968
0.372409 0.367724 0.657185
0.515818 0.364027 0.653488
0.658879 0.360443 0.649524
0.793275 0.359179 0.642392
0.919242 0.359146 0.636666
1.000000 0.360161 0.632418
0.000000 0.506565 0.640667
0.094929 0.506369 0.643153
0.223221 0.505010 0.644601
0.359895 0.502376 0.644858
0.503249 0.498434 0.643753
0.648831 0.494151 0.639283
0.787707 0.491404 0.633650
0.918020 0.489932 0.629378
1.000000 0.489617 0.626474
0.000000 0.638667 0.634258
0.086931 0.639279 0.634782
0.213077 0.638765 0.634175
0.347541 0.637002 0.632317
0.488649 0.633935 0.629154
0.634450 0.629584 0.624716
0.777731 0.625374 0.620601
0.912318 0.622483 0.617802
1.000000 0.620856 0.616260
0.000000 0.765024 0.627234
0.090113 0.766993 0.626385
0.211965 0.767901 0.624343
0.342007 0.767602 0.621006
0.478630 0.766019 0.616343
0.620088 0.763097 0.610537
0.763514 0.758848 0.606384
0.900140 0.755145 0.605624
1.000000 0.752768 0.605967
0.000000 0.886071 0.624438
0.097223 0.889359 0.622258
0.214907 0.891646 0.618822
0.340657 0.892767 0.614049
0.472929 0.892626 0.607930
0.610168 0.891091 0.600801
0.751357 0.887455 0.597165
0.888320 0.883915 0.593804
1.000000 0.880809 0.595976
0.003182 1.000000 0.625467
0.107709 1.000000 0.622015
0.221414 1.000000 0.617248
0.343067 1.000000 0.611105
0.471183 1.000000 0.603596
0.604394 1.000000 0.595204
0.743440 1.000000 0.592147
0.878338 1.000000 0.589180
1.000000 1.000000 0.586438
0.001398 0.000000 0.784446
0.124191 0.000000 0.783326
0.252743 0.000000 0.782155
0.385113 0.000000 0.780948
0.519363 0.000000 0.779724
0.653550 0.000000 0.778501
0.784941 0.000000 0.776514
0.898704 0.000000 0.763991
1.000000 0.000000 0.753458
0.000000 0.117471 0.781094
0.119520 0.115371 0.792110
0.250157 0.113636 0.790375
0.384674 0.111850 0.788589
0.521101 0.110038 0.786777
0.657465 0.108227 0.784966
0.791123 0.106709 0.782524
0.908855 0.109676 0.771328
1.000000 0.113465 0.762023
0.000000 0.243125 0.777097
0.113598 0.241747 0.786631
0.243575 0.239177 0.795113
0.380341 0.236783 0.792720
0.519049 0.234356 0.790292
0.657692 0.231929 0.787866
0.793726 0.229753 0.784946
0.915615 0.231344 0.775141
1.000000 0.233860 0.767122
0.000000 0.372577 0.772980
0.107529 0.371976 0.780562
0.235437 0.370193 0.787344
0.371733 0.367143 0.792831
0.512790 0.364081 0.789769
0.653783 0.361021 0.786708
0.792263 0.358167 0.783297
0.918436 0.358340 0.774925
1.000000 0.359545 0.768230
0.000000 0.503928 0.768802
0.101370 0.504116 0.774403
0.227205 0.503158 0.779112
0.361347 0.500938 0.782727
0.502141 0.497422 0.784939
0.645516 0.493718 0.781235
0.786479 0.490177 0.777325
0.916999 0.488911 0.770406
1.000000 0.488786 0.765055
0.000000 0.635279 0.764625
0.095212 0.636256 0.768245
0.218972 0.636124 0.770880
0.350980 0.634754 0.772360
0.489597 0.632086 0.772581
0.632920 0.628140 0.771431
0.776365 0.623911 0.767023
0.911231 0.621206 0.761557
1.000000 0.619751 0.757550
0.000000 0.764615 0.760394
0.089506 0.766387 0.762080
0.211152 0.767088 0.762690
0.340981 0.766576 0.762085
0.477389 0.764778 0.760193
0.618501 0.761694 0.757014
0.762158 0.757399 0.752635
0.901236 0.753295 0.748622
1.000000 0.750547 0.745957
0.000000 0.885868 0.754948
0.096823 0.888959 0.755302
0.214300 0.891039 0.754519
0.339838 0.891948 0.752478
0.471894 0.891591 0.749130
0.608655 0.889947 0.744496
0.748158 0.887019 0.738809
0.887373 0.882878 0.734759
1.000000 0.879402 0.733924
0.003175 1.000000 0.753447
0.107505 1.000000 0.752530
0.221004 1.000000 0.750416
0.342445 1.000000 0.747005
0.470345 1.000000 0.742266
0.602952 1.000000 0.736243
0.738487 1.000000 0.729311
0.875631 1.000000 0.725738
1.000000 1.000000 0.722436
0.002352 0.000000 0.895583
0.123056 0.000000 0.895027
0.249421 0.000000 0.894446
0.379540 0.000000 0.893847
0.511506 0.000000 0.893240
0.643410 0.000000 0.892633
0.773346 0.000000 0.892035
0.898519 0.000000 0.890578
1.000000 0.000000 0.877670
0.000391 0.117747 0.894201
0.120088 0.116026 0.908162
0.248538 0.114882 0.907017
0.380804 0.113703 0.905839
0.514947 0.112508 0.904644
0.649028 0.111313 0.903449
0.781108 0.110137 0.902272
0.908479 0.109300 0.900373
1.000000 0.113273 0.888691
0.000000 0.242611 0.892188
0.116144 0.241606 0.904747
0.243739 0.239432 0.916313
0.378254 0.237646 0.914527
0.514678 0.235835 0.912716
0.651039 0.234025 0.910906
0.785365 0.232242 0.909123
0.915039 0.230768 0.906759
1.000000 0.233469 0.896363
0.000000 0.371250 0.890115
0.112118 0.371021 0.900722
0.237639 0.369627 0.910672
0.371484 0.366986 0.919334
0.510257 0.364541 0.916888
0.648967 0.362097 0.914444
0.785606 0.359689 0.912036
0.917653 0.357557 0.909194
1.000000 0.358947 0.900123
0.000000 0.501775 0.888011
0.108033 0.502335 0.896637
0.231480 0.501767 0.904513
0.363165 0.499949 0.911389
0.501472 0.496846 0.916822
0.642565 0.493759 0.913735
0.781552 0.490717 0.910693
0.916006 0.487919 0.907366
1.000000 0.487979 0.899639
0.000000 0.632300 0.885907
0.103949 0.633649 0.892552
0.225322 0.633907 0.898355
0.354871 0.632939 0.903095
0.490995 0.630678 0.906625
0.631833 0.627145 0.908695
0.773168 0.623469 0.905019
0.910029 0.620005 0.901207
1.000000 0.618735 0.894824
0.000000 0.760938 0.883834
0.099923 0.763065 0.888527
0.219252 0.764137 0.892285
0.346697 0.764006 0.894921
0.480687 0.762595 0.896316
0.619380 0.759898 0.896424
0.760668 0.755990 0.895191
0.899902 0.751868 0.890901
1.000000 0.749287 0.885842
0.000000 0.885671 0.881693
0.096434 0.888570 0.884508
0.213711 0.890450 0.886302
0.339043 0.891152 0.886914
0.470889 0.890586 0.886257
0.607440 0.888732 0.884312
0.746613 0.885649 0.881139
0.886046 0.881465 0.876877
1.000000 0.877629 0.873121
0.003169 1.000000 0.877735
0.107308 1.000000 0.879279
0.220606 1.000000 0.879741
0.341840 1.000000 0.878984
0.469531 1.000000 0.876936
0.601929 1.000000 0.873603
0.737011 1.000000 0.869061
0.872596 1.000000 0.863587
1.000000 1.000000 0.859739
0.003638 0.000000 0.996929
0.122347 0.000000 0.996912
0.246623 0.000000 0.996894
0.374591 0.000000 0.996876
0.504376 0.000000 0.996858
0.634100 0.000000 0.996840
0.761888 0.000000 0.996822
0.885864 0.000000 0.996804
1.000000 0.000000 0.996316
0.003480 0.118386 0.997429
0.121004 0.117026 1.000000
0.247366 0.116446 1.000000
0.377481 0.115848 1.000000
0.509443 0.115242 1.000000
0.641344 0.114636 1.000000
0.771276 0.114039 1.000000
0.897332 0.113460 1.000000
1.000000 0.113091 1.000000
0.003362 0.242495 0.997311
0.118950 0.241845 1.000000
0.244271 0.240050 1.000000
0.376635 0.238845 1.000000
0.510878 0.237623 1.000000
0.645059 0.236402 1.000000
0.777237 0.235198 1.000000
0.905472 0.234031 1.000000
1.000000 0.233095 1.000000
0.003241 0.370356 0.997190
0.116876 0.370483 1.000000
0.240117 0.369462 1.000000
0.371620 0.367211 1.000000
0.508212 0.365354 1.000000
0.644741 0.363499 1.000000
0.779233 0.361671 1.000000
0.909713 0.359897 1.000000
1.000000 0.358376 1.000000
0.003118 0.500092 0.997067
0.114772 0.501008 1.000000
0.235939 0.500813 1.000000
0.365276 0.499378 1.000000
0.501208 0.496671 1.000000
0.640121 0.494172 1.000000
0.776960 0.491710 1.000000
0.909717 0.489322 1.000000
1.000000 0.487208 1.000000
0.002995 0.629829 0.996944
0.112668 0.631534 1.000000
0.231761 0.632164 1.000000
0.358963 0.631579 1.000000
0.492705 0.629707 1.000000
0.631169 0.626570 1.000000
0.770356 0.623474 1.000000
0.905391 0.620471 1.000000
1.000000 0.617764 1.000000
0.002874 0.757690 0.996823
0.110595 0.760172 1.000000
0.227644 0.761616 1.000000
0.352741 0.761869 1.000000
0.484349 0.760847 1.000000
0.620663 0.758539 1.000000
0.759611 0.755020 1.000000
0.896891 0.751411 1.000000
1.000000 0.748119 1.000000
0.002756 0.881799 0.996705
0.108582 0.885036 1.000000
0.223648 0.887270 1.000000
0.346702 0.888337 1.000000
0.476238 0.888140 1.000000
0.610481 0.886656 1.000000
0.747379 0.883936 1.000000
0.884617 0.880111 1.000000
1.000000 0.876252 1.000000
0.003164 1.000000 0.996454
0.107119 1.000000 1.000000
0.220226 1.000000 1.000000
0.341263 1.000000 1.000000
0.468754 1.000000 1.000000
0.600952 1.000000 1.000000
0.735836 1.000000 1.000000
0.871116 1.000000 0.999653
1.000000 1.000000 0.995703
