assets/LUTs/rescue_warm_natural_33.cube
TITLE "Rescue Warm Natural"
LUT_3D_SIZE 33
DOMAIN_MIN 0.0 0.0 0.0
DOMAIN_MAX 1.0 1.0 1.0
0.019240 0.000000 0.000000
0.049909 0.000000 0.000000
0.081274 0.000000 0.000000
0.113287 0.000000 0.000000
0.145896 0.000000 0.000000
0.179053 0.000000 0.000000
0.212708 0.000000 0.000000
0.246811 0.000000 0.000000
0.281314 0.000000 0.000000
0.316165 0.000000 0.000000
0.351317 0.000000 0.000000
0.386718 0.000000 0.000000
0.422320 0.000000 0.000000
0.458073 0.000000 0.000000
0.493928 0.000000 0.000000
0.529834 0.000000 0.000000
0.565743 0.000000 0.000000
0.601604 0.000000 0.000000
0.637369 0.000000 0.000000
0.672987 0.000000 0.000000
0.708409 0.000000 0.000000
0.743585 0.000000 0.000000
0.778467 0.000000 0.000000
0.813004 0.000000 0.000000
0.847146 0.000000 0.000000
0.880844 0.000000 0.000000
0.914050 0.000000 0.000000
0.946712 0.000000 0.000000
0.978781 0.000000 0.000000
1.000000 0.000000 0.000000
1.000000 0.000000 0.000000
1.000000 0.000000 0.000000
1.000000 0.000000 0.000000
0.017853 0.024487 0.000000
0.048522 0.023996 0.000000
0.079887 0.023494 0.000000
0.111900 0.022982 0.000000
0.144509 0.022460 0.000000
0.177666 0.021930 0.000000
0.211321 0.021391 0.000000
0.245424 0.020846 0.000000
0.279927 0.020294 0.000000
0.314778 0.019736 0.000000
0.349929 0.019174 0.000000
0.385331 0.018607 0.000000
0.420933 0.018038 0.000000
0.456686 0.017466 0.000000
0.492541 0.016892 0.000000
0.528447 0.016317 0.000000
0.564356 0.015743 0.000000
0.600217 0.015169 0.000000
0.635982 0.014597 0.000000
0.671600 0.014027 0.000000
0.707022 0.013460 0.000000
0.742198 0.012897 0.000000
0.777080 0.012339 0.000000
0.811616 0.011787 0.000000
0.845759 0.011240 0.000000
0.879457 0.010701 0.000000
0.912663 0.010170 0.000000
0.945325 0.009647 0.000000
0.977394 0.009134 0.000000
1.000000 0.008631 0.000000
1.000000 0.008140 0.000000
1.000000 0.007787 0.000000
1.000000 0.007787 0.000000
0.016227 0.053556 0.000000
0.046896 0.053065 0.000000
0.078261 0.052563 0.000000
0.110273 0.052051 0.000000
0.142883 0.051530 0.000000
0.176040 0.050999 0.000000
0.209695 0.050461 0.000000
0.243798 0.049915 0.000000
0.278300 0.049363 0.000000
0.313152 0.048805 0.000000
0.348303 0.048243 0.000000
0.383705 0.047676 0.000000
0.419307 0.047107 0.000000
0.455060 0.046535 0.000000
0.490914 0.045961 0.000000
0.526821 0.045386 0.000000
0.562729 0.044812 0.000000
0.598591 0.044238 0.000000
0.634355 0.043666 0.000000
0.669974 0.043096 0.000000
0.705396 0.042529 0.000000
0.740572 0.041966 0.000000
0.775454 0.041408 0.000000
0.809990 0.040856 0.000000
0.844133 0.040309 0.000000
0.877831 0.039770 0.000000
0.911036 0.039239 0.000000
0.943698 0.038716 0.000000
0.975768 0.038203 0.000000
1.000000 0.037700 0.000000
1.000000 0.037209 0.000000
1.000000 0.036856 0.000000
1.000000 0.036856 0.000000
0.014565 0.083260 0.000000
0.045234 0.082769 0.000000
0.076600 0.082268 0.000000
0.108612 0.081755 0.000000
0.141221 0.081234 0.000000
0.174378 0.080703 0.000000
0.208033 0.080165 0.000000
0.242136 0.079619 0.000000
0.276639 0.079067 0.000000
0.311490 0.078509 0.000000
0.346642 0.077947 0.000000
0.382043 0.077380 0.000000
0.417645 0.076811 0.000000
0.453398 0.076239 0.000000
0.489253 0.075665 0.000000
0.525159 0.075091 0.000000
0.561068 0.074516 0.000000
0.596929 0.073942 0.000000
0.632694 0.073370 0.000000
0.668312 0.072800 0.000000
0.703734 0.072233 0.000000
0.738911 0.071670 0.000000
0.773792 0.071112 0.000000
0.808329 0.070560 0.000000
0.842471 0.070013 0.000000
0.876170 0.069474 0.000000
0.909375 0.068943 0.000000
0.942037 0.068420 0.000000
0.974106 0.067907 0.000000
1.000000 0.067404 0.000000
1.000000 0.066913 0.000000
1.000000 0.066560 0.000000
1.000000 0.066560 0.000000
0.012870 0.113554 0.000000
0.043539 0.113063 0.000000
0.074905 0.112562 0.000000
0.106917 0.112049 0.000000
0.139526 0.111528 0.000000
0.172683 0.110997 0.000000
0.206338 0.110459 0.000000
0.240442 0.109913 0.000000
0.274944 0.109361 0.000000
0.309796 0.108803 0.000000
0.344947 0.108241 0.000000
0.380348 0.107674 0.000000
0.415950 0.107105 0.000000
0.451704 0.106533 0.000000
0.487558 0.105959 0.000000
0.523464 0.105385 0.000000
0.559373 0.104810 0.000000
0.595234 0.104236 0.000000
0.630999 0.103664 0.000000
0.666617 0.103094 0.000000
0.702039 0.102527 0.000000
0.737216 0.101965 0.000000
0.772097 0.101406 0.000000
0.806634 0.100854 0.000000
0.840776 0.100308 0.000000
0.874475 0.099768 0.000000
0.907680 0.099237 0.000000
0.940342 0.098715 0.000000
0.972412 0.098201 0.000000
1.000000 0.097699 0.000000
1.000000 0.097207 0.000000
1.000000 0.096854 0.000000
1.000000 0.096854 0.000000
0.011145 0.144393 0.000000
0.041814 0.143903 0.000000
0.073180 0.143401 0.000000
0.105192 0.142889 0.000000
0.137801 0.142367 0.000000
0.170958 0.141836 0.000000
0.204613 0.141298 0.000000
0.238717 0.140752 0.000000
0.273219 0.140200 0.000000
0.308070 0.139643 0.000000
0.343222 0.139080 0.000000
0.378623 0.138514 0.000000
0.414225 0.137944 0.000000
0.449978 0.137372 0.000000
0.485833 0.136798 0.000000
0.521739 0.136224 0.000000
0.557648 0.135649 0.000000
0.593509 0.135076 0.000000
0.629274 0.134503 0.000000
0.664892 0.133933 0.000000
0.700314 0.133367 0.000000
0.735491 0.132804 0.000000
0.770372 0.132246 0.000000
0.804909 0.131693 0.000000
0.839051 0.131147 0.000000
0.872750 0.130608 0.000000
0.905955 0.130076 0.000000
0.938617 0.129554 0.000000
0.970686 0.129041 0.000000
1.000000 0.128538 0.000000
1.000000 0.128046 0.000000
1.000000 0.127693 0.000000
1.000000 0.127693 0.000000
0.009392 0.175733 0.000000
0.040061 0.175242 0.000000
0.071427 0.174740 0.000000
0.103439 0.174228 0.000000
0.136048 0.173706 0.000000
0.169205 0.173176 0.000000
0.202860 0.172637 0.000000
0.236963 0.172092 0.000000
0.271466 0.171540 0.000000
0.306317 0.170982 0.000000
0.341469 0.170420 0.000000
0.376870 0.169853 0.000000
0.412472 0.169283 0.000000
0.448225 0.168711 0.000000
0.484080 0.168138 0.000000
0.519986 0.167563 0.000000
0.555895 0.166989 0.000000
0.591756 0.166415 0.000000
0.627521 0.165843 0.000000
0.663139 0.165273 0.000000
0.698561 0.164706 0.000000
0.733737 0.164143 0.000000
0.768619 0.163585 0.000000
0.803156 0.163032 0.000000
0.837298 0.162486 0.000000
0.870997 0.161947 0.000000
0.904202 0.161416 0.000000
0.936864 0.160893 0.000000
0.968933 0.160380 0.000000
1.000000 0.159877 0.000000
1.000000 0.159385 0.000000
1.000000 0.159033 0.000000
1.000000 0.159033 0.000000
0.007613 0.207527 0.000000
0.038282 0.207037 0.000000
0.069648 0.206535 0.000000
0.101660 0.206023 0.000000
0.134269 0.205501 0.000000
0.167426 0.204970 0.000000
0.201081 0.204432 0.000000
0.235185 0.203886 0.000000
0.269687 0.203334 0.000000
0.304539 0.202777 0.000000
0.339690 0.202214 0.000000
0.375091 0.201648 0.000000
0.410693 0.201078 0.000000
0.446447 0.200506 0.000000
0.482301 0.199932 0.000000
0.518207 0.199358 0.000000
0.554116 0.198783 0.000000
0.589977 0.198210 0.000000
0.625742 0.197637 0.000000
0.661360 0.197067 0.000000
0.696782 0.196501 0.000000
0.731959 0.195938 0.000000
0.766840 0.195380 0.000000
0.801377 0.194827 0.000000
0.835519 0.194281 0.000000
0.869218 0.193742 0.000000
0.902423 0.193210 0.000000
0.935085 0.192688 0.000000
0.967155 0.192175 0.000000
0.998582 0.191672 0.000000
1.000000 0.191180 0.000000
1.000000 0.190827 0.000000
1.000000 0.190827 0.000000
0.005812 0.239732 0.000000
0.036481 0.239242 0.000000
0.067846 0.238740 0.000000
0.099858 0.238228 0.000000
0.132468 0.237706 0.000000
0.165625 0.237175 0.000000
0.199280 0.236637 0.000000
0.233383 0.236091 0.000000
0.267885 0.235539 0.000000
0.302737 0.234981 0.000000
0.337888 0.234419 0.000000
0.373290 0.233853 0.000000
0.408892 0.233283 0.000000
0.444645 0.232711 0.000000
0.480499 0.232137 0.000000
0.516406 0.231563 0.000000
0.552314 0.230988 0.000000
0.588176 0.230414 0.000000
0.623940 0.229842 0.000000
0.659559 0.229272 0.000000
0.694981 0.228706 0.000000
0.730157 0.228143 0.000000
0.765039 0.227585 0.000000
0.799575 0.227032 0.000000
0.833718 0.226486 0.000000
0.867416 0.225947 0.000000
0.900621 0.225415 0.000000
0.933284 0.224893 0.000000
0.965353 0.224380 0.000000
0.996780 0.223877 0.000000
1.000000 0.223385 0.000000
1.000000 0.223032 0.000000
1.000000 0.223032 0.000000
0.003990 0.272303 0.000000
0.034659 0.271812 0.000000
0.066024 0.271310 0.000000
0.098036 0.270798 0.000000
0.130646 0.270276 0.000000
0.163803 0.269745 0.000000
0.197458 0.269207 0.000000
0.231561 0.268661 0.000000
0.266063 0.268109 0.000000
0.300915 0.267552 0.000000
0.336066 0.266989 0.000000
0.371468 0.266423 0.000000
0.407070 0.265853 0.000000
0.442823 0.265281 0.000000
0.478677 0.264707 0.000000
0.514584 0.264133 0.000000
0.550492 0.263558 0.000000
0.586354 0.262985 0.000000
0.622118 0.262412 0.000000
0.657737 0.261842 0.000000
0.693159 0.261276 0.000000
0.728335 0.260713 0.000000
0.763217 0.260155 0.000000
0.797753 0.259602 0.000000
0.831896 0.259056 0.000000
0.865594 0.258517 0.000000
0.898799 0.257985 0.000000
0.931461 0.257463 0.000000
0.963531 0.256950 0.000000
0.994958 0.256447 0.000000
1.000000 0.255955 0.000000
1.000000 0.255602 0.000000
1.000000 0.255602 0.000000
0.002150 0.305193 0.000000
0.032819 0.304702 0.000000
0.064184 0.304201 0.000000
0.096197 0.303688 0.000000
0.128806 0.303167 0.000000
0.161963 0.302636 0.000000
0.195618 0.302098 0.000000
0.229721 0.301552 0.000000
0.264223 0.301000 0.000000
0.299075 0.300442 0.000000
0.334226 0.299880 0.000000
0.369628 0.299313 0.000000
0.405230 0.298744 0.000000
0.440983 0.298172 0.000000
0.476837 0.297598 0.000000
0.512744 0.297024 0.000000
0.548653 0.296449 0.000000
0.584514 0.295875 0.000000
0.620278 0.295303 0.000000
0.655897 0.294733 0.000000
0.691319 0.294166 0.000000
0.726495 0.293603 0.000000
0.761377 0.293045 0.000000
0.795913 0.292493 0.000000
0.830056 0.291946 0.000000
0.863754 0.291407 0.000000
0.896959 0.290876 0.000000
0.929622 0.290353 0.000000
0.961691 0.289840 0.000000
0.993118 0.289337 0.000000
1.000000 0.288846 0.000000
1.000000 0.288493 0.000000
1.000000 0.288493 0.000000
0.000294 0.338359 0.000000
0.030964 0.337868 0.000000
0.062329 0.337367 0.000000
0.094341 0.336854 0.000000
0.126950 0.336333 0.000000
0.160107 0.335802 0.000000
0.193762 0.335264 0.000000
0.227866 0.334718 0.000000
0.262368 0.334166 0.000000
0.297220 0.333608 0.000000
0.332371 0.333046 0.000000
0.367772 0.332479 0.000000
0.403375 0.331910 0.000000
0.439128 0.331338 0.000000
0.474982 0.330764 0.000000
0.510888 0.330190 0.000000
0.546797 0.329615 0.000000
0.582659 0.329041 0.000000
0.618423 0.328469 0.000000
0.654041 0.327899 0.000000
0.689463 0.327332 0.000000
0.724640 0.326769 0.000000
0.759521 0.326211 0.000000
0.794058 0.325659 0.000000
0.828200 0.325113 0.000000
0.861899 0.324573 0.000000
0.895104 0.324042 0.000000
0.927766 0.323519 0.000000
0.959836 0.323006 0.000000
0.991263 0.322503 0.000000
1.000000 0.322012 0.000000
1.000000 0.321659 0.000000
1.000000 0.321659 0.000000
0.000000 0.371756 0.000000
0.029095 0.371265 0.000000
0.060461 0.370763 0.000000
0.092473 0.370251 0.000000
0.125082 0.369729 0.000000
0.158239 0.369199 0.000000
0.191894 0.368660 0.000000
0.225998 0.368114 0.000000
0.260500 0.367562 0.000000
0.295351 0.367005 0.000000
0.330503 0.366442 0.000000
0.365904 0.365876 0.000000
0.401506 0.365306 0.000000
0.437259 0.364734 0.000000
0.473114 0.364161 0.000000
0.509020 0.363586 0.000000
0.544929 0.363012 0.000000
0.580790 0.362438 0.000000
0.616555 0.361865 0.000000
0.652173 0.361296 0.000000
0.687595 0.360729 0.000000
0.722772 0.360166 0.000000
0.757653 0.359608 0.000000
0.792190 0.359055 0.000000
0.826332 0.358509 0.000000
0.860031 0.357970 0.000000
0.893236 0.357439 0.000000
0.925898 0.356916 0.000000
0.957967 0.356403 0.000000
0.989395 0.355900 0.000000
1.000000 0.355408 0.000000
1.000000 0.355055 0.000000
1.000000 0.355055 0.000000
0.000000 0.405338 0.000000
0.027217 0.404847 0.000000
0.058582 0.404345 0.000000
0.090594 0.403833 0.000000
0.123204 0.403311 0.000000
0.156361 0.402781 0.000000
0.190016 0.402242 0.000000
0.224119 0.401696 0.000000
0.258621 0.401144 0.000000
0.293473 0.400587 0.000000
0.328624 0.400024 0.000000
0.364026 0.399458 0.000000
0.399628 0.398888 0.000000
0.435381 0.398316 0.000000
0.471235 0.397743 0.000000
0.507142 0.397168 0.000000
0.543050 0.396594 0.000000
0.578912 0.396020 0.000000
0.614676 0.395448 0.000000
0.650294 0.394878 0.000000
0.685716 0.394311 0.000000
0.720893 0.393748 0.000000
0.755774 0.393190 0.000000
0.790311 0.392637 0.000000
0.824454 0.392091 0.000000
0.858152 0.391552 0.000000
0.891357 0.391021 0.000000
0.924019 0.390498 0.000000
0.956089 0.389985 0.000000
0.987516 0.389482 0.000000
1.000000 0.388990 0.000000
1.000000 0.388638 0.000000
1.000000 0.388638 0.000000
0.000000 0.439060 0.000000
0.025330 0.438570 0.000000
0.056696 0.438068 0.000000
0.088708 0.437556 0.000000
0.121317 0.437034 0.000000
0.154474 0.436503 0.000000
0.188129 0.435965 0.000000
0.222232 0.435419 0.000000
0.256735 0.434867 0.000000
0.291586 0.434309 0.000000
0.326738 0.433747 0.000000
0.362139 0.433181 0.000000
0.397741 0.432611 0.000000
0.433494 0.432039 0.000000
0.469349 0.431465 0.000000
0.505255 0.430891 0.000000
0.541164 0.430316 0.000000
0.577025 0.429742 0.000000
0.612790 0.429170 0.000000
0.648408 0.428600 0.000000
0.683830 0.428034 0.000000
0.719007 0.427471 0.000000
0.753888 0.426913 0.000000
0.788425 0.426360 0.000000
0.822567 0.425814 0.000000
0.856266 0.425275 0.000000
0.889471 0.424743 0.000000
0.922133 0.424221 0.000000
0.954202 0.423708 0.000000
0.985630 0.423205 0.000000
1.000000 0.422713 0.000000
1.000000 0.422360 0.000000
1.000000 0.422360 0.000000
0.000000 0.472879 0.000000
0.023438 0.472388 0.000000
0.054804 0.471886 0.000000
0.086816 0.471374 0.000000
0.119425 0.470852 0.000000
0.152582 0.470322 0.000000
0.186237 0.469783 0.000000
0.220341 0.469237 0.000000
0.254843 0.468685 0.000000
0.289694 0.468128 0.000000
0.324846 0.467565 0.000000
0.360247 0.466999 0.000000
0.395849 0.466429 0.000000
0.431602 0.465857 0.000000
0.467457 0.465284 0.000000
0.503363 0.464709 0.000000
0.539272 0.464134 0.000000
0.575133 0.463561 0.000000
0.610898 0.462988 0.000000
0.646516 0.462419 0.000000
0.681938 0.461852 0.000000
0.717115 0.461289 0.000000
0.751996 0.460731 0.000000
0.786533 0.460178 0.000000
0.820675 0.459632 0.000000
0.854374 0.459093 0.000000
0.887579 0.458562 0.000000
0.920241 0.458039 0.000000
0.952310 0.457526 0.000000
0.983738 0.457023 0.000000
1.000000 0.456531 0.000000
1.000000 0.456178 0.000000
1.000000 0.456178 0.000000
0.000000 0.506748 0.000000
0.021544 0.506257 0.000000
0.052909 0.505755 0.000000
0.084921 0.505243 0.000000
0.117531 0.504721 0.000000
0.150688 0.504191 0.000000
0.184343 0.503652 0.000000
0.218446 0.503106 0.000000
0.252948 0.502554 0.000000
0.287800 0.501997 0.000000
0.322951 0.501434 0.000000
0.358353 0.500868 0.000000
0.393955 0.500298 0.000000
0.429708 0.499726 0.000000
0.465562 0.499153 0.000000
0.501469 0.498578 0.000000
0.537377 0.498003 0.000000
0.573239 0.497430 0.000000
0.609003 0.496857 0.000000
0.644621 0.496288 0.000000
0.680043 0.495721 0.000000
0.715220 0.495158 0.000000
0.750101 0.494600 0.000000
0.784638 0.494047 0.000000
0.818781 0.493501 0.000000
0.852479 0.492962 0.000000
0.885684 0.492431 0.000000
0.918346 0.491908 0.000000
0.950416 0.491395 0.000000
0.981843 0.490892 0.000000
1.000000 0.490400 0.000000
1.000000 0.490047 0.000000
1.000000 0.490047 0.000000
0.000000 0.540622 0.000000
0.019649 0.540132 0.000000
0.051014 0.539630 0.000000
0.083026 0.539118 0.000000
0.115636 0.538596 0.000000
0.148793 0.538065 0.000000
0.182447 0.537527 0.000000
0.216551 0.536981 0.000000
0.251053 0.536429 0.000000
0.285905 0.535871 0.000000
0.321056 0.535309 0.000000
0.356458 0.534743 0.000000
0.392060 0.534173 0.000000
0.427813 0.533601 0.000000
0.463667 0.533027 0.000000
0.499574 0.532453 0.000000
0.535482 0.531878 0.000000
0.571344 0.531304 0.000000
0.607108 0.530732 0.000000
0.642726 0.530162 0.000000
0.678148 0.529596 0.000000
0.713325 0.529033 0.000000
0.748206 0.528475 0.000000
0.782743 0.527922 0.000000
0.816886 0.527376 0.000000
0.850584 0.526837 0.000000
0.883789 0.526305 0.000000
0.916451 0.525783 0.000000
0.948521 0.525270 0.000000
0.979948 0.524767 0.000000
1.000000 0.524275 0.000000
1.000000 0.523922 0.000000
1.000000 0.523922 0.000000
0.000000 0.574458 0.000000
0.017756 0.573967 0.000000
0.049121 0.573465 0.000000
0.081133 0.572953 0.000000
0.113743 0.572431 0.000000
0.146900 0.571901 0.000000
0.180555 0.571362 0.000000
0.214658 0.570817 0.000000
0.249160 0.570265 0.000000
0.284012 0.569707 0.000000
0.319163 0.569145 0.000000
0.354565 0.568578 0.000000
0.390167 0.568009 0.000000
0.425920 0.567436 0.000000
0.461774 0.566863 0.000000
0.497681 0.566288 0.000000
0.533589 0.565714 0.000000
0.569451 0.565140 0.000000
0.605215 0.564568 0.000000
0.640834 0.563998 0.000000
0.676256 0.563431 0.000000
0.711432 0.562868 0.000000
0.746314 0.562310 0.000000
0.780850 0.561758 0.000000
0.814993 0.561211 0.000000
0.848691 0.560672 0.000000
0.881896 0.560141 0.000000
0.914558 0.559618 0.000000
0.946628 0.559105 0.000000
0.978055 0.558602 0.000000
1.000000 0.558110 0.000000
1.000000 0.557758 0.000000
1.000000 0.557758 0.000000
0.000000 0.608209 0.000000
0.015868 0.607719 0.000000
0.047233 0.607217 0.000000
0.079245 0.606704 0.000000
0.111855 0.606183 0.000000
0.145012 0.605652 0.000000
0.178667 0.605114 0.000000
0.212770 0.604568 0.000000
0.247272 0.604016 0.000000
0.282124 0.603458 0.000000
0.317275 0.602896 0.000000
0.352677 0.602330 0.000000
0.388279 0.601760 0.000000
0.424032 0.601188 0.000000
0.459886 0.600614 0.000000
0.495793 0.600040 0.000000
0.531701 0.599465 0.000000
0.567563 0.598891 0.000000
0.603327 0.598319 0.000000
0.638945 0.597749 0.000000
0.674368 0.597182 0.000000
0.709544 0.596620 0.000000
0.744426 0.596062 0.000000
0.778962 0.595509 0.000000
0.813105 0.594963 0.000000
0.846803 0.594423 0.000000
0.880008 0.593892 0.000000
0.912670 0.593370 0.000000
0.944740 0.592856 0.000000
0.976167 0.592354 0.000000
1.000000 0.591862 0.000000
1.000000 0.591509 0.000000
1.000000 0.591509 0.000000
0.000000 0.641832 0.000000
0.013987 0.641341 0.000000
0.045352 0.640839 0.000000
0.077364 0.640327 0.000000
0.109974 0.639805 0.000000
0.143131 0.639275 0.000000
0.176786 0.638736 0.000000
0.210889 0.638190 0.000000
0.245391 0.637638 0.000000
0.280243 0.637081 0.000000
0.315394 0.636518 0.000000
0.350796 0.635952 0.000000
0.386398 0.635382 0.000000
0.422151 0.634810 0.000000
0.458005 0.634237 0.000000
0.493912 0.633662 0.000000
0.529820 0.633087 0.000000
0.565682 0.632514 0.000000
0.601446 0.631941 0.000000
0.637065 0.631372 0.000000
0.672487 0.630805 0.000000
0.707663 0.630242 0.000000
0.742545 0.629684 0.000000
0.777081 0.629131 0.000000
0.811224 0.628585 0.000000
0.844922 0.628046 0.000000
0.878127 0.627515 0.000000
0.910789 0.626992 0.000000
0.942859 0.626479 0.000000
0.974286 0.625976 0.000000
1.000000 0.625484 0.000000
1.000000 0.625131 0.000000
1.000000 0.625131 0.000000
0.000000 0.675280 0.000000
0.012116 0.674789 0.000000
0.043481 0.674287 0.000000
0.075493 0.673775 0.000000
0.108103 0.673253 0.000000
0.141260 0.672723 0.000000
0.174915 0.672184 0.000000
0.209018 0.671639 0.000000
0.243520 0.671087 0.000000
0.278372 0.670529 0.000000
0.313523 0.669967 0.000000
0.348925 0.669400 0.000000
0.384527 0.668831 0.000000
0.420280 0.668258 0.000000
0.456134 0.667685 0.000000
0.492041 0.667110 0.000000
0.527949 0.666536 0.000000
0.563811 0.665962 0.000000
0.599575 0.665390 0.000000
0.635193 0.664820 0.000000
0.670616 0.664253 0.000000
0.705792 0.663690 0.000000
0.740673 0.663132 0.000000
0.775210 0.662580 0.000000
0.809353 0.662033 0.000000
0.843051 0.661494 0.000000
0.876256 0.660963 0.000000
0.908918 0.660440 0.000000
0.940988 0.659927 0.000000
0.972415 0.659424 0.000000
1.000000 0.658932 0.000000
1.000000 0.658580 0.000000
1.000000 0.658580 0.000000
0.000000 0.708509 0.000000
0.010257 0.708018 0.000000
0.041622 0.707517 0.000000
0.073634 0.707004 0.000000
0.106244 0.706483 0.000000
0.139401 0.705952 0.000000
0.173056 0.705414 0.000000
0.207159 0.704868 0.000000
0.241661 0.704316 0.000000
0.276513 0.703758 0.000000
0.311664 0.703196 0.000000
0.347066 0.702629 0.000000
0.382668 0.702060 0.000000
0.418421 0.701488 0.000000
0.454275 0.700914 0.000000
0.490182 0.700340 0.000000
0.526090 0.699765 0.000000
0.561952 0.699191 0.000000
0.597716 0.698619 0.000000
0.633335 0.698049 0.000000
0.668757 0.697482 0.000000
0.703933 0.696920 0.000000
0.738815 0.696361 0.000000
0.773351 0.695809 0.000000
0.807494 0.695263 0.000000
0.841192 0.694723 0.000000
0.874397 0.694192 0.000000
0.907059 0.693670 0.000000
0.939129 0.693156 0.000000
0.970556 0.692654 0.000000
1.000000 0.692162 0.000000
1.000000 0.691809 0.000000
1.000000 0.691809 0.000000
0.000000 0.741475 0.000000
0.008413 0.740984 0.000000
0.039778 0.740482 0.000000
0.071790 0.739970 0.000000
0.104400 0.739448 0.000000
0.137557 0.738918 0.000000
0.171212 0.738379 0.000000
0.205315 0.737833 0.000000
0.239817 0.737281 0.000000
0.274669 0.736724 0.000000
0.309820 0.736161 0.000000
0.345222 0.735595 0.000000
0.380824 0.735025 0.000000
0.416577 0.734453 0.000000
0.452431 0.733879 0.000000
0.488338 0.733305 0.000000
0.524246 0.732730 0.000000
0.560108 0.732157 0.000000
0.595872 0.731584 0.000000
0.631490 0.731015 0.000000
0.666912 0.730448 0.000000
0.702089 0.729885 0.000000
0.736970 0.729327 0.000000
0.771507 0.728774 0.000000
0.805650 0.728228 0.000000
0.839348 0.727689 0.000000
0.872553 0.727157 0.000000
0.905215 0.726635 0.000000
0.937285 0.726122 0.000000
0.968712 0.725619 0.000000
0.999448 0.725127 0.000000
1.000000 0.724774 0.000000
1.000000 0.724774 0.000000
0.000000 0.774131 0.000000
0.006586 0.773640 0.000000
0.037951 0.773138 0.000000
0.069963 0.772626 0.000000
0.102573 0.772105 0.000000
0.135730 0.771574 0.000000
0.169385 0.771036 0.000000
0.203488 0.770490 0.000000
0.237990 0.769938 0.000000
0.272842 0.769380 0.000000
0.307993 0.768818 0.000000
0.343395 0.768251 0.000000
0.378997 0.767682 0.000000
0.414750 0.767110 0.000000
0.450604 0.766536 0.000000
0.486511 0.765961 0.000000
0.522419 0.765387 0.000000
0.558281 0.764813 0.000000
0.594045 0.764241 0.000000
0.629664 0.763671 0.000000
0.665086 0.763104 0.000000
0.700262 0.762541 0.000000
0.735144 0.761983 0.000000
0.769680 0.761431 0.000000
0.803823 0.760884 0.000000
0.837521 0.760345 0.000000
0.870726 0.759814 0.000000
0.903388 0.759291 0.000000
0.935458 0.758778 0.000000
0.966885 0.758275 0.000000
0.997621 0.757784 0.000000
1.000000 0.757431 0.000000
1.000000 0.757431 0.000000
0.000000 0.806434 0.000000
0.004779 0.805943 0.000000
0.036144 0.805441 0.000000
0.068156 0.804929 0.000000
0.100766 0.804407 0.000000
0.133923 0.803877 0.000000
0.167578 0.803338 0.000000
0.201681 0.802793 0.000000
0.236183 0.802241 0.000000
0.271035 0.801683 0.000000
0.306186 0.801120 0.000000
0.341588 0.800554 0.000000
0.377190 0.799984 0.000000
0.412943 0.799412 0.000000
0.448797 0.798839 0.000000
0.484704 0.798264 0.000000
0.520612 0.797690 0.000000
0.556474 0.797116 0.000000
0.592238 0.796544 0.000000
0.627856 0.795974 0.000000
0.663279 0.795407 0.000000
0.698455 0.794844 0.000000
0.733337 0.794286 0.000000
0.767873 0.793733 0.000000
0.802016 0.793187 0.000000
0.835714 0.792648 0.000000
0.868919 0.792117 0.000000
0.901581 0.791594 0.000000
0.933651 0.791081 0.000000
0.965078 0.790578 0.000000
0.995814 0.790086 0.000000
1.000000 0.789734 0.000000
1.000000 0.789734 0.000000
0.000000 0.838338 0.000000
0.002994 0.837847 0.000000
0.034359 0.837345 0.000000
0.066372 0.836833 0.000000
0.098981 0.836311 0.000000
0.132138 0.835781 0.000000
0.165793 0.835242 0.000000
0.199896 0.834696 0.000000
0.234399 0.834144 0.000000
0.269250 0.833587 0.000000
0.304401 0.833024 0.000000
0.339803 0.832458 0.000000
0.375405 0.831888 0.000000
0.411158 0.831316 0.000000
0.447013 0.830743 0.000000
0.482919 0.830168 0.000000
0.518828 0.829594 0.000000
0.554689 0.829020 0.000000
0.590454 0.828448 0.000000
0.626072 0.827878 0.000000
0.661494 0.827311 0.000000
0.696670 0.826748 0.000000
0.731552 0.826190 0.000000
0.766088 0.825637 0.000000
0.800231 0.825091 0.000000
0.833929 0.824552 0.000000
0.867135 0.824021 0.000000
