assets/LUTs/rescue_deyellow_33.cube
TITLE "Rescue De-Yellow"
LUT_3D_SIZE 5
DOMAIN_MIN 0.0 0.0 0.0
DOMAIN_MAX 1.0 1.0 1.0
0.000000 0.000000 0.000000
0.245366 0.000000 0.000000
0.509863 0.000000 0.000000
0.775037 0.000000 0.000000
1.000000 0.000000 0.000000
0.000000 0.234822 0.000000
0.237087 0.232312 0.000000
0.501584 0.229607 0.000000
0.766757 0.226895 0.000000
1.000000 0.224365 0.000000
0.000000 0.494341 0.000000
0.227937 0.491831 0.000000
0.492434 0.489126 0.000000
0.757607 0.486414 0.000000
1.000000 0.483884 0.000000
0.000000 0.754751 0.000000
0.218755 0.752242 0.000000
0.483252 0.749537 0.000000
0.748426 0.746825 0.000000
0.995821 0.744294 0.000000
0.000000 0.997712 0.000000
0.210189 0.995202 0.000000
0.474686 0.992497 0.000000
0.739860 0.989785 0.000000
0.987255 0.987255 0.000000
0.000000 0.000000 0.265055
0.244452 0.000000 0.262546
0.508949 0.000000 0.259841
0.774122 0.000000 0.257129
1.000000 0.000000 0.254598
0.000000 0.233907 0.256776
0.236172 0.231398 0.254266
0.500669 0.228693 0.251561
0.765843 0.225981 0.248849
1.000000 0.223451 0.246319
0.000000 0.493426 0.247626
0.227022 0.490917 0.245116
0.491519 0.488212 0.242411
0.756693 0.485500 0.239699
1.000000 0.482970 0.237169
0.000000 0.753837 0.238444
0.217841 0.751327 0.235935
0.482338 0.748622 0.233230
0.747511 0.745910 0.230518
0.994907 0.743380 0.227987
0.000000 0.996797 0.229878
0.209274 0.994288 0.227368
0.473771 0.991583 0.224663
0.738945 0.988871 0.221951
0.986341 0.986341 0.219421
0.000000 0.000000 0.550659
0.243466 0.000000 0.548150
0.507963 0.000000 0.545445
0.773137 0.000000 0.542733
1.000000 0.000000 0.540203
0.000000 0.232922 0.542380
0.235187 0.230413 0.539871
0.499684 0.227707 0.537166
0.764858 0.224995 0.534454
1.000000 0.222465 0.531923
0.000000 0.492441 0.533230
0.226037 0.489932 0.530721
0.490534 0.487227 0.528015
0.755708 0.484515 0.525303
1.000000 0.481984 0.522773
0.000000 0.752851 0.524049
0.216855 0.750342 0.521539
0.481352 0.747637 0.518834
0.746526 0.744925 0.516122
0.993922 0.742395 0.513592
0.000000 0.995812 0.515482
0.208289 0.993303 0.512973
0.472786 0.990598 0.510268
0.737960 0.987886 0.507556
0.985355 0.985355 0.505025
0.000000 0.000000 0.834101
0.242488 0.000000 0.831591
0.506985 0.000000 0.828886
0.772159 0.000000 0.826174
1.000000 0.000000 0.823644
0.000000 0.231944 0.825821
0.234209 0.229435 0.823312
0.498706 0.226730 0.820607
0.763880 0.224018 0.817895
1.000000 0.221487 0.815365
0.000000 0.491463 0.816671
0.225059 0.488954 0.814162
0.489556 0.486249 0.811457
0.754730 0.483537 0.808745
1.000000 0.481007 0.806215
0.000000 0.751874 0.807490
0.215877 0.749364 0.804980
0.480375 0.746659 0.802275
0.745548 0.743947 0.799563
0.992944 0.741417 0.797033
0.000000 0.994834 0.798924
0.207311 0.992325 0.796414
0.471808 0.989620 0.793709
0.736982 0.986908 0.790997
0.984378 0.984378 0.788467
0.000000 0.000000 1.000000
0.241756 0.000000 1.000000
0.506253 0.000000 1.000000
0.771427 0.000000 1.000000
1.000000 0.000000 1.000000
0.000000 0.231212 1.000000
0.233477 0.228702 1.000000
0.497974 0.225997 1.000000
0.763147 0.223285 1.000000
1.000000 0.220755 1.000000
0.000000 0.490731 1.000000
0.224327 0.488221 1.000000
0.488824 0.485516 1.000000
0.753997 0.482804 1.000000
1.000000 0.480274 1.000000
0.000000 0.751141 1.000000
0.215145 0.748632 1.000000
0.479642 0.745927 1.000000
0.744816 0.743215 1.000000
0.992211 0.740684 1.000000
0.000000 0.994102 1.000000
0.206579 0.991592 1.000000
0.471076 0.988887 1.000000
0.736250 0.986175 1.000000
0.983645 0.983645 1.000000
