assets/LUTs/rescue_warm_natural_33.cube
TITLE "Rescue Warm Natural"
LUT_3D_SIZE 5
DOMAIN_MIN 0.0 0.0 0.0
DOMAIN_MAX 1.0 1.0 1.0
0.019240 0.000000 0.000000
0.281314 0.000000 0.000000
0.565743 0.000000 0.000000
0.847146 0.000000 0.000000
1.000000 0.000000 0.000000
0.005812 0.239732 0.000000
0.267885 0.235539 0.000000
0.552314 0.230988 0.000000
0.833718 0.226486 0.000000
1.000000 0.223032 0.000000
0.000000 0.506748 0.000000
0.252948 0.502554 0.000000
0.537377 0.498003 0.000000
0.818781 0.493501 0.000000
1.000000 0.490047 0.000000
0.000000 0.774131 0.000000
0.237990 0.769938 0.000000
0.522419 0.765387 0.000000
0.803823 0.760884 0.000000
1.000000 0.757431 0.000000
0.000000 1.000000 0.000000
0.224299 1.000000 0.000000
0.508728 1.000000 0.000000
0.790132 1.000000 0.000000
1.000000 1.000000 0.000000
0.018011 0.000000 0.228220
0.280085 0.000000 0.224026
0.564514 0.000000 0.219475
0.845917 0.000000 0.214973
1.000000 0.000000 0.211519
0.004583 0.238504 0.214791
0.266657 0.234310 0.210598
0.551086 0.229759 0.206047
0.832489 0.225257 0.201545
1.000000 0.221803 0.198091
0.000000 0.505519 0.199854
0.251719 0.501326 0.195661
0.536149 0.496775 0.191110
0.817552 0.492272 0.186608
1.000000 0.488819 0.183154
0.000000 0.772902 0.184896
0.236762 0.768709 0.180703
0.521191 0.764158 0.176152
0.802594 0.759656 0.171650
1.000000 0.756202 0.168196
0.000000 1.000000 0.171205
0.223071 1.000000 0.167012
0.507500 1.000000 0.162461
0.788903 1.000000 0.157959
1.000000 1.000000 0.154505
0.016548 0.000000 0.500375
0.278621 0.000000 0.496182
0.563051 0.000000 0.491631
0.844454 0.000000 0.487128
1.000000 0.000000 0.483675
0.003120 0.237040 0.486947
0.265193 0.232847 0.482754
0.549622 0.228296 0.478203
0.831026 0.223794 0.473700
1.000000 0.220340 0.470247
0.000000 0.504055 0.472010
0.250256 0.499862 0.467816
0.534685 0.495311 0.463265
0.816088 0.490809 0.458763
1.000000 0.487355 0.455309
0.000000 0.771439 0.457052
0.235298 0.767246 0.452858
0.519727 0.762695 0.448308
0.801131 0.758192 0.443805
1.000000 0.754739 0.440352
0.000000 1.000000 0.443361
0.221607 1.000000 0.439167
0.506036 1.000000 0.434617
0.787440 1.000000 0.430114
1.000000 0.999478 0.426660
0.015069 0.000000 0.775471
0.277142 0.000000 0.771278
0.561571 0.000000 0.766727
0.842975 0.000000 0.762225
1.000000 0.000000 0.758771
0.001640 0.235561 0.762043
0.263714 0.231368 0.757850
0.548143 0.226817 0.753299
0.829546 0.222314 0.748797
1.000000 0.218861 0.745343
0.000000 0.502576 0.747106
0.248777 0.498383 0.742913
0.533206 0.493832 0.738362
0.814609 0.489330 0.733859
1.000000 0.485876 0.730406
0.000000 0.769960 0.732148
0.233819 0.765767 0.727955
0.518248 0.761216 0.723404
0.799651 0.756713 0.718901
1.000000 0.753260 0.715448
0.000000 1.000000 0.718457
0.220128 1.000000 0.714264
0.504557 1.000000 0.709713
0.785960 1.000000 0.705210
1.000000 0.997999 0.701757
0.013694 0.000000 1.000000
0.275768 0.000000 1.000000
0.560197 0.000000 1.000000
0.841600 0.000000 1.000000
1.000000 0.000000 1.000000
0.000266 0.234186 1.000000
0.262340 0.229993 1.000000
0.546769 0.225442 1.000000
0.828172 0.220940 1.000000
1.000000 0.217486 1.000000
0.000000 0.501202 1.000000
0.247402 0.497009 0.998548
0.531831 0.492458 0.993997
0.813235 0.487955 0.989494
1.000000 0.484502 0.986041
0.000000 0.768585 0.987783
0.232445 0.764392 0.983590
0.516874 0.759841 0.979039
0.798277 0.755339 0.974537
1.000000 0.751885 0.971083
0.000000 1.000000 0.974092
0.218754 1.000000 0.969899
0.503183 1.000000 0.965348
0.784586 1.000000 0.960846
1.000000 0.996624 0.957392
