assets/LUTs/rescue_cool_clean_33.cube
TITLE "Rescue Cool Clean"
LUT_3D_SIZE 9
DOMAIN_MIN 0.0 0.0 0.0
DOMAIN_MAX 1.0 1.0 1.0
0.000000 0.001705 0.011193
0.103719 0.000440 0.009928
0.228137 0.000000 0.008412
0.359532 0.000000 0.006812
0.494749 0.000000 0.005165
0.630633 0.000000 0.003510
0.764028 0.000000 0.001885
0.891778 0.000000 0.000329
1.000000 0.000000 0.000000
0.000000 0.117347 0.006314
0.098840 0.116082 0.005049
0.223257 0.114566 0.003533
0.354653 0.112966 0.001933
0.489870 0.111319 0.000286
0.625754 0.109664 0.000000
0.759149 0.108039 0.000000
0.886899 0.106483 0.000000
1.000000 0.105034 0.000000
0.000000 0.242947 0.001014
0.093541 0.241682 0.000000
0.217958 0.240167 0.000000
0.349353 0.238566 0.000000
0.484571 0.236919 0.000000
0.620455 0.235264 0.000000
0.753849 0.233639 0.000000
0.881600 0.232083 0.000000
1.000000 0.230634 0.000000
0.000000 0.375169 0.000000
0.087962 0.373904 0.000000
0.212380 0.372388 0.000000
0.343775 0.370788 0.000000
0.478992 0.369141 0.000000
0.614876 0.367486 0.000000
0.748271 0.365861 0.000000
0.876021 0.364305 0.000000
0.994971 0.362856 0.000000
0.000000 0.510674 0.000000
0.082245 0.509410 0.000000
0.206663 0.507894 0.000000
0.338058 0.506294 0.000000
0.473275 0.504647 0.000000
0.609159 0.502991 0.000000
0.742554 0.501367 0.000000
0.870304 0.499811 0.000000
0.989254 0.498362 0.000000
0.000000 0.646127 0.000000
0.076530 0.644862 0.000000
0.200948 0.643346 0.000000
0.332343 0.641746 0.000000
0.467560 0.640099 0.000000
0.603444 0.638444 0.000000
0.736839 0.636819 0.000000
0.864589 0.635263 0.000000
0.983539 0.633814 0.000000
0.000000 0.778188 0.000000
0.070959 0.776923 0.000000
0.195376 0.775408 0.000000
0.326771 0.773807 0.000000
0.461988 0.772160 0.000000
0.597872 0.770505 0.000000
0.731267 0.768880 0.000000
0.859017 0.767324 0.000000
0.977967 0.765875 0.000000
0.000000 0.903521 0.000000
0.065671 0.902257 0.000000
0.190088 0.900741 0.000000
0.321483 0.899141 0.000000
0.456700 0.897494 0.000000
0.592584 0.895838 0.000000
0.725979 0.894214 0.000000
0.853729 0.892658 0.000000
0.972679 0.891209 0.000000
0.000000 1.000000 0.000000
0.060881 1.000000 0.000000
0.185298 1.000000 0.000000
0.316694 1.000000 0.000000
0.451911 1.000000 0.000000
0.587795 1.000000 0.000000
0.721190 1.000000 0.000000
0.848940 1.000000 0.000000
0.967890 1.000000 0.000000
0.000000 0.001194 0.135756
0.103208 0.000000 0.134491
0.227625 0.000000 0.132976
0.359021 0.000000 0.131375
0.494238 0.000000 0.129728
0.630122 0.000000 0.128073
0.763517 0.000000 0.126448
0.891267 0.000000 0.124892
1.000000 0.000000 0.123444
0.000000 0.116836 0.130877
0.098329 0.115571 0.129612
0.222746 0.114055 0.128097
0.354141 0.112455 0.126496
0.489359 0.110808 0.124849
0.625243 0.109153 0.123194
0.758638 0.107528 0.121569
0.886388 0.105972 0.120013
1.000000 0.104523 0.118564
0.000000 0.242436 0.125578
0.093030 0.241171 0.124313
0.217447 0.239656 0.122798
0.348842 0.238055 0.121197
0.484060 0.236408 0.119550
0.619944 0.234753 0.117895
0.753338 0.233128 0.116270
0.881088 0.231572 0.114714
1.000000 0.230123 0.113265
0.000000 0.374658 0.119999
0.087451 0.373393 0.118735
0.211869 0.371877 0.117219
0.343264 0.370277 0.115619
0.478481 0.368630 0.113972
0.614365 0.366975 0.112316
0.747760 0.365350 0.110692
0.875510 0.363794 0.109136
0.994460 0.362345 0.107687
0.000000 0.510163 0.114282
0.081734 0.508898 0.113017
0.206151 0.507383 0.111502
0.337547 0.505782 0.109901
0.472764 0.504135 0.108254
0.608648 0.502480 0.106599
0.742043 0.500855 0.104974
0.869793 0.499299 0.103418
0.988743 0.497851 0.101970
0.000000 0.645615 0.108567
0.076019 0.644351 0.107303
0.200437 0.642835 0.105787
0.331832 0.641235 0.104187
0.467049 0.639588 0.102540
0.602933 0.637932 0.100884
0.736328 0.636308 0.099260
0.864078 0.634752 0.097704
0.983028 0.633303 0.096255
0.000000 0.777677 0.102996
0.070447 0.776412 0.101731
0.194865 0.774897 0.100215
0.326260 0.773296 0.098615
0.461477 0.771649 0.096968
0.597361 0.769994 0.095313
0.730756 0.768369 0.093688
0.858506 0.766813 0.092132
0.977456 0.765364 0.090683
0.000000 0.903010 0.097708
0.065159 0.901745 0.096443
0.189577 0.900230 0.094927
0.320972 0.898629 0.093327
0.456189 0.896982 0.091680
0.592073 0.895327 0.090025
0.725468 0.893702 0.088400
0.853218 0.892146 0.086844
0.972168 0.890698 0.085395
0.000000 1.000000 0.092918
0.060370 1.000000 0.091653
0.184787 1.000000 0.090138
0.316182 1.000000 0.088537
0.451400 1.000000 0.086890
0.587284 1.000000 0.085235
0.720678 1.000000 0.083610
0.848429 1.000000 0.082054
0.967378 1.000000 0.080605
0.000000 0.000639 0.270838
0.102654 0.000000 0.269573
0.227071 0.000000 0.268058
0.358466 0.000000 0.266457
0.493684 0.000000 0.264810
0.629567 0.000000 0.263155
0.762962 0.000000 0.261530
0.890712 0.000000 0.259974
1.000000 0.000000 0.258525
0.000000 0.116281 0.265959
0.097775 0.115016 0.264694
0.222192 0.113501 0.263179
0.353587 0.111900 0.261578
0.488805 0.110253 0.259931
0.624688 0.108598 0.258276
0.758083 0.106974 0.256651
0.885833 0.105417 0.255095
1.000000 0.103969 0.253646
0.000000 0.241882 0.260660
0.092475 0.240617 0.259395
0.216893 0.239101 0.257879
0.348288 0.237501 0.256279
0.483505 0.235854 0.254632
0.619389 0.234199 0.252977
0.752784 0.232574 0.251352
0.880534 0.231018 0.249796
0.999484 0.229569 0.248347
0.000000 0.374103 0.255081
0.086897 0.372838 0.253816
0.211314 0.371323 0.252301
0.342709 0.369723 0.250700
0.477927 0.368076 0.249053
0.613811 0.366420 0.247398
0.747205 0.364796 0.245773
0.874956 0.363239 0.244217
0.993905 0.361791 0.242768
0.000000 0.509609 0.249364
0.081180 0.508344 0.248099
0.205597 0.506829 0.246584
0.336992 0.505228 0.244983
0.472210 0.503581 0.243336
0.608093 0.501926 0.241681
0.741488 0.500301 0.240056
0.869238 0.498745 0.238500
0.988188 0.497296 0.237051
0.000000 0.645061 0.243649
0.075465 0.643796 0.242384
0.199882 0.642281 0.240869
0.331277 0.640680 0.239268
0.466495 0.639033 0.237621
0.602379 0.637378 0.235966
0.735773 0.635753 0.234341
0.863524 0.634197 0.232785
0.982473 0.632748 0.231336
0.000000 0.777122 0.238077
0.069893 0.775858 0.236812
0.194310 0.774342 0.235297
0.325706 0.772742 0.233696
0.460923 0.771095 0.232049
0.596807 0.769440 0.230394
0.730202 0.767815 0.228769
0.857952 0.766259 0.227213
0.976902 0.764810 0.225765
0.000000 0.902456 0.232789
0.064605 0.901191 0.231524
0.189022 0.899676 0.230009
0.320418 0.898075 0.228409
0.455635 0.896428 0.226761
0.591519 0.894773 0.225106
0.724914 0.893148 0.223482
0.852664 0.891592 0.221925
0.971614 0.890143 0.220477
0.000000 1.000000 0.228000
0.059816 1.000000 0.226735
0.184233 1.000000 0.225219
0.315628 1.000000 0.223619
0.450845 1.000000 0.221972
0.586729 1.000000 0.220317
0.720124 1.000000 0.218692
0.847874 1.000000 0.217136
0.966824 1.000000 0.215687
0.000000 0.000057 0.412674
0.102072 0.000000 0.411410
0.226489 0.000000 0.409894
0.357884 0.000000 0.408294
0.493102 0.000000 0.406647
0.628985 0.000000 0.404992
0.762380 0.000000 0.403367
0.890130 0.000000 0.401811
1.000000 0.000000 0.400362
0.000000 0.115699 0.407795
0.097193 0.114434 0.406531
0.221610 0.112919 0.405015
0.353005 0.111318 0.403415
0.488222 0.109671 0.401768
0.624106 0.108016 0.400112
0.757501 0.106391 0.398488
0.885251 0.104835 0.396932
1.000000 0.103387 0.395483
0.000000 0.241300 0.402496
0.091893 0.240035 0.401231
0.216311 0.238519 0.399716
0.347706 0.236919 0.398115
0.482923 0.235272 0.396468
0.618807 0.233617 0.394813
0.752202 0.231992 0.393188
0.879952 0.230436 0.391632
0.998902 0.228987 0.390184
0.000000 0.373521 0.396918
0.086315 0.372256 0.395653
0.210732 0.370741 0.394137
0.342127 0.369141 0.392537
0.477345 0.367493 0.390890
0.613229 0.365838 0.389235
0.746623 0.364214 0.387610
0.874374 0.362657 0.386054
0.993323 0.361209 0.384605
0.000000 0.509027 0.391201
0.080598 0.507762 0.389936
0.205015 0.506247 0.388420
0.336410 0.504646 0.386820
0.471628 0.502999 0.385173
0.607511 0.501344 0.383518
0.740906 0.499719 0.381893
0.868656 0.498163 0.380337
0.987606 0.496714 0.378888
0.000000 0.644479 0.385486
0.074883 0.643214 0.384221
0.199300 0.641699 0.382705
0.330695 0.640098 0.381105
0.465913 0.638451 0.379458
0.601797 0.636796 0.377803
0.735191 0.635171 0.376178
0.862942 0.633615 0.374622
0.981891 0.632166 0.373173
0.000000 0.776540 0.379914
0.069311 0.775276 0.378649
0.193728 0.773760 0.377134
0.325124 0.772160 0.375533
0.460341 0.770513 0.373886
0.596225 0.768858 0.372231
0.729620 0.767233 0.370606
0.857370 0.765677 0.369050
0.976319 0.764228 0.367601
0.000000 0.901874 0.374626
0.064023 0.900609 0.373361
0.188440 0.899094 0.371846
0.319836 0.897493 0.370245
0.455053 0.895846 0.368598
0.590937 0.894191 0.366943
0.724332 0.892566 0.365318
0.852082 0.891010 0.363762
0.971032 0.889561 0.362313
0.000000 1.000000 0.369836
0.059234 1.000000 0.368572
0.183651 1.000000 0.367056
0.315046 1.000000 0.365456
0.450263 1.000000 0.363809
0.586147 1.000000 0.362153
0.719542 1.000000 0.360529
0.847292 1.000000 0.358973
0.966242 1.000000 0.357524
0.000000 0.000000 0.557503
0.101477 0.000000 0.556238
0.225895 0.000000 0.554723
0.357290 0.000000 0.553122
0.492507 0.000000 0.551475
0.628391 0.000000 0.549820
0.761786 0.000000 0.548195
0.889536 0.000000 0.546639
1.000000 0.000000 0.545190
0.000000 0.115105 0.552624
0.096598 0.113840 0.551359
0.221016 0.112325 0.549844
0.352411 0.110724 0.548243
0.487628 0.109077 0.546596
0.623512 0.107422 0.544941
0.756907 0.105797 0.543316
0.884657 0.104241 0.541760
1.000000 0.102792 0.540311
0.000000 0.240705 0.547325
0.091299 0.239440 0.546060
0.215716 0.237925 0.544544
0.347112 0.236325 0.542944
0.482329 0.234678 0.541297
0.618213 0.233022 0.539642
0.751608 0.231398 0.538017
0.879358 0.229841 0.536461
0.998308 0.228393 0.535012
0.000000 0.372927 0.541746
0.085721 0.371662 0.540481
0.210138 0.370147 0.538966
0.341533 0.368546 0.537365
0.476750 0.366899 0.535718
0.612634 0.365244 0.534063
0.746029 0.363619 0.532438
0.873779 0.362063 0.530882
0.992729 0.360614 0.529433
0.000000 0.508433 0.536029
0.080003 0.507168 0.534764
0.204421 0.505652 0.533249
0.335816 0.504052 0.531648
0.471033 0.502405 0.530001
0.606917 0.500750 0.528346
0.740312 0.499125 0.526721
0.868062 0.497569 0.525165
0.987012 0.496120 0.523716
0.000000 0.643885 0.530314
0.074289 0.642620 0.529049
0.198706 0.641104 0.527534
0.330101 0.639504 0.525933
0.465318 0.637857 0.524286
0.601202 0.636202 0.522631
0.734597 0.634577 0.521006
0.862347 0.633021 0.519450
0.981297 0.631572 0.518001
0.000000 0.775946 0.524742
0.068717 0.774681 0.523477
0.193134 0.773166 0.521962
0.324529 0.771565 0.520362
0.459747 0.769918 0.518715
0.595630 0.768263 0.517059
0.729025 0.766638 0.515435
0.856775 0.765082 0.513879
0.975725 0.763633 0.512430
0.000000 0.901280 0.519454
0.063429 0.900015 0.518190
0.187846 0.898499 0.516674
0.319241 0.896899 0.515074
0.454459 0.895252 0.513427
0.590343 0.893597 0.511771
0.723737 0.891972 0.510147
0.851487 0.890416 0.508591
0.970437 0.888967 0.507142
0.000000 1.000000 0.514665
0.058639 1.000000 0.513400
0.183057 1.000000 0.511885
0.314452 1.000000 0.510284
0.449669 1.000000 0.508637
0.585553 1.000000 0.506982
0.718948 1.000000 0.505357
0.846698 1.000000 0.503801
0.965648 1.000000 0.502352
0.000000 0.000000 0.701560
0.100886 0.000000 0.700295
0.225304 0.000000 0.698780
0.356699 0.000000 0.697179
0.491916 0.000000 0.695532
0.627800 0.000000 0.693877
0.761195 0.000000 0.692252
0.888945 0.000000 0.690696
1.000000 0.000000 0.689247
0.000000 0.114514 0.696681
0.096007 0.113249 0.695416
0.220424 0.111733 0.693901
0.351820 0.110133 0.692300
0.487037 0.108486 0.690653
0.622921 0.106831 0.688998
0.756316 0.105206 0.687373
0.884066 0.103650 0.685817
1.000000 0.102201 0.684368
0.000000 0.240114 0.691382
0.090708 0.238849 0.690117
0.215125 0.237334 0.688602
0.346520 0.235733 0.687001
0.481738 0.234086 0.685354
0.617622 0.232431 0.683699
0.751017 0.230806 0.682074
0.878767 0.229250 0.680518
0.997716 0.227801 0.679069
0.000000 0.372336 0.685803
0.085129 0.371071 0.684539
0.209547 0.369556 0.683023
0.340942 0.367955 0.681423
0.476159 0.366308 0.679776
0.612043 0.364653 0.678120
0.745438 0.363028 0.676496
0.873188 0.361472 0.674940
0.992138 0.360023 0.673491
0.000000 0.507841 0.680086
0.079412 0.506577 0.678821
0.203830 0.505061 0.677306
0.335225 0.503461 0.675705
0.470442 0.501814 0.674058
0.606326 0.500158 0.672403
0.739721 0.498534 0.670778
0.867471 0.496978 0.669222
0.986421 0.495529 0.667774
0.000000 0.643294 0.674371
0.073697 0.642029 0.673107
0.198115 0.640513 0.671591
0.329510 0.638913 0.669991
0.464727 0.637266 0.668344
0.600611 0.635611 0.666688
0.734006 0.633986 0.665064
0.861756 0.632430 0.663508
0.980706 0.630981 0.662059
0.000000 0.775355 0.668800
0.068126 0.774090 0.667535
0.192543 0.772575 0.666019
0.323938 0.770974 0.664419
0.459155 0.769327 0.662772
0.595039 0.767672 0.661117
0.728434 0.766047 0.659492
0.856184 0.764491 0.657936
0.975134 0.763042 0.656487
0.000000 0.900688 0.663512
0.062838 0.899424 0.662247
0.187255 0.897908 0.660731
0.318650 0.896308 0.659131
0.453867 0.894661 0.657484
0.589751 0.893006 0.655829
0.723146 0.891381 0.654204
0.850896 0.889825 0.652648
0.969846 0.888376 0.651199
0.000000 1.000000 0.658722
0.058048 1.000000 0.657457
0.182465 1.000000 0.655942
0.313861 1.000000 0.654341
0.449078 1.000000 0.652694
0.584962 1.000000 0.651039
0.718357 1.000000 0.649414
0.846107 1.000000 0.647858
0.965057 1.000000 0.646409
0.000000 0.000000 0.841083
0.100314 0.000000 0.839818
0.224731 0.000000 0.838303
0.356126 0.000000 0.836702
0.491344 0.000000 0.835055
0.627227 0.000000 0.833400
0.760622 0.000000 0.831775
0.888372 0.000000 0.830219
1.000000 0.000000 0.828770
0.000000 0.113941 0.836204
0.095435 0.112676 0.834939
0.219852 0.111161 0.833424
0.351247 0.109560 0.831823
0.486464 0.107913 0.830176
0.622348 0.106258 0.828521
0.755743 0.104633 0.826896
0.883493 0.103077 0.825340
1.000000 0.101629 0.823891
0.000000 0.239542 0.830905
0.090135 0.238277 0.829640
0.214553 0.236761 0.828125
0.345948 0.235161 0.826524
0.481165 0.233514 0.824877
0.617049 0.231859 0.823222
0.750444 0.230234 0.821597
0.878194 0.228678 0.820041
0.997144 0.227229 0.818592
0.000000 0.371763 0.825326
0.084557 0.370498 0.824061
0.208974 0.368983 0.822546
0.340369 0.367383 0.820945
0.475587 0.365735 0.819298
0.611471 0.364080 0.817643
0.744865 0.362456 0.816018
0.872616 0.360899 0.814462
0.991565 0.359451 0.813014
0.000000 0.507269 0.819609
0.078840 0.506004 0.818344
0.203257 0.504489 0.816829
0.334652 0.502888 0.815228
0.469870 0.501241 0.813581
0.605753 0.499586 0.811926
0.739148 0.497961 0.810301
0.866898 0.496405 0.808745
0.985848 0.494956 0.807296
0.000000 0.642721 0.813894
0.073125 0.641456 0.812629
0.197542 0.639941 0.811114
0.328937 0.638340 0.809513
0.464155 0.636693 0.807866
0.600039 0.635038 0.806211
0.733433 0.633413 0.804586
0.861184 0.631857 0.803030
0.980133 0.630408 0.801582
0.000000 0.774782 0.808322
0.067553 0.773518 0.807058
0.191970 0.772002 0.805542
0.323366 0.770402 0.803942
0.458583 0.768755 0.802295
0.594467 0.767100 0.800640
0.727862 0.765475 0.799015
0.855612 0.763919 0.797459
0.974561 0.762470 0.796010
0.000000 0.900116 0.803034
0.062265 0.898851 0.801770
0.186682 0.897336 0.800254
0.318078 0.895735 0.798654
0.453295 0.894088 0.797007
0.589179 0.892433 0.795352
0.722574 0.890808 0.793727
0.850324 0.889252 0.792171
0.969274 0.887803 0.790722
0.000000 1.000000 0.798245
0.057476 1.000000 0.796980
0.181893 1.000000 0.795465
0.313288 1.000000 0.793864
0.448505 1.000000 0.792217
0.584389 1.000000 0.790562
0.717784 1.000000 0.788937
0.845534 1.000000 0.787381
0.964484 1.000000 0.785932
0.000000 0.000000 0.972308
0.099775 0.000000 0.971044
0.224193 0.000000 0.969528
0.355588 0.000000 0.967928
0.490805 0.000000 0.966281
0.626689 0.000000 0.964626
0.760084 0.000000 0.963001
0.887834 0.000000 0.961445
1.000000 0.000000 0.959996
0.000000 0.113403 0.967429
0.094896 0.112138 0.966165
0.219313 0.110622 0.964649
0.350709 0.109022 0.963049
0.485926 0.107375 0.961402
0.621810 0.105720 0.959747
0.755205 0.104095 0.958122
0.882955 0.102539 0.956566
1.000000 0.101090 0.955117
0.000000 0.239003 0.962130
0.089597 0.237738 0.960865
0.214014 0.236223 0.959350
0.345409 0.234622 0.957749
0.480627 0.232975 0.956102
0.616511 0.231320 0.954447
0.749905 0.229695 0.952822
0.877656 0.228139 0.951266
0.996605 0.226690 0.949818
0.000000 0.371225 0.956552
0.084018 0.369960 0.955287
0.208436 0.368444 0.953771
0.339831 0.366844 0.952171
0.475048 0.365197 0.950524
0.610932 0.363542 0.948869
0.744327 0.361917 0.947244
0.872077 0.360361 0.945688
0.991027 0.358912 0.944239
0.000000 0.506730 0.950835
0.078301 0.505466 0.949570
0.202719 0.503950 0.948054
0.334114 0.502350 0.946454
0.469331 0.500703 0.944807
0.605215 0.499047 0.943152
0.738610 0.497423 0.941527
0.866360 0.495867 0.939971
0.985310 0.494418 0.938522
0.000000 0.642183 0.945120
0.072586 0.640918 0.943855
0.197004 0.639402 0.942339
0.328399 0.637802 0.940739
0.463616 0.636155 0.939092
0.599500 0.634500 0.937437
0.732895 0.632875 0.935812
0.860645 0.631319 0.934256
0.979595 0.629870 0.932807
0.000000 0.774244 0.939548
0.067015 0.772979 0.938283
0.191432 0.771464 0.936768
0.322827 0.769863 0.935167
0.458044 0.768216 0.933520
0.593928 0.766561 0.931865
0.727323 0.764936 0.930240
0.855073 0.763380 0.928684
0.974023 0.761931 0.927235
0.000000 0.899577 0.934260
0.061727 0.898313 0.932995
0.186144 0.896797 0.931480
0.317539 0.895197 0.929879
0.452756 0.893550 0.928232
0.588640 0.891894 0.926577
0.722035 0.890270 0.924952
0.849785 0.888714 0.923396
0.968735 0.887265 0.921947
0.000000 1.000000 0.929470
0.056937 1.000000 0.928206
0.181354 1.000000 0.926690
0.312750 1.000000 0.925090
0.447967 1.000000 0.923443
0.583851 1.000000 0.921787
0.717246 1.000000 0.920163
0.844996 1.000000 0.918607
0.963946 1.000000 0.917158
0.000000 0.000000 1.000000
0.099433 0.000000 1.000000
0.223851 0.000000 1.000000
0.355246 0.000000 1.000000
0.490463 0.000000 1.000000
0.626347 0.000000 1.000000
0.759742 0.000000 1.000000
0.887492 0.000000 1.000000
1.000000 0.000000 1.000000
0.000000 0.113061 1.000000
0.094554 0.111796 1.000000
0.218972 0.110281 1.000000
0.350367 0.108680 1.000000
0.485584 0.107033 1.000000
0.621468 0.105378 1.000000
0.754863 0.103753 1.000000
0.882613 0.102197 1.000000
1.000000 0.100748 1.000000
0.000000 0.238661 1.000000
0.089255 0.237397 1.000000
0.213672 0.235881 1.000000
0.345068 0.234281 1.000000
0.480285 0.232634 1.000000
0.616169 0.230978 1.000000
0.749564 0.229354 1.000000
0.877314 0.227798 1.000000
0.996264 0.226349 1.000000
0.000000 0.370883 1.000000
0.083677 0.369618 1.000000
0.208094 0.368103 1.000000
0.339489 0.366502 1.000000
0.474706 0.364855 1.000000
0.610590 0.363200 1.000000
0.743985 0.361575 1.000000
0.871735 0.360019 1.000000
0.990685 0.358570 1.000000
0.000000 0.506389 1.000000
0.077959 0.505124 1.000000
0.202377 0.503608 1.000000
0.333772 0.502008 1.000000
0.468989 0.500361 1.000000
0.604873 0.498706 1.000000
0.738268 0.497081 1.000000
0.866018 0.495525 1.000000
0.984968 0.494076 1.000000
0.000000 0.641841 1.000000
0.072245 0.640576 1.000000
0.196662 0.639060 1.000000
0.328057 0.637460 1.000000
0.463274 0.635813 1.000000
0.599158 0.634158 1.000000
0.732553 0.632533 1.000000
0.860303 0.630977 1.000000
0.979253 0.629528 1.000000
0.000000 0.773902 1.000000
0.066673 0.772637 1.000000
0.191090 0.771122 1.000000
0.322485 0.769521 1.000000
0.457703 0.767874 1.000000
0.593587 0.766219 1.000000
0.726981 0.764594 1.000000
0.854731 0.763038 1.000000
0.973681 0.761590 1.000000
0.000000 0.899236 1.000000
0.061385 0.897971 1.000000
0.185802 0.896455 1.000000
0.317197 0.894855 1.000000
0.452415 0.893208 1.000000
0.588299 0.891553 1.000000
0.721693 0.889928 1.000000
0.849444 0.888372 1.000000
0.968393 0.886923 1.000000
0.000000 1.000000 1.000000
0.056595 1.000000 1.000000
0.181013 1.000000 1.000000
0.312408 1.000000 1.000000
0.447625 1.000000 1.000000
0.583509 1.000000 1.000000
0.716904 1.000000 1.000000
0.844654 1.000000 1.000000
0.963604 1.000000 1.000000
