assets/LUTs/rescue_cool_clean_33.cube
TITLE "Rescue Cool Clean"
LUT_3D_SIZE 5
DOMAIN_MIN 0.0 0.0 0.0
DOMAIN_MAX 1.0 1.0 1.0
0.000000 0.001705 0.011193
0.228137 0.000000 0.008412
0.494749 0.000000 0.005165
0.764028 0.000000 0.001885
1.000000 0.000000 0.000000
0.000000 0.242947 0.001014
0.217958 0.240167 0.000000
0.484571 0.236919 0.000000
0.753849 0.233639 0.000000
1.000000 0.230634 0.000000
0.000000 0.510674 0.000000
0.206663 0.507894 0.000000
0.473275 0.504647 0.000000
0.742554 0.501367 0.000000
0.989254 0.498362 0.000000
0.000000 0.778188 0.000000
0.195376 0.775408 0.000000
0.461988 0.772160 0.000000
0.731267 0.768880 0.000000
0.977967 0.765875 0.000000
0.000000 1.000000 0.000000
0.185298 1.000000 0.000000
0.451911 1.000000 0.000000
0.721190 1.000000 0.000000
0.967890 1.000000 0.000000
0.000000 0.000639 0.270838
0.227071 0.000000 0.268058
0.493684 0.000000 0.264810
0.762962 0.000000 0.261530
1.000000 0.000000 0.258525
0.000000 0.241882 0.260660
0.216893 0.239101 0.257879
0.483505 0.235854 0.254632
0.752784 0.232574 0.251352
0.999484 0.229569 0.248347
0.000000 0.509609 0.249364
0.205597 0.506829 0.246584
0.472210 0.503581 0.243336
0.741488 0.500301 0.240056
0.988188 0.497296 0.237051
0.000000 0.777122 0.238077
0.194310 0.774342 0.235297
0.460923 0.771095 0.232049
0.730202 0.767815 0.228769
0.976902 0.764810 0.225765
0.000000 1.000000 0.228000
0.184233 1.000000 0.225219
0.450845 1.000000 0.221972
0.720124 1.000000 0.218692
0.966824 1.000000 0.215687
0.000000 0.000000 0.557503
0.225895 0.000000 0.554723
0.492507 0.000000 0.551475
0.761786 0.000000 0.548195
1.000000 0.000000 0.545190
0.000000 0.240705 0.547325
0.215716 0.237925 0.544544
0.482329 0.234678 0.541297
0.751608 0.231398 0.538017
0.998308 0.228393 0.535012
0.000000 0.508433 0.536029
0.204421 0.505652 0.533249
0.471033 0.502405 0.530001
0.740312 0.499125 0.526721
0.987012 0.496120 0.523716
0.000000 0.775946 0.524742
0.193134 0.773166 0.521962
0.459747 0.769918 0.518715
0.729025 0.766638 0.515435
0.975725 0.763633 0.512430
0.000000 1.000000 0.514665
0.183057 1.000000 0.511885
0.449669 1.000000 0.508637
0.718948 1.000000 0.505357
0.965648 1.000000 0.502352
0.000000 0.000000 0.841083
0.224731 0.000000 0.838303
0.491344 0.000000 0.835055
0.760622 0.000000 0.831775
1.000000 0.000000 0.828770
0.000000 0.239542 0.830905
0.214553 0.236761 0.828125
0.481165 0.233514 0.824877
0.750444 0.230234 0.821597
0.997144 0.227229 0.818592
0.000000 0.507269 0.819609
0.203257 0.504489 0.816829
0.469870 0.501241 0.813581
0.739148 0.497961 0.810301
0.985848 0.494956 0.807296
0.000000 0.774782 0.808322
0.191970 0.772002 0.805542
0.458583 0.768755 0.802295
0.727862 0.765475 0.799015
0.974561 0.762470 0.796010
0.000000 1.000000 0.798245
0.181893 1.000000 0.795465
0.448505 1.000000 0.792217
0.717784 1.000000 0.788937
0.964484 1.000000 0.785932
0.000000 0.000000 1.000000
0.223851 0.000000 1.000000
0.490463 0.000000 1.000000
0.759742 0.000000 1.000000
1.000000 0.000000 1.000000
0.000000 0.238661 1.000000
0.213672 0.235881 1.000000
0.480285 0.232634 1.000000
0.749564 0.229354 1.000000
0.996264 0.226349 1.000000
0.000000 0.506389 1.000000
0.202377 0.503608 1.000000
0.468989 0.500361 1.000000
0.738268 0.497081 1.000000
0.984968 0.494076 1.000000
0.000000 0.773902 1.000000
0.191090 0.771122 1.000000
0.457703 0.767874 1.000000
0.726981 0.764594 1.000000
0.973681 0.761590 1.000000
0.000000 1.000000 1.000000
0.181013 1.000000 1.000000
0.447625 1.000000 1.000000
0.716904 1.000000 1.000000
0.963604 1.000000 1.000000
