assets/LUTs/rescue_flat_boost_33.cube
TITLE "Rescue Flat Boost"
LUT_3D_SIZE 5
DOMAIN_MIN 0.0 0.0 0.0
DOMAIN_MAX 1.0 1.0 1.0
0.000000 0.000000 0.000000
0.232210 0.000000 0.000000
0.575651 0.000000 0.000000
0.906780 0.000000 0.000000
1.000000 0.000000 0.000000
0.000000 0.202585 0.000000
0.190054 0.190054 0.000000
0.538989 0.172658 0.000000
0.875722 0.160112 0.000000
1.000000 0.153861 0.000000
0.000000 0.510073 0.000000
0.132844 0.499175 0.000000
0.482334 0.482334 0.000000
0.827729 0.466339 0.000000
1.000000 0.457331 0.000000
0.000000 0.816818 0.000000
0.091976 0.807586 0.000000
0.431929 0.793320 0.000000
0.778765 0.778765 0.000000
1.000000 0.766944 0.000000
0.000000 1.000000 0.000000
0.072017 1.000000 0.000000
0.404348 1.000000 0.000000
0.743406 1.000000 0.000000
1.000000 1.000000 0.000000
0.000000 0.000000 0.240486
0.227954 0.000000 0.227954
0.571950 0.000000 0.205619
0.903644 0.000000 0.188034
1.000000 0.000000 0.177755
0.000000 0.198329 0.198329
0.185798 0.185798 0.185798
0.541336 0.167324 0.167324
0.884807 0.153677 0.153677
1.000000 0.146547 0.146547
0.000000 0.506372 0.140041
0.123649 0.497662 0.123649
0.479188 0.479188 0.105175
0.831320 0.462092 0.100190
1.000000 0.452204 0.099984
0.000000 0.813683 0.098072
0.077741 0.808871 0.077741
0.423743 0.792971 0.061842
0.776750 0.776750 0.045620
1.000000 0.764050 0.052478
0.000000 1.000000 0.077235
0.053755 1.000000 0.053755
0.392134 1.000000 0.039913
0.737363 1.000000 0.025792
1.000000 1.000000 0.014503
0.000000 0.000000 0.593970
0.216741 0.000000 0.583072
0.566231 0.000000 0.566231
0.898799 0.000000 0.537409
1.000000 0.000000 0.518147
0.000000 0.190977 0.557308
0.179524 0.179524 0.553537
0.535062 0.161050 0.535062
0.879407 0.148277 0.510179
1.000000 0.141846 0.494067
0.000000 0.500653 0.500653
0.117375 0.491388 0.491388
0.472914 0.472914 0.472914
0.835457 0.454117 0.454117
1.000000 0.442871 0.442871
0.000000 0.808838 0.447447
0.072342 0.803471 0.434243
0.409682 0.791021 0.409682
0.772225 0.772225 0.390886
1.000000 0.758165 0.386703
0.000000 1.000000 0.417627
0.049054 1.000000 0.401275
0.371848 1.000000 0.371848
0.726613 1.000000 0.355151
1.000000 1.000000 0.341805
0.000000 0.000000 0.931910
0.207067 0.000000 0.922678
0.547021 0.000000 0.908412
0.893856 0.000000 0.893856
1.000000 0.000000 0.865431
0.000000 0.185242 0.900853
0.174890 0.174890 0.906019
0.520892 0.158990 0.890120
0.873898 0.142769 0.873898
1.000000 0.137050 0.848622
0.000000 0.491469 0.852860
0.121403 0.483304 0.852532
0.466530 0.466530 0.847869
0.829073 0.447734 0.829073
1.000000 0.437201 0.808663
0.000000 0.803895 0.803895
0.066833 0.797963 0.797963
0.403299 0.784638 0.784638
0.765842 0.765842 0.765842
1.000000 0.750395 0.750395
0.000000 1.000000 0.764911
0.044258 1.000000 0.755830
0.366177 1.000000 0.737639
0.713879 1.000000 0.713879
1.000000 1.000000 0.698432
0.000000 0.000000 1.000000
0.200617 0.000000 1.000000
0.532948 0.000000 1.000000
0.872006 0.000000 1.000000
1.000000 0.000000 1.000000
0.000000 0.181941 1.000000
0.172468 0.172468 1.000000
0.510847 0.158627 1.000000
0.856077 0.144505 1.000000
1.000000 0.133217 1.000000
0.000000 0.485411 1.000000
0.125905 0.478126 1.000000
0.462711 0.462711 1.000000
0.817477 0.446015 1.000000
1.000000 0.432668 1.000000
0.000000 0.795024 1.000000
0.078399 0.789971 1.000000
0.406543 0.778005 1.000000
0.760596 0.760596 1.000000
1.000000 0.745150 1.000000
0.000000 1.000000 1.000000
0.040425 1.000000 1.000000
0.361645 1.000000 1.000000
0.708633 1.000000 1.000000
1.000000 1.000000 1.000000
