assets/LUTs/rescue_lowlight_33.cube
TITLE "Rescue Low-Light"
LUT_3D_SIZE 33
DOMAIN_MIN 0.0 0.0 0.0
DOMAIN_MAX 1.0 1.0 1.0
0.035830 0.023673 0.010150
0.059783 0.024798 0.011255
0.084163 0.025903 0.012339
0.108955 0.026987 0.013403
0.134140 0.028050 0.014447
0.159699 0.029093 0.015471
0.185615 0.030116 0.016474
0.211869 0.031117 0.017456
0.238440 0.032098 0.018418
0.265310 0.033058 0.019360
0.292458 0.033997 0.020280
0.319863 0.034916 0.021181
0.347504 0.035813 0.022060
0.375359 0.036690 0.022919
0.403407 0.037545 0.023756
0.431626 0.038380 0.024573
0.459991 0.039193 0.025370
0.488481 0.039986 0.026145
0.517070 0.040757 0.026899
0.545736 0.041507 0.027633
0.574453 0.042236 0.028345
0.603195 0.042944 0.029037
0.631938 0.043630 0.029707
0.660656 0.044295 0.030356
0.689321 0.044939 0.030984
0.717906 0.045562 0.031591
0.746384 0.046163 0.032177
0.774728 0.046743 0.032742
0.802908 0.047301 0.033285
0.830895 0.047838 0.033807
0.858660 0.048354 0.034308
0.886173 0.048848 0.034788
0.913403 0.049320 0.035246
0.039601 0.050280 0.013800
0.063709 0.051402 0.014837
0.088246 0.052504 0.015852
0.113192 0.053585 0.016848
0.138531 0.054644 0.017822
0.164244 0.055683 0.018776
0.190311 0.056701 0.019710
0.216715 0.057697 0.020623
0.243434 0.058672 0.021515
0.270449 0.059626 0.022387
0.297739 0.060559 0.023238
0.325284 0.061471 0.024068
0.353062 0.062361 0.024877
0.381050 0.063230 0.025665
0.409228 0.064077 0.026433
0.437571 0.064903 0.027179
0.466057 0.065708 0.027904
0.494662 0.066491 0.028609
0.523362 0.067253 0.029292
0.552133 0.067993 0.029955
0.580948 0.068711 0.030596
0.609784 0.069408 0.031216
0.638613 0.070083 0.031815
0.667410 0.070737 0.032393
0.696147 0.071369 0.032950
0.724797 0.071979 0.033485
0.753332 0.072567 0.033999
0.781724 0.073134 0.034492
0.809943 0.073679 0.034964
0.837961 0.074202 0.035414
0.865747 0.074703 0.035843
0.893271 0.075183 0.036251
0.920502 0.075640 0.036637
0.043135 0.077430 0.017218
0.067396 0.078548 0.018185
0.092084 0.079645 0.019132
0.117182 0.080721 0.020058
0.142672 0.081775 0.020963
0.168534 0.082807 0.021847
0.194751 0.083819 0.022711
0.221301 0.084808 0.023554
0.248165 0.085776 0.024376
0.275324 0.086723 0.025177
0.302754 0.087647 0.025958
0.330437 0.088550 0.026717
0.358349 0.089432 0.027456
0.386469 0.090291 0.028173
0.414774 0.091129 0.028870
0.443241 0.091945 0.029545
0.471846 0.092739 0.030200
0.500565 0.093512 0.030833
0.529375 0.094262 0.031445
0.558249 0.094991 0.032036
0.587163 0.095697 0.032606
0.616091 0.096382 0.033154
0.645006 0.097045 0.033682
0.673882 0.097685 0.034188
0.702691 0.098304 0.034673
0.731405 0.098900 0.035136
0.759997 0.099475 0.035579
0.788437 0.100027 0.035999
0.816697 0.100557 0.036399
0.844746 0.101065 0.036777
0.872554 0.101551 0.037134
0.900090 0.102015 0.037469
0.927323 0.102457 0.037783
0.046430 0.105100 0.020402
0.070840 0.106212 0.021299
0.095676 0.107302 0.022176
0.120923 0.108371 0.023032
0.146560 0.109417 0.023867
0.172570 0.110442 0.024681
0.198932 0.111445 0.025475
0.225627 0.112426 0.026247
0.252634 0.113385 0.026999
0.279932 0.114322 0.027729
0.307502 0.115238 0.028439
0.335320 0.116131 0.029127
0.363365 0.117002 0.029795
0.391614 0.117851 0.030441
0.420045 0.118677 0.031067
0.448634 0.119482 0.031671
0.477357 0.120264 0.032254
0.506190 0.121024 0.032816
0.535108 0.121762 0.033356
0.564085 0.122478 0.033876
0.593097 0.123172 0.034374
0.622117 0.123843 0.034850
0.651117 0.124491 0.035306
0.680072 0.125118 0.035740
0.708953 0.125722 0.036153
0.737732 0.126304 0.036544
0.766381 0.126863 0.036915
0.794871 0.127400 0.037263
0.823171 0.127914 0.037591
0.851251 0.128406 0.037897
0.879082 0.128875 0.038181
0.906631 0.129322 0.038444
0.933868 0.129747 0.038686
0.049485 0.133264 0.023350
0.074040 0.134368 0.024177
0.099022 0.135450 0.024984
0.124413 0.136510 0.025769
0.150195 0.137547 0.026534
0.176349 0.138563 0.027277
0.202854 0.139556 0.028000
0.229690 0.140527 0.028702
0.256838 0.141476 0.029382
0.284275 0.142402 0.030042
0.311980 0.143306 0.030680
0.339932 0.144187 0.031297
0.368108 0.145047 0.031894
0.396485 0.145883 0.032469
0.425041 0.146698 0.033022
0.453750 0.147489 0.033555
0.482590 0.148258 0.034066
0.511535 0.149005 0.034556
0.540561 0.149729 0.035025
0.569641 0.150431 0.035473
0.598750 0.151110 0.035899
0.627861 0.151766 0.036303
0.656947 0.152400 0.036687
0.685981 0.153011 0.037049
0.714935 0.153599 0.037390
0.743779 0.154165 0.037709
0.772486 0.154708 0.038007
0.801025 0.155228 0.038283
0.829366 0.155726 0.038538
0.857480 0.156200 0.038771
0.885334 0.156652 0.038983
0.912898 0.157082 0.039174
0.940140 0.157488 0.039343
0.052299 0.161897 0.026060
0.076994 0.162991 0.026817
0.102118 0.164063 0.027553
0.127652 0.165113 0.028268
0.153575 0.166140 0.028961
0.179870 0.167144 0.029634
0.206515 0.168126 0.030286
0.233491 0.169085 0.030916
0.260776 0.170022 0.031525
0.288349 0.170936 0.032113
0.316189 0.171827 0.032680
0.344273 0.172696 0.033226
0.372578 0.173542 0.033751
0.401082 0.174365 0.034254
0.429760 0.175165 0.034736
0.458590 0.175943 0.035197
0.487545 0.176697 0.035636
0.516602 0.177429 0.036054
0.545734 0.178138 0.036451
0.574917 0.178825 0.036826
0.604123 0.179488 0.037180
0.633325 0.180128 0.037513
0.662497 0.180746 0.037824
0.691610 0.181340 0.038113
0.720636 0.181912 0.038382
0.749546 0.182461 0.038629
0.778311 0.182986 0.038854
0.806901 0.183489 0.039058
0.835285 0.183968 0.039240
0.863433 0.184425 0.039401
0.891313 0.184858 0.039540
0.918893 0.185269 0.039658
0.946140 0.185656 0.039755
0.054869 0.190972 0.028532
0.079703 0.192056 0.029218
0.104965 0.193116 0.029883
0.130637 0.194153 0.030526
0.156699 0.195168 0.031149
0.183132 0.196160 0.031750
0.209915 0.197129 0.032330
0.237027 0.198075 0.032889
0.264448 0.198998 0.033427
0.292155 0.199899 0.033943
0.320127 0.200776 0.034439
0.348341 0.201630 0.034913
0.376774 0.202461 0.035365
0.405403 0.203270 0.035797
0.434204 0.204055 0.036207
0.463151 0.204817 0.036595
0.492222 0.205556 0.036962
0.521389 0.206272 0.037308
0.550629 0.206965 0.037633
0.579913 0.207634 0.037936
0.609215 0.208281 0.038217
0.638509 0.208904 0.038478
0.667767 0.209504 0.038716
0.696959 0.210081 0.038933
0.726059 0.210635 0.039129
0.755035 0.211165 0.039304
0.783859 0.211673 0.039456
0.812501 0.212157 0.039588
0.840929 0.212617 0.039697
0.869112 0.213055 0.039786
0.897019 0.213469 0.039852
0.924616 0.213860 0.039898
0.951873 0.214227 0.039921
0.057196 0.220464 0.030764
0.082163 0.221534 0.031378
0.107561 0.222581 0.031972
0.133368 0.223605 0.032544
0.159566 0.224606 0.033095
0.186134 0.225584 0.033625
0.213052 0.226539 0.034133
0.240299 0.227470 0.034620
0.267853 0.228379 0.035086
0.295692 0.229264 0.035531
0.323795 0.230126 0.035954
0.352137 0.230964 0.036356
0.380696 0.231780 0.036737
0.409449 0.232572 0.037096
0.438370 0.233340 0.037433
0.467436 0.234086 0.037750
0.496620 0.234808 0.038045
0.525898 0.235507 0.038318
0.555243 0.236182 0.038570
0.584629 0.236834 0.038801
0.614028 0.237463 0.039010
0.643414 0.238068 0.039198
0.672757 0.238650 0.039364
0.702030 0.239208 0.039508
0.731203 0.239743 0.039632
0.760247 0.240254 0.039733
0.789131 0.240742 0.039813
0.817825 0.241207 0.039872
0.846299 0.241648 0.039909
0.874519 0.242065 0.039925
0.902454 0.242459 0.039919
0.930072 0.242830 0.039891
0.957339 0.243176 0.039843
0.059277 0.250343 0.032755
0.084375 0.251399 0.033298
0.109904 0.252432 0.033819
0.135844 0.253441 0.034320
0.162175 0.254426 0.034799
0.188876 0.255389 0.035257
0.215926 0.256328 0.035693
0.243305 0.257244 0.036108
0.270990 0.258136 0.036502
0.298959 0.259004 0.036875
0.327190 0.259850 0.037226
0.355660 0.260671 0.037556
0.384344 0.261470 0.037864
0.413219 0.262244 0.038151
0.442260 0.262996 0.038416
0.471442 0.263723 0.038660
0.500740 0.264427 0.038882
0.530127 0.265108 0.039083
0.559578 0.265765 0.039263
0.589066 0.266398 0.039421
0.618562 0.267008 0.039558
0.648039 0.267594 0.039673
0.677469 0.268156 0.039766
0.706823 0.268695 0.039838
0.736070 0.269210 0.039889
0.765182 0.269701 0.039918
0.794128 0.270169 0.039925
0.822877 0.270613 0.039911
0.851396 0.271034 0.039876
0.879656 0.271430 0.039818
0.907622 0.271803 0.039740
0.935261 0.272152 0.039640
0.962541 0.272478 0.039518
0.061112 0.280583 0.034503
0.086338 0.281623 0.034974
0.111995 0.282639 0.035424
0.138064 0.283632 0.035853
0.164524 0.284601 0.036260
0.191355 0.285547 0.036646
0.218536 0.286469 0.037010
0.246044 0.287367 0.037353
0.273858 0.288242 0.037675
0.301956 0.289093 0.037975
0.330314 0.289920 0.038253
0.358908 0.290724 0.038511
0.387716 0.291504 0.038747
0.416712 0.292260 0.038961
0.445872 0.292993 0.039154
0.475170 0.293701 0.039325
0.504581 0.294386 0.039475
0.534078 0.295048 0.039604
0.563634 0.295685 0.039710
0.593223 0.296299 0.039796
0.622817 0.296888 0.039860
0.652386 0.297454 0.039902
0.681903 0.297997 0.039923
0.711338 0.298515 0.039922
0.740661 0.299009 0.039900
0.769843 0.299480 0.039856
0.798851 0.299927 0.039791
0.827655 0.300350 0.039705
0.856224 0.300749 0.039596
0.884524 0.301124 0.039467
0.912522 0.301475 0.039315
0.940186 0.301802 0.039143
0.967481 0.302106 0.038949
0.062700 0.311154 0.036009
0.088049 0.312177 0.036408
0.113832 0.313176 0.036786
0.140027 0.314151 0.037142
0.166614 0.315102 0.037477
0.193573 0.316030 0.037791
0.220881 0.316934 0.038083
0.248516 0.317813 0.038353
0.276457 0.318669 0.038602
0.304681 0.319502 0.038830
0.333164 0.320310 0.039036
0.361882 0.321094 0.039221
0.390812 0.321855 0.039384
0.419929 0.322592 0.039526
0.449206 0.323304 0.039646
0.478620 0.323993 0.039745
0.508143 0.324658 0.039822
0.537749 0.325299 0.039878
0.567411 0.325916 0.039913
0.597102 0.326509 0.039925
0.626792 0.327078 0.039916
0.656455 0.327623 0.039886
0.686059 0.328144 0.039834
0.715577 0.328641 0.039761
0.744977 0.329114 0.039666
0.774229 0.329563 0.039550
0.803302 0.329988 0.039412
0.832163 0.330389 0.039253
0.860782 0.330766 0.039072
0.889125 0.331119 0.038870
0.917158 0.331448 0.038646
0.944849 0.331753 0.038401
0.972162 0.332033 0.038134
0.064040 0.342027 0.037271
0.089510 0.343031 0.037598
0.115414 0.344012 0.037903
0.141733 0.344968 0.038187
0.168444 0.345900 0.038450
0.195527 0.346808 0.038691
0.222960 0.347692 0.038911
0.250721 0.348553 0.039109
0.278787 0.349389 0.039285
0.307135 0.350201 0.039440
0.335741 0.350989 0.039574
0.364582 0.351753 0.039686
0.393633 0.352493 0.039777
0.422868 0.353209 0.039846
0.452263 0.353901 0.039894
0.481791 0.354569 0.039920
0.511427 0.355213 0.039924
0.541142 0.355833 0.039908
0.570910 0.356428 0.039869
0.600702 0.357000 0.039809
0.630490 0.357547 0.039728
0.660246 0.358071 0.039625
0.689939 0.358570 0.039500
0.719540 0.359045 0.039354
0.749018 0.359496 0.039187
0.778342 0.359922 0.038998
0.807481 0.360325 0.038788
0.836402 0.360703 0.038556
0.865073 0.361058 0.038302
0.893461 0.361388 0.038028
0.921532 0.361694 0.037731
0.949251 0.361976 0.037414
0.976585 0.362233 0.037075
0.065132 0.373172 0.038289
0.090719 0.374157 0.038544
0.116742 0.375117 0.038776
0.143180 0.376053 0.038988
0.170012 0.376964 0.039178
0.197217 0.377852 0.039346
0.224773 0.378716 0.039494
0.252657 0.379555 0.039619
0.280846 0.380371 0.039723
0.309316 0.381162 0.039806
0.338045 0.381929 0.039867
0.367007 0.382672 0.039906
0.396177 0.383390 0.039924
0.425531 0.384085 0.039921
0.455042 0.384755 0.039896
0.484685 0.385401 0.039849
0.514432 0.386023 0.039781
0.544256 0.386621 0.039691
0.574129 0.387194 0.039580
0.604023 0.387743 0.039448
0.633910 0.388268 0.039294
0.663759 0.388769 0.039118
0.693542 0.389246 0.038921
0.723227 0.389698 0.038702
0.752785 0.390126 0.038462
0.782183 0.390530 0.038201
0.811389 0.390909 0.037918
0.840372 0.391265 0.037614
0.869097 0.391596 0.037288
0.897533 0.391902 0.036941
0.925644 0.392185 0.036572
0.953395 0.392443 0.036183
0.980753 0.392677 0.035771
0.065975 0.404558 0.039062
0.091676 0.405522 0.039244
0.117814 0.406460 0.039405
0.144369 0.407375 0.039543
0.171320 0.408265 0.039661
0.198644 0.409132 0.039757
0.226320 0.409973 0.039831
0.254324 0.410791 0.039884
0.282634 0.411585 0.039915
0.311225 0.412354 0.039925
0.340074 0.413099 0.039914
0.369156 0.413819 0.039880
0.398445 0.414515 0.039826
0.427916 0.415188 0.039750
0.457543 0.415835 0.039652
0.487299 0.416459 0.039533
0.517158 0.417058 0.039392
0.547090 0.417633 0.039230
0.577070 0.418183 0.039046
0.607066 0.418709 0.038841
0.637052 0.419211 0.038614
0.666996 0.419689 0.038366
0.696870 0.420142 0.038097
0.726641 0.420571 0.037806
0.756279 0.420976 0.037493
0.785752 0.421356 0.037159
0.815028 0.421712 0.036804
0.844074 0.422044 0.036428
0.872857 0.422351 0.036030
0.901342 0.422634 0.035610
0.929496 0.422893 0.035170
0.957283 0.423127 0.034708
0.984668 0.423337 0.034224
0.066570 0.436154 0.039590
0.092380 0.437095 0.039700
0.118630 0.438012 0.039787
0.145299 0.438904 0.039854
0.172365 0.439772 0.039898
0.199806 0.440615 0.039922
0.227600 0.441434 0.039923
0.255722 0.442229 0.039904
0.284151 0.443000 0.039862
0.312862 0.443746 0.039800
0.341829 0.444468 0.039715
0.371029 0.445165 0.039609
0.400436 0.445838 0.039482
0.430024 0.446487 0.039333
0.459766 0.447112 0.039163
0.489635 0.447712 0.038971
0.519605 0.448287 0.038758
0.549647 0.448839 0.038523
0.579732 0.449366 0.038267
0.609832 0.449868 0.037989
0.639917 0.450346 0.037690
0.669957 0.450800 0.037370
0.699922 0.451230 0.037028
0.729781 0.451635 0.036664
0.759501 0.452015 0.036280
0.789051 0.452372 0.035874
0.818399 0.452703 0.035446
0.847511 0.453011 0.034997
0.876353 0.453294 0.034527
0.904891 0.453553 0.034036
0.933090 0.453787 0.033524
0.960916 0.453997 0.032990
0.988331 0.454183 0.032435
0.066914 0.467927 0.039873
0.092831 0.468845 0.039910
0.119189 0.469738 0.039925
0.145969 0.470607 0.039918
0.173148 0.471451 0.039891
0.200703 0.472271 0.039841
0.228612 0.473067 0.039770
0.256851 0.473838 0.039678
0.285397 0.474584 0.039564
0.314225 0.475307 0.039428
0.343310 0.476005 0.039271
0.372627 0.476678 0.039093
0.402151 0.477328 0.038893
0.431854 0.477952 0.038672
0.461711 0.478553 0.038429
0.491693 0.479129 0.038164
0.521774 0.479680 0.037879
0.551924 0.480207 0.037571
0.582116 0.480710 0.037243
0.612319 0.481188 0.036893
0.642505 0.481642 0.036521
0.672642 0.482072 0.036129
0.702700 0.482477 0.035715
0.732647 0.482858 0.035279
0.762452 0.483214 0.034822
0.792081 0.483546 0.034344
0.821503 0.483853 0.033845
0.850682 0.484136 0.033324
0.879587 0.484395 0.032782
0.908180 0.484629 0.032219
0.936428 0.484839 0.031635
0.964295 0.485024 0.031030
0.991744 0.485185 0.030403
0.067010 0.499845 0.039910
0.093029 0.500738 0.039874
0.119493 0.501607 0.039817
0.146380 0.502451 0.039738
0.173669 0.503271 0.039637
0.201335 0.504067 0.039515
0.229357 0.504838 0.039372
0.257711 0.505584 0.039206
0.286371 0.506307 0.039020
0.315315 0.507004 0.038812
0.344516 0.507678 0.038582
0.373949 0.508327 0.038331
0.403588 0.508951 0.038059
0.433406 0.509551 0.037765
0.463377 0.510127 0.037450
0.493472 0.510678 0.037113
0.523664 0.511205 0.036755
0.553923 0.511707 0.036376
0.584222 0.512185 0.035975
0.614530 0.512639 0.035553
0.644816 0.513068 0.035109
0.675051 0.513473 0.034644
0.705203 0.513853 0.034158
0.735241 0.514209 0.033651
0.765131 0.514540 0.033122
0.794842 0.514847 0.032572
0.824340 0.515130 0.032001
0.853590 0.515388 0.031409
0.882559 0.515622 0.030795
0.911211 0.515831 0.030161
0.939511 0.516016 0.029505
0.967423 0.516177 0.028828
0.994909 0.516313 0.028130
0.066855 0.531874 0.039702
0.092973 0.532742 0.039594
0.119539 0.533585 0.039463
0.146531 0.534404 0.039312
0.173927 0.535199 0.039138
0.201702 0.535969 0.038944
0.229835 0.536715 0.038728
0.258300 0.537436 0.038490
0.287074 0.538133 0.038231
0.316131 0.538805 0.037950
0.345447 0.539453 0.037648
0.374995 0.540077 0.037325
0.404748 0.540676 0.036980
0.434681 0.541251 0.036614
0.464765 0.541801 0.036227
0.494972 0.542327 0.035818
0.525275 0.542829 0.035387
0.555644 0.543306 0.034936
0.586050 0.543759 0.034463
0.616463 0.544187 0.033969
0.646851 0.544591 0.033453
0.677185 0.544971 0.032917
0.707433 0.545326 0.032359
0.737563 0.545656 0.031780
0.767541 0.545963 0.031179
0.797335 0.546245 0.030558
0.826911 0.546502 0.029915
0.856234 0.546735 0.029252
0.885271 0.546944 0.028567
0.913985 0.547128 0.027861
0.942340 0.547288 0.027135
0.970300 0.547424 0.026387
0.997828 0.547535 0.025618
0.066452 0.563980 0.039249
0.092665 0.564821 0.039067
0.119330 0.565639 0.038865
0.146423 0.566431 0.038640
0.173922 0.567200 0.038395
0.201804 0.567944 0.038127
0.230044 0.568664 0.037839
0.258620 0.569359 0.037529
0.287505 0.570030 0.037197
0.316674 0.570676 0.036844
0.346103 0.571298 0.036470
0.375764 0.571896 0.036075
0.405631 0.572469 0.035658
0.435677 0.573018 0.035219
0.465874 0.573543 0.034760
0.496194 0.574043 0.034279
0.526608 0.574519 0.033776
0.557087 0.574970 0.033253
0.587600 0.575398 0.032708
0.618118 0.575800 0.032142
0.648610 0.576179 0.031555
0.679045 0.576533 0.030947
0.709390 0.576862 0.030318
0.739613 0.577168 0.029667
0.769681 0.577449 0.028995
0.799560 0.577705 0.028303
0.829217 0.577938 0.027589
0.858617 0.578146 0.026854
0.887724 0.578329 0.026099
0.916502 0.578488 0.025322
0.944916 0.578623 0.024525
0.972928 0.578734 0.023707
1.000000 0.578820 0.022867
0.065798 0.596127 0.038550
0.092104 0.596942 0.038296
0.118863 0.597732 0.038021
0.146055 0.598498 0.037724
0.173655 0.599240 0.037406
0.201640 0.599957 0.037066
0.229986 0.600650 0.036705
0.258669 0.601319 0.036323
0.287663 0.601963 0.035919
0.316943 0.602583 0.035494
0.346484 0.603178 0.035048
0.376257 0.603750 0.034580
0.406237 0.604297 0.034091
0.436396 0.604819 0.033581
0.466705 0.605318 0.033050
0.497137 0.605792 0.032497
0.527662 0.606242 0.031923
0.558251 0.606667 0.031328
0.588873 0.607068 0.030712
0.619497 0.607445 0.030074
0.650094 0.607798 0.029416
0.680630 0.608126 0.028736
0.711073 0.608430 0.028036
0.741392 0.608710 0.027314
0.771552 0.608965 0.026571
0.801519 0.609196 0.025808
0.831259 0.609403 0.025023
0.860738 0.609586 0.024218
0.889918 0.609744 0.023392
0.918765 0.609878 0.022545
0.947241 0.609988 0.021677
0.975309 0.610073 0.020789
1.000000 0.610135 0.019879
0.064896 0.628281 0.037606
0.091289 0.629068 0.037280
0.118140 0.629831 0.036933
0.145427 0.630569 0.036563
0.173125 0.631283 0.036173
0.201211 0.631973 0.035761
0.229660 0.632639 0.035328
0.258448 0.633280 0.034874
0.287550 0.633897 0.034398
0.316939 0.634490 0.033901
0.346589 0.635059 0.033383
0.376474 0.635603 0.032843
0.406566 0.636123 0.032282
0.436836 0.636619 0.031701
0.467258 0.637091 0.031097
0.497802 0.637539 0.030473
0.528438 0.637962 0.029828
0.559137 0.638361 0.029161
0.589867 0.638736 0.028474
0.620599 0.639087 0.027765
0.651301 0.639413 0.027036
0.681940 0.639716 0.026285
0.712484 0.639994 0.025514
0.742900 0.640248 0.024721
0.773154 0.640478 0.023908
0.803211 0.640683 0.023074
0.833038 0.640865 0.022219
0.862598 0.641022 0.021344
0.891855 0.641155 0.020447
0.920773 0.641264 0.019530
0.949315 0.641349 0.018593
0.977444 0.641410 0.017635
1.000000 0.641446 0.016656
0.063745 0.660404 0.036418
0.090223 0.661163 0.036020
0.117162 0.661897 0.035600
0.144540 0.662608 0.035159
0.172332 0.663294 0.034696
0.200516 0.663956 0.034213
0.229066 0.664594 0.033708
0.257958 0.665207 0.033181
0.287165 0.665797 0.032634
0.316661 0.666362 0.032065
0.346420 0.666903 0.031475
0.376414 0.667421 0.030864
0.406617 0.667914 0.030232
0.436999 0.668383 0.029578
0.467532 0.668827 0.028904
0.498187 0.669248 0.028208
0.528935 0.669645 0.027492
0.559744 0.670018 0.026755
0.590585 0.670366 0.025996
0.621425 0.670691 0.025217
0.652233 0.670991 0.024417
0.682977 0.671267 0.023595
0.713623 0.671520 0.022754
0.744138 0.671748 0.021891
0.774488 0.671952 0.021007
0.804638 0.672132 0.020103
0.834553 0.672288 0.019179
0.864198 0.672420 0.018233
0.893535 0.672528 0.017267
0.922529 0.672612 0.016281
0.951140 0.672672 0.015274
0.979332 0.672708 0.014246
1.000000 0.672720 0.013198
0.062346 0.692460 0.034987
0.088904 0.693190 0.034516
0.115927 0.693896 0.034024
0.143393 0.694577 0.033511
0.171278 0.695235 0.032977
0.199557 0.695868 0.032421
0.228205 0.696478 0.031845
0.257197 0.697063 0.031247
0.286507 0.697625 0.030627
0.316109 0.698163 0.029987
0.345975 0.698676 0.029326
0.376078 0.699166 0.028644
0.406390 0.699631 0.027940
0.436883 0.700073 0.027216
0.467528 0.700491 0.026470
0.498295 0.700885 0.025704
0.529153 0.701255 0.024917
0.560074 0.701601 0.024109
0.591025 0.701923 0.023280
0.621974 0.702221 0.022430
0.652890 0.702495 0.021559
0.683739 0.702745 0.020668
0.714489 0.702972 0.019756
0.745105 0.703174 0.018824
0.775554 0.703353 0.017870
0.805799 0.703507 0.016897
0.835806 0.703638 0.015903
0.865538 0.703745 0.014888
0.894959 0.703828 0.013853
0.924031 0.703887 0.012797
0.952716 0.703923 0.011721
0.980977 0.703934 0.010625
1.000000 0.703921 0.009509
0.060700 0.724411 0.033312
0.087333 0.725111 0.032769
0.114437 0.725788 0.032206
0.141988 0.726440 0.031621
0.169962 0.727069 0.031015
0.198333 0.727673 0.030388
0.227076 0.728254 0.029740
0.256167 0.728811 0.029071
0.285578 0.729345 0.028380
0.315283 0.729854 0.027669
0.345255 0.730340 0.026937
0.375465 0.730802 0.026183
0.405886 0.731240 0.025409
0.436489 0.731654 0.024614
0.467245 0.732045 0.023798
0.498123 0.732411 0.022961
0.529094 0.732754 0.022103
0.560125 0.733074 0.021225
0.591187 0.733369 0.020326
0.622246 0.733641 0.019406
0.653271 0.733889 0.018466
0.684228 0.734113 0.017505
0.715083 0.734314 0.016523
0.745803 0.734491 0.015521
0.776352 0.734644 0.014499
0.806696 0.734773 0.013456
0.836797 0.734879 0.012393
0.866620 0.734961 0.011309
0.896127 0.735019 0.010206
0.925282 0.735054 0.009082
0.954045 0.735065 0.007938
0.982377 0.735052 0.006773
1.000000 0.735016 0.005589
0.058806 0.756218 0.031395
0.085512 0.756888 0.030781
0.112693 0.757535 0.030146
0.140325 0.758158 0.029489
0.168384 0.758757 0.028812
0.196844 0.759333 0.028114
0.225681 0.759885 0.027395
0.254867 0.760413 0.026654
0.284377 0.760918 0.025893
0.314184 0.761399 0.025111
0.344260 0.761857 0.024308
0.374576 0.762291 0.023484
0.405105 0.762701 0.022639
0.435818 0.763088 0.021774
0.466684 0.763451 0.020888
0.497673 0.763791 0.019981
0.528755 0.764107 0.019053
0.559899 0.764399 0.018105
0.591072 0.764668 0.017136
0.622242 0.764914 0.016147
0.653377 0.765136 0.015137
0.684443 0.765334 0.014107
0.715406 0.765509 0.013057
0.746231 0.765661 0.011986
0.776883 0.765789 0.010895
0.807327 0.765893 0.009783
0.837526 0.765974 0.008652
0.867443 0.766032 0.007500
0.897041 0.766065 0.006328
0.926281 0.766076 0.005136
0.955126 0.766063 0.003925
0.983535 0.766026 0.002693
1.000000 0.765966 0.001442
0.056667 0.787842 0.029236
0.083441 0.788482 0.028551
0.110695 0.789098 0.027844
0.138404 0.789691 0.027117
0.166545 0.790261 0.026369
0.195092 0.790807 0.025600
0.224018 0.791330 0.024810
0.253298 0.791830 0.023999
0.282905 0.792306 0.023167
0.312812 0.792759 0.022315
0.342990 0.793188 0.021441
0.373411 0.793594 0.020547
0.404047 0.793977 0.019633
0.434868 0.794336 0.018697
0.465844 0.794672 0.017741
0.496944 0.794984 0.016765
0.528138 0.795274 0.015768
0.559394 0.795540 0.014750
0.590679 0.795783 0.013713
0.621962 0.796002 0.012654
0.653208 0.796198 0.011576
0.684384 0.796371 0.010477
0.715456 0.796520 0.009358
0.746389 0.796647 0.008219
0.777147 0.796750 0.007060
0.807694 0.796830 0.005880
0.837993 0.796886 0.004681
0.868007 0.796919 0.003462
0.897699 0.796929 0.002222
0.927029 0.796916 0.000963
0.955960 0.796879 0.000000
0.984450 0.796819 0.000000
1.000000 0.796736 0.000000
0.054283 0.819242 0.026837
0.081120 0.819852 0.026081
0.108443 0.820438 0.025304
0.136227 0.821001 0.024506
0.164446 0.821541 0.023687
0.193076 0.822058 0.022847
0.222089 0.822551 0.021987
0.251460 0.823022 0.021106
0.281162 0.823469 0.020204
0.311166 0.823893 0.019282
0.341445 0.824294 0.018338
0.371970 0.824672 0.017375
0.402712 0.825027 0.016391
0.433640 0.825359 0.015386
0.464726 0.825668 0.014361
0.495937 0.825954 0.013315
0.527242 0.826216 0.012249
0.558611 0.826456 0.011163
0.590009 0.826673 0.010056
0.621405 0.826866 0.008930
0.652764 0.827037 0.007783
0.684052 0.827184 0.006616
0.715235 0.827309 0.005429
0.746277 0.827410 0.004222
0.777143 0.827489 0.002996
0.807796 0.827544 0.001749
0.838199 0.827577 0.000482
