assets/LUTs/rescue_punch_33.cube
TITLE "Rescue Punch"
LUT_3D_SIZE 5
DOMAIN_MIN 0.0 0.0 0.0
DOMAIN_MAX 1.0 1.0 1.0
0.007912 0.000000 0.000000
0.275056 0.000000 0.000000
0.551934 0.000000 0.000000
0.803527 0.000000 0.000000
1.000000 0.000000 0.000000
0.000000 0.246022 0.000000
0.247072 0.237536 0.000000
0.533765 0.230545 0.000000
0.795139 0.230137 0.000000
1.000000 0.235000 0.000000
0.000000 0.515506 0.000000
0.224902 0.509977 0.000000
0.513278 0.503704 0.000000
0.785680 0.498903 0.000000
1.000000 0.500000 0.000000
0.000000 0.776190 0.000000
0.224788 0.773591 0.000000
0.501059 0.770673 0.000000
0.776221 0.767670 0.000000
1.000000 0.765000 0.000000
0.006751 1.000000 0.000000
0.243175 1.000000 0.000000
0.508640 1.000000 0.000000
0.773144 1.000000 0.000000
1.000000 1.000000 0.000000
0.004869 0.000000 0.262412
0.272329 0.000000 0.253292
0.550163 0.000000 0.237918
0.802710 0.000000 0.229157
1.000000 0.000000 0.226856
0.000000 0.243339 0.233812
0.244696 0.234751 0.224844
0.542778 0.225901 0.216469
0.815499 0.223639 0.214681
1.000000 0.226912 0.218361
0.000000 0.513889 0.210293
0.213991 0.511885 0.195062
0.512831 0.502826 0.186522
0.796581 0.496172 0.195763
1.000000 0.495679 0.208902
0.000000 0.775640 0.208874
0.205374 0.780220 0.187396
0.492077 0.774486 0.181661
0.777663 0.768705 0.176845
1.000000 0.764446 0.199443
0.005672 1.000000 0.226104
0.216220 1.000000 0.199085
0.492116 1.000000 0.196269
0.767015 1.000000 0.193462
1.000000 1.000000 0.191055
0.003376 0.000000 0.542213
0.260632 0.000000 0.536589
0.548099 0.000000 0.528951
0.801757 0.000000 0.505909
1.000000 0.000000 0.491360
0.000000 0.238403 0.523831
0.241200 0.231688 0.529988
0.540113 0.222746 0.520072
0.814319 0.221494 0.503903
1.000000 0.225635 0.495249
0.000000 0.511760 0.502157
0.210214 0.509029 0.498977
0.510245 0.499738 0.489230
0.807226 0.490923 0.480918
1.000000 0.488576 0.479003
0.000000 0.774624 0.486431
0.202029 0.778749 0.476323
0.479540 0.776867 0.459499
0.777279 0.767848 0.450971
1.000000 0.761735 0.458515
0.005644 1.000000 0.490973
0.213259 1.000000 0.474721
0.470786 1.000000 0.451639
0.757805 1.000000 0.445560
1.000000 1.000000 0.440346
0.004112 0.000000 0.794314
0.250496 0.000000 0.791625
0.527143 0.000000 0.788605
0.800800 0.000000 0.783666
1.000000 0.000000 0.756825
0.000000 0.235597 0.786113
0.239889 0.230854 0.807574
0.527343 0.224917 0.801637
0.812371 0.219547 0.794393
1.000000 0.224644 0.773447
0.000000 0.504746 0.775692
0.219554 0.503858 0.788162
0.506720 0.496668 0.795483
0.804571 0.487749 0.785642
1.000000 0.486267 0.771343
0.000000 0.773605 0.764995
0.200013 0.776733 0.767698
0.475712 0.774013 0.764500
0.774660 0.764753 0.754809
1.000000 0.756780 0.747243
0.005615 1.000000 0.756803
0.212233 1.000000 0.753363
0.467310 1.000000 0.743267
0.746326 1.000000 0.727289
1.000000 1.000000 0.719259
0.006652 0.000000 0.994616
0.243353 0.000000 0.994541
0.509128 0.000000 0.994457
0.773942 0.000000 0.994374
1.000000 0.000000 0.993249
0.006054 0.234982 0.995483
0.240606 0.231996 1.000000
0.517188 0.228994 1.000000
0.792769 0.226003 1.000000
1.000000 0.223761 1.000000
0.005491 0.500206 0.994920
0.230098 0.501044 1.000000
0.505428 0.495825 1.000000
0.793152 0.489556 1.000000
1.000000 0.484390 1.000000
0.004928 0.765430 0.994357
0.219677 0.770194 1.000000
0.483883 0.769311 1.000000
0.771435 0.761908 1.000000
1.000000 0.753818 1.000000
0.005590 1.000000 0.993554
0.211320 1.000000 1.000000
0.465400 1.000000 1.000000
0.742845 1.000000 1.000000
1.000000 1.000000 0.991881
