assets/LUTs/skintone_espresso_deep_33.cube
TITLE "SkinTone Espresso Deep"
# Deepest of the set: rich espresso-brown skin, heavy density, hue pulled hard to red-brown. Moody and dark.
# Skin-tone selective LUT. Apply to display-referred Rec.709/sRGB (SDR) footage.
# Generated 2026-07-10 with Claude Code.
LUT_3D_SIZE 33
DOMAIN_MIN 0.0 0.0 0.0
DOMAIN_MAX 1.0 1.0 1.0
0.000000 0.000000 0.000000
0.028696 0.000000 0.000000
0.057886 0.000000 0.000000
0.087537 0.000000 0.000000
0.117617 0.000000 0.000000
0.148093 0.000000 0.000000
0.178931 0.000000 0.000000
0.210098 0.000000 0.000000
0.241563 0.000000 0.000000
0.273290 0.000000 0.000000
0.305249 0.000000 0.000000
0.337405 0.000000 0.000000
0.369727 0.000000 0.000000
0.402180 0.000000 0.000000
0.434731 0.000000 0.000000
0.467349 0.000000 0.000000
0.500000 0.000000 0.000000
0.532651 0.000000 0.000000
0.565269 0.000000 0.000000
0.597820 0.000000 0.000000
0.630273 0.000000 0.000000
0.662595 0.000000 0.000000
0.694751 0.000000 0.000000
0.726710 0.000000 0.000000
0.758437 0.000000 0.000000
0.789902 0.000000 0.000000
0.821069 0.000000 0.000000
0.851907 0.000000 0.000000
0.882383 0.000000 0.000000
0.912463 0.000000 0.000000
0.942114 0.000000 0.000000
0.971304 0.000000 0.000000
1.000000 0.000000 0.000000
0.000000 0.028696 0.000000
0.028696 0.028696 0.000000
0.057886 0.028943 0.000000
0.087537 0.029179 0.000000
0.117617 0.029404 0.000000
0.148093 0.029619 0.000000
0.178931 0.029822 0.000000
0.210098 0.030014 0.000000
0.241563 0.030195 0.000000
0.273290 0.030366 0.000000
0.305249 0.030525 0.000000
0.337405 0.030673 0.000000
0.369727 0.030811 0.000000
0.402180 0.030937 0.000000
0.434731 0.031052 0.000000
0.467349 0.031157 0.000000
0.500000 0.031250 0.000000
0.532651 0.031332 0.000000
0.565269 0.031404 0.000000
0.597820 0.031464 0.000000
0.630273 0.031514 0.000000
0.662595 0.031552 0.000000
0.694751 0.031580 0.000000
0.726710 0.031596 0.000000
0.758437 0.031602 0.000000
0.789902 0.031596 0.000000
0.821069 0.031580 0.000000
0.851907 0.031552 0.000000
0.882383 0.031514 0.000000
0.912463 0.031464 0.000000
0.942114 0.031404 0.000000
0.971304 0.031332 0.000000
1.000000 0.031250 0.000000
0.000000 0.057886 0.000000
0.028943 0.057886 0.000000
0.057886 0.057886 0.000000
0.087537 0.058358 0.000000
0.117617 0.058809 0.000000
0.148093 0.059237 0.000000
0.178931 0.059644 0.000000
0.210098 0.060028 0.000000
0.241563 0.060391 0.000000
0.273290 0.060731 0.000000
0.305249 0.061050 0.000000
0.337405 0.061346 0.000000
0.369727 0.061621 0.000000
0.402180 0.061874 0.000000
0.434731 0.062104 0.000000
0.467349 0.062313 0.000000
0.500000 0.062500 0.000000
0.532651 0.062665 0.000000
0.565269 0.062808 0.000000
0.597820 0.062928 0.000000
0.630273 0.063027 0.000000
0.662595 0.063104 0.000000
0.694751 0.063159 0.000000
0.726710 0.063192 0.000000
0.758437 0.063203 0.000000
0.789902 0.063192 0.000000
0.821069 0.063159 0.000000
0.851907 0.063104 0.000000
0.882383 0.063027 0.000000
0.912463 0.062928 0.000000
0.942114 0.062808 0.000000
0.971304 0.062665 0.000000
1.000000 0.062500 0.000000
0.000000 0.087537 0.000000
0.029179 0.087537 0.000000
0.058358 0.087537 0.000000
0.087537 0.087537 0.000000
0.117617 0.088213 0.000000
0.148093 0.088856 0.000000
0.178931 0.089465 0.000000
0.210098 0.090042 0.000000
0.241563 0.090586 0.000000
0.273290 0.091097 0.000000
0.305249 0.091575 0.000000
0.337405 0.092020 0.000000
0.369727 0.092432 0.000000
0.402180 0.092811 0.000000
0.434731 0.093157 0.000000
0.467349 0.093470 0.000000
0.500000 0.093750 0.000000
0.532651 0.093997 0.000000
0.565269 0.094211 0.000000
0.597820 0.094393 0.000000
0.630273 0.094541 0.000000
0.662595 0.094656 0.000000
0.694751 0.094739 0.000000
0.726710 0.094788 0.000000
0.758437 0.094805 0.000000
0.789902 0.094788 0.000000
0.821069 0.094739 0.000000
0.851907 0.094656 0.000000
0.882383 0.094541 0.000000
0.912463 0.094393 0.000000
0.942114 0.094211 0.000000
0.971304 0.093997 0.000000
1.000000 0.093750 0.000000
0.000000 0.117617 0.000000
0.029404 0.117617 0.000000
0.058809 0.117617 0.000000
0.088213 0.117617 0.000000
0.117617 0.117617 0.000000
0.148093 0.118474 0.000000
0.178931 0.119287 0.000000
0.210098 0.120056 0.000000
0.241563 0.120781 0.000000
0.273290 0.121462 0.000000
0.305249 0.122100 0.000000
0.337405 0.122693 0.000000
0.369727 0.123242 0.000000
0.402180 0.123748 0.000000
0.434731 0.124209 0.000000
0.467349 0.124626 0.000000
0.500000 0.125000 0.000000
0.532651 0.125330 0.000000
0.565269 0.125615 0.000000
0.597820 0.125857 0.000000
0.630273 0.126055 0.000000
0.662595 0.126208 0.000000
0.694751 0.126318 0.000000
0.726710 0.126384 0.000000
0.758437 0.126406 0.000000
0.789902 0.126384 0.000000
0.821069 0.126318 0.000000
0.851907 0.126208 0.000000
0.882383 0.126055 0.000000
0.912463 0.125857 0.000000
0.942114 0.125615 0.000000
0.971304 0.125330 0.000000
1.000000 0.125000 0.000000
0.000000 0.148093 0.000000
0.029619 0.148093 0.000000
0.059237 0.148093 0.000000
0.088856 0.148093 0.000000
0.118474 0.148093 0.000000
0.148093 0.148093 0.000000
0.178931 0.149109 0.000000
0.210098 0.150070 0.000000
0.241563 0.150977 0.000000
0.273290 0.151828 0.000000
0.305249 0.152625 0.000000
0.337405 0.153366 0.000000
0.369727 0.154053 0.000000
0.402180 0.154684 0.000000
0.434731 0.155261 0.000000
0.467349 0.155783 0.000000
0.500000 0.156250 0.000000
0.532651 0.156662 0.000000
0.565269 0.157019 0.000000
0.597820 0.157321 0.000000
0.630273 0.157568 0.000000
0.662595 0.157761 0.000000
0.694751 0.157898 0.000000
0.726710 0.157980 0.000000
0.758437 0.158008 0.000000
0.789902 0.157980 0.000000
0.821069 0.157898 0.000000
0.851907 0.157761 0.000000
0.882383 0.157568 0.000000
0.912463 0.157321 0.000000
0.942114 0.157019 0.000000
0.971304 0.156662 0.000000
1.000000 0.156250 0.000000
0.000000 0.178931 0.000000
0.029822 0.178931 0.000000
0.059644 0.178931 0.000000
0.089465 0.178931 0.000000
0.119287 0.178931 0.000000
0.149109 0.178931 0.000000
0.178931 0.178931 0.000000
0.210098 0.180084 0.000000
0.241563 0.181172 0.000000
0.273290 0.182194 0.000000
0.305249 0.183149 0.000000
0.337405 0.184039 0.000000
0.369727 0.184863 0.000000
0.402180 0.185621 0.000000
0.434731 0.186313 0.000000
0.467349 0.186940 0.000000
0.500000 0.187500 0.000000
0.532651 0.187994 0.000000
0.565269 0.188423 0.000000
0.597820 0.188785 0.000000
0.630273 0.189082 0.000000
0.662595 0.189313 0.000000
0.694751 0.189478 0.000000
0.726710 0.189576 0.000000
0.758437 0.189609 0.000000
0.789902 0.189576 0.000000
0.821069 0.189478 0.000000
0.851907 0.189313 0.000000
0.882383 0.189082 0.000000
0.912463 0.188785 0.000000
0.942114 0.188423 0.000000
0.971304 0.187994 0.000000
1.000000 0.187500 0.000000
0.000000 0.210098 0.000000
0.030014 0.210098 0.000000
0.060028 0.210098 0.000000
0.090042 0.210098 0.000000
0.120056 0.210098 0.000000
0.150070 0.210098 0.000000
0.180084 0.210098 0.000000
0.210098 0.210098 0.000000
0.241563 0.211367 0.000000
0.273290 0.212559 0.000000
0.305249 0.213674 0.000000
0.337405 0.214713 0.000000
0.369727 0.215674 0.000000
0.402180 0.216558 0.000000
0.434731 0.217366 0.000000
0.467349 0.218096 0.000000
0.500000 0.218750 0.000000
0.532651 0.219327 0.000000
0.565269 0.219827 0.000000
0.597820 0.220250 0.000000
0.630273 0.220596 0.000000
0.662595 0.220865 0.000000
0.694751 0.221057 0.000000
0.726710 0.221172 0.000000
0.758437 0.221211 0.000000
0.789902 0.221172 0.000000
0.821069 0.221057 0.000000
0.851907 0.220865 0.000000
0.882383 0.220596 0.000000
0.912463 0.220250 0.000000
0.942114 0.219827 0.000000
0.971304 0.219327 0.000000
1.000000 0.218750 0.000000
0.000000 0.241563 0.000000
0.030195 0.241563 0.000000
0.060391 0.241563 0.000000
0.090586 0.241563 0.000000
0.120781 0.241563 0.000000
0.150977 0.241563 0.000000
0.181172 0.241563 0.000000
0.211367 0.241563 0.000000
0.241563 0.241563 0.000000
0.273290 0.242925 0.000000
0.305249 0.244199 0.000000
0.337405 0.245386 0.000000
0.369727 0.246484 0.000000
0.402180 0.247495 0.000000
0.434731 0.248418 0.000000
0.467349 0.249253 0.000000
0.500000 0.250000 0.000000
0.532651 0.250659 0.000000
0.565269 0.251230 0.000000
0.597820 0.251714 0.000000
0.630273 0.252109 0.000000
0.662595 0.252417 0.000000
0.694751 0.252637 0.000000
0.726710 0.252769 0.000000
0.758437 0.252813 0.000000
0.789902 0.252769 0.000000
0.821069 0.252637 0.000000
0.851907 0.252417 0.000000
0.882383 0.252109 0.000000
0.912463 0.251714 0.000000
0.942114 0.251230 0.000000
0.971304 0.250659 0.000000
1.000000 0.250000 0.000000
0.000000 0.273290 0.000000
0.030366 0.273290 0.000000
0.060731 0.273290 0.000000
0.091097 0.273290 0.000000
0.121462 0.273290 0.000000
0.151828 0.273290 0.000000
0.182194 0.273290 0.000000
0.212559 0.273290 0.000000
0.242925 0.273290 0.000000
0.273290 0.273290 0.000000
0.305249 0.274724 0.000000
0.337405 0.276059 0.000000
0.369727 0.277295 0.000000
0.402180 0.278432 0.000000
0.434731 0.279470 0.000000
0.467349 0.280410 0.000000
0.500000 0.281250 0.000000
0.532651 0.281992 0.000000
0.565269 0.282634 0.000000
0.597820 0.283178 0.000000
0.630273 0.283623 0.000000
0.662595 0.283969 0.000000
0.694751 0.284216 0.000000
0.726710 0.284365 0.000000
0.758437 0.284414 0.000000
0.789902 0.284365 0.000000
0.821069 0.284216 0.000000
0.851907 0.283969 0.000000
0.882383 0.283623 0.000000
0.912463 0.283178 0.000000
0.942114 0.282634 0.000000
0.971304 0.281992 0.000000
1.000000 0.281250 0.000000
0.000000 0.305249 0.000000
0.030525 0.305249 0.000000
0.061050 0.305249 0.000000
0.091575 0.305249 0.000000
0.122100 0.305249 0.000000
0.152625 0.305249 0.000000
0.183149 0.305249 0.000000
0.213674 0.305249 0.000000
0.244199 0.305249 0.000000
0.274724 0.305249 0.000000
0.305249 0.305249 0.000000
0.337405 0.306732 0.000000
0.369727 0.308105 0.000000
0.402180 0.309369 0.000000
0.434731 0.310522 0.000000
0.467349 0.311566 0.000000
0.500000 0.312500 0.000000
0.532651 0.313324 0.000000
0.565269 0.314038 0.000000
0.597820 0.314642 0.000000
0.630273 0.315137 0.000000
0.662595 0.315521 0.000000
0.694751 0.315796 0.000000
0.726710 0.315961 0.000000
0.758437 0.316016 0.000000
0.789902 0.315961 0.000000
0.821069 0.315796 0.000000
0.851907 0.315521 0.000000
0.882383 0.315137 0.000000
0.912463 0.314642 0.000000
0.942114 0.314038 0.000000
0.971304 0.313324 0.000000
1.000000 0.312500 0.000000
0.000000 0.337405 0.000000
0.030673 0.337405 0.000000
0.061346 0.337405 0.000000
0.092020 0.337405 0.000000
0.122693 0.337405 0.000000
0.153366 0.337405 0.000000
0.184039 0.337405 0.000000
0.214713 0.337405 0.000000
0.245386 0.337405 0.000000
0.276059 0.337405 0.000000
0.306732 0.337405 0.000000
0.337405 0.337405 0.000000
0.369727 0.338916 0.000000
0.402180 0.340306 0.000000
0.434731 0.341575 0.000000
0.467349 0.342723 0.000000
0.500000 0.343750 0.000000
0.532651 0.344656 0.000000
0.565269 0.345442 0.000000
0.597820 0.346107 0.000000
0.630273 0.346650 0.000000
0.662595 0.347073 0.000000
0.694751 0.347375 0.000000
0.726710 0.347557 0.000000
0.758437 0.347617 0.000000
0.789902 0.347557 0.000000
0.821069 0.347375 0.000000
0.851907 0.347073 0.000000
0.882383 0.346650 0.000000
0.912463 0.346107 0.000000
0.942114 0.345442 0.000000
0.971304 0.344656 0.000000
1.000000 0.343750 0.000000
0.000000 0.369727 0.000000
0.030811 0.369727 0.000000
0.061621 0.369727 0.000000
0.092432 0.369727 0.000000
0.123242 0.369727 0.000000
0.154053 0.369727 0.000000
0.184863 0.369727 0.000000
0.215674 0.369727 0.000000
0.246484 0.369727 0.000000
0.277295 0.369727 0.000000
0.308105 0.369727 0.000000
0.338916 0.369727 0.000000
0.369727 0.369727 0.000000
0.402180 0.371243 0.000000
0.434731 0.372627 0.000000
0.467349 0.373879 0.000000
0.500000 0.375000 0.000000
0.532651 0.375989 0.000000
0.565269 0.376846 0.000000
0.597820 0.377571 0.000000
0.630273 0.378164 0.000000
0.662595 0.378625 0.000000
0.694751 0.378955 0.000000
0.726710 0.379153 0.000000
0.758437 0.379219 0.000000
0.789902 0.379153 0.000000
0.821069 0.378955 0.000000
0.851907 0.378625 0.000000
0.882383 0.378164 0.000000
0.912463 0.377571 0.000000
0.942114 0.376846 0.000000
0.971304 0.375989 0.000000
1.000000 0.375000 0.000000
0.000000 0.402180 0.000000
0.030937 0.402180 0.000000
0.061874 0.402180 0.000000
0.092811 0.402180 0.000000
0.123748 0.402180 0.000000
0.154684 0.402180 0.000000
0.185621 0.402180 0.000000
0.216558 0.402180 0.000000
0.247495 0.402180 0.000000
0.278432 0.402180 0.000000
0.309369 0.402180 0.000000
0.340306 0.402180 0.000000
0.371243 0.402180 0.000000
0.402180 0.402180 0.000000
0.434731 0.403679 0.000000
0.467349 0.405036 0.000000
0.500000 0.406250 0.000000
0.532651 0.407321 0.000000
0.565269 0.408250 0.000000
0.597820 0.409035 0.000000
0.630273 0.409678 0.000000
0.662595 0.410178 0.000000
0.694751 0.410535 0.000000
0.726710 0.410749 0.000000
0.758437 0.410820 0.000000
0.789902 0.410749 0.000000
0.821069 0.410535 0.000000
0.851907 0.410178 0.000000
0.882383 0.409678 0.000000
0.912463 0.409035 0.000000
0.942114 0.408250 0.000000
0.971304 0.407321 0.000000
1.000000 0.406250 0.000000
0.000000 0.434731 0.000000
0.031052 0.434731 0.000000
0.062104 0.434731 0.000000
0.093157 0.434731 0.000000
0.124209 0.434731 0.000000
0.155261 0.434731 0.000000
0.186313 0.434731 0.000000
0.217366 0.434731 0.000000
0.248418 0.434731 0.000000
0.279470 0.434731 0.000000
0.310522 0.434731 0.000000
0.341575 0.434731 0.000000
0.372627 0.434731 0.000000
0.403679 0.434731 0.000000
0.434731 0.434731 0.000000
0.467349 0.436193 0.000000
0.500000 0.437500 0.000000
0.532651 0.438654 0.000000
0.565269 0.439653 0.000000
0.597820 0.440499 0.000000
0.630273 0.441191 0.000000
0.662595 0.441730 0.000000
0.694751 0.442114 0.000000
0.726710 0.442345 0.000000
0.758437 0.442422 0.000000
0.789902 0.442345 0.000000
0.821069 0.442114 0.000000
0.851907 0.441730 0.000000
0.882383 0.441191 0.000000
0.912463 0.440499 0.000000
0.942114 0.439653 0.000000
0.971304 0.438654 0.000000
1.000000 0.437500 0.000000
0.000000 0.467349 0.000000
0.031157 0.467349 0.000000
0.062313 0.467349 0.000000
0.093470 0.467349 0.000000
0.124626 0.467349 0.000000
0.155783 0.467349 0.000000
0.186940 0.467349 0.000000
0.218096 0.467349 0.000000
0.249253 0.467349 0.000000
0.280410 0.467349 0.000000
0.311566 0.467349 0.000000
0.342723 0.467349 0.000000
0.373879 0.467349 0.000000
0.405036 0.467349 0.000000
0.436193 0.467349 0.000000
0.467349 0.467349 0.000000
0.500000 0.468750 0.000000
0.532651 0.469986 0.000000
0.565269 0.471057 0.000000
0.597820 0.471964 0.000000
0.630273 0.472705 0.000000
0.662595 0.473282 0.000000
0.694751 0.473694 0.000000
0.726710 0.473941 0.000000
0.758437 0.474023 0.000000
0.789902 0.473941 0.000000
0.821069 0.473694 0.000000
0.851907 0.473282 0.000000
0.882383 0.472705 0.000000
0.912463 0.471964 0.000000
0.942114 0.471057 0.000000
0.971304 0.469986 0.000000
1.000000 0.468750 0.000000
0.000000 0.500000 0.000000
0.031250 0.500000 0.000000
0.062500 0.500000 0.000000
0.093750 0.500000 0.000000
0.125000 0.500000 0.000000
0.156250 0.500000 0.000000
0.187500 0.500000 0.000000
0.218750 0.500000 0.000000
0.250000 0.500000 0.000000
0.281250 0.500000 0.000000
0.312500 0.500000 0.000000
0.343750 0.500000 0.000000
0.375000 0.500000 0.000000
0.406250 0.500000 0.000000
0.437500 0.500000 0.000000
0.468750 0.500000 0.000000
0.500000 0.500000 0.000000
0.532651 0.501318 0.000000
0.565269 0.502461 0.000000
0.597820 0.503428 0.000000
0.630273 0.504219 0.000000
0.662595 0.504834 0.000000
0.694751 0.505273 0.000000
0.726710 0.505537 0.000000
0.758437 0.505625 0.000000
0.789902 0.505537 0.000000
0.821069 0.505273 0.000000
0.851907 0.504834 0.000000
0.882383 0.504219 0.000000
0.912463 0.503428 0.000000
0.942114 0.502461 0.000000
0.971304 0.501318 0.000000
1.000000 0.500000 0.000000
0.000000 0.532651 0.000000
0.031332 0.532651 0.000000
0.062665 0.532651 0.000000
0.093997 0.532651 0.000000
0.125330 0.532651 0.000000
0.156662 0.532651 0.000000
0.187994 0.532651 0.000000
0.219327 0.532651 0.000000
0.250659 0.532651 0.000000
0.281992 0.532651 0.000000
0.313324 0.532651 0.000000
0.344656 0.532651 0.000000
0.375989 0.532651 0.000000
0.407321 0.532651 0.000000
0.438654 0.532651 0.000000
0.469986 0.532651 0.000000
0.501318 0.532651 0.000000
0.532651 0.532651 0.000000
0.565269 0.533865 0.000000
0.597820 0.534892 0.000000
0.630273 0.535732 0.000000
0.662595 0.536386 0.000000
0.694751 0.536853 0.000000
0.726710 0.537133 0.000000
0.758437 0.537227 0.000000
0.789902 0.537133 0.000000
0.821069 0.536853 0.000000
0.851907 0.536386 0.000000
0.882383 0.535732 0.000000
0.912463 0.534892 0.000000
0.942114 0.533865 0.000000
0.971304 0.532651 0.000000
1.000000 0.531250 0.000000
0.000000 0.565269 0.000000
0.031404 0.565269 0.000000
0.062808 0.565269 0.000000
0.094211 0.565269 0.000000
0.125615 0.565269 0.000000
0.157019 0.565269 0.000000
0.188423 0.565269 0.000000
0.219827 0.565269 0.000000
0.251230 0.565269 0.000000
0.282634 0.565269 0.000000
0.314038 0.565269 0.000000
0.345442 0.565269 0.000000
0.376846 0.565269 0.000000
0.408250 0.565269 0.000000
0.439653 0.565269 0.000000
0.471057 0.565269 0.000000
0.502461 0.565269 0.000000
0.533865 0.565269 0.000000
0.565269 0.565269 0.000000
0.597820 0.566356 0.000000
0.630273 0.567246 0.000000
0.662595 0.567938 0.000000
0.694751 0.568433 0.000000
0.726710 0.568729 0.000000
0.758437 0.568828 0.000000
0.789902 0.568729 0.000000
0.821069 0.568433 0.000000
0.851907 0.567938 0.000000
0.882383 0.567246 0.000000
0.912463 0.566356 0.000000
0.942114 0.565269 0.000000
0.971304 0.563983 0.000000
1.000000 0.562500 0.000000
0.000000 0.597820 0.000000
0.031464 0.597820 0.000000
0.062928 0.597820 0.000000
0.094393 0.597820 0.000000
0.125857 0.597820 0.000000
0.157321 0.597820 0.000000
0.188785 0.597820 0.000000
0.220250 0.597820 0.000000
0.251714 0.597820 0.000000
0.283178 0.597820 0.000000
0.314642 0.597820 0.000000
0.346107 0.597820 0.000000
0.377571 0.597820 0.000000
0.409035 0.597820 0.000000
0.440499 0.597820 0.000000
0.471964 0.597820 0.000000
0.503428 0.597820 0.000000
0.534892 0.597820 0.000000
0.566356 0.597820 0.000000
0.597820 0.597820 0.000000
0.630273 0.598760 0.000000
0.662595 0.599490 0.000000
0.694751 0.600012 0.000000
0.726710 0.600325 0.000000
0.758437 0.600430 0.000000
0.789902 0.600325 0.000000
0.821069 0.600012 0.000000
0.851907 0.599490 0.000000
0.882383 0.598760 0.000000
0.912463 0.597820 0.000000
0.942114 0.596672 0.000000
0.971304 0.595316 0.000000
1.000000 0.593750 0.000000
0.000000 0.630273 0.000000
0.031514 0.630273 0.000000
0.063027 0.630273 0.000000
0.094541 0.630273 0.000000
0.126055 0.630273 0.000000
0.157568 0.630273 0.000000
0.189082 0.630273 0.000000
0.220596 0.630273 0.000000
0.252109 0.630273 0.000000
0.283623 0.630273 0.000000
0.315137 0.630273 0.000000
0.346650 0.630273 0.000000
0.378164 0.630273 0.000000
0.409678 0.630273 0.000000
0.441191 0.630273 0.000000
0.472705 0.630273 0.000000
0.504219 0.630273 0.000000
0.535732 0.630273 0.000000
0.567246 0.630273 0.000000
0.598760 0.630273 0.000000
0.630273 0.630273 0.000000
0.662595 0.631042 0.000000
0.694751 0.631592 0.000000
0.726710 0.631921 0.000000
0.758437 0.632031 0.000000
0.789902 0.631921 0.000000
0.821069 0.631592 0.000000
0.851907 0.631042 0.000000
0.882383 0.630273 0.000000
0.912463 0.629285 0.000000
0.942114 0.628076 0.000000
0.971304 0.626648 0.000000
1.000000 0.625000 0.000000
0.000000 0.662595 0.000000
0.031552 0.662595 0.000000
0.063104 0.662595 0.000000
0.094656 0.662595 0.000000
0.126208 0.662595 0.000000
0.157761 0.662595 0.000000
0.189313 0.662595 0.000000
0.220865 0.662595 0.000000
0.252417 0.662595 0.000000
0.283969 0.662595 0.000000
0.315521 0.662595 0.000000
0.347073 0.662595 0.000000
0.378625 0.662595 0.000000
0.410178 0.662595 0.000000
0.441730 0.662595 0.000000
0.473282 0.662595 0.000000
0.504834 0.662595 0.000000
0.536386 0.662595 0.000000
0.567938 0.662595 0.000000
0.599490 0.662595 0.000000
0.631042 0.662595 0.000000
0.662595 0.662595 0.000000
0.694751 0.663171 0.000000
0.726710 0.663517 0.000000
0.758437 0.663633 0.000000
0.789902 0.663517 0.000000
0.821069 0.663171 0.000000
0.851907 0.662595 0.000000
0.882383 0.661787 0.000000
0.912463 0.660749 0.000000
0.942114 0.659480 0.000000
0.971304 0.657980 0.000000
1.000000 0.656250 0.000000
0.000000 0.694751 0.000000
0.031580 0.694751 0.000000
0.063159 0.694751 0.000000
0.094739 0.694751 0.000000
0.126318 0.694751 0.000000
0.157898 0.694751 0.000000
0.189478 0.694751 0.000000
0.221057 0.694751 0.000000
0.252637 0.694751 0.000000
0.284216 0.694751 0.000000
0.315796 0.694751 0.000000
0.347375 0.694751 0.000000
0.378955 0.694751 0.000000
0.410535 0.694751 0.000000
0.442114 0.694751 0.000000
0.473694 0.694751 0.000000
0.505273 0.694751 0.000000
0.536853 0.694751 0.000000
0.568433 0.694751 0.000000
0.600012 0.694751 0.000000
0.631592 0.694751 0.000000
0.663171 0.694751 0.000000
0.694751 0.694751 0.000000
0.726710 0.695114 0.000000
0.758437 0.695234 0.000000
0.789902 0.695114 0.000000
0.821069 0.694751 0.000000
0.851907 0.694147 0.000000
0.882383 0.693301 0.000000
0.912463 0.692213 0.000000
0.942114 0.690884 0.000000
0.971304 0.689313 0.000000
1.000000 0.687500 0.000000
0.000000 0.726710 0.000000
0.031596 0.726710 0.000000
0.063192 0.726710 0.000000
0.094788 0.726710 0.000000
0.126384 0.726710 0.000000
0.157980 0.726710 0.000000
0.189576 0.726710 0.000000
0.221172 0.726710 0.000000
0.252769 0.726710 0.000000
0.284365 0.726710 0.000000
0.315961 0.726710 0.000000
0.347557 0.726710 0.000000
0.379153 0.726710 0.000000
0.410749 0.726710 0.000000
0.442345 0.726710 0.000000
0.473941 0.726710 0.000000
0.505537 0.726710 0.000000
0.537133 0.726710 0.000000
0.568729 0.726710 0.000000
0.600325 0.726710 0.000000
0.631921 0.726710 0.000000
0.663517 0.726710 0.000000
0.695114 0.726710 0.000000
0.726710 0.726710 0.000000
0.758437 0.726836 0.000000
0.789902 0.726710 0.000000
0.821069 0.726331 0.000000
0.851907 0.725699 0.000000
0.882383 0.724814 0.000000
0.912463 0.723677 0.000000
0.942114 0.722288 0.000000
0.971304 0.720645 0.000000
1.000000 0.718750 0.000000
0.000000 0.758437 0.000000
0.031602 0.758437 0.000000
0.063203 0.758437 0.000000
0.094805 0.758437 0.000000
0.126406 0.758437 0.000000
0.158008 0.758437 0.000000
0.189609 0.758437 0.000000
0.221211 0.758437 0.000000
0.252813 0.758437 0.000000
0.284414 0.758437 0.000000
0.316016 0.758437 0.000000
0.347617 0.758437 0.000000
0.379219 0.758437 0.000000
0.410820 0.758437 0.000000
0.442422 0.758437 0.000000
0.474023 0.758437 0.000000
0.505625 0.758437 0.000000
0.537227 0.758437 0.000000
0.568828 0.758437 0.000000
0.600430 0.758437 0.000000
0.632031 0.758437 0.000000
0.663633 0.758437 0.000000
0.695234 0.758437 0.000000
0.726836 0.758437 0.000000
0.758437 0.758437 0.000000
0.789902 0.758306 0.000000
0.821069 0.757910 0.000000
0.851907 0.757251 0.000000
0.882383 0.756328 0.000000
0.912463 0.755142 0.000000
0.942114 0.753691 0.000000
0.971304 0.751978 0.000000
1.000000 0.750000 0.000000
0.000000 0.789902 0.000000
0.031596 0.789902 0.000000
0.063192 0.789902 0.000000
0.094788 0.789902 0.000000
0.126384 0.789902 0.000000
0.157980 0.789902 0.000000
0.189576 0.789902 0.000000
0.221172 0.789902 0.000000
0.252769 0.789902 0.000000
0.284365 0.789902 0.000000
0.315961 0.789902 0.000000
0.347557 0.789902 0.000000
0.379153 0.789902 0.000000
0.410749 0.789902 0.000000
0.442345 0.789902 0.000000
0.473941 0.789902 0.000000
0.505537 0.789902 0.000000
0.537133 0.789902 0.000000
0.568729 0.789902 0.000000
0.600325 0.789902 0.000000
0.631921 0.789902 0.000000
0.663517 0.789902 0.000000
0.695114 0.789902 0.000000
0.726710 0.789902 0.000000
0.758306 0.789902 0.000000
0.789902 0.789902 0.000000
0.821069 0.789490 0.000000
0.851907 0.788803 0.000000
0.882383 0.787842 0.000000
0.912463 0.786606 0.000000
0.942114 0.785095 0.000000
0.971304 0.783310 0.000000
1.000000 0.781250 0.000000
0.000000 0.821069 0.000000
0.031580 0.821069 0.000000
0.063159 0.821069 0.000000
0.094739 0.821069 0.000000
0.126318 0.821069 0.000000
0.157898 0.821069 0.000000
0.189478 0.821069 0.000000
0.221057 0.821069 0.000000
0.252637 0.821069 0.000000
0.284216 0.821069 0.000000
0.315796 0.821069 0.000000
0.347375 0.821069 0.000000
0.378955 0.821069 0.000000
0.410535 0.821069 0.000000
0.442114 0.821069 0.000000
0.473694 0.821069 0.000000
0.505273 0.821069 0.000000
0.536853 0.821069 0.000000
