assets/LUTs/skintone_bronze_maximum_33.cube
TITLE "SkinTone Bronze Maximum"
# Maximum bronze: near-total hue convergence to red-orange, big saturation and density. Bodybuilder-stage tan.
# Skin-tone selective LUT. Apply to display-referred Rec.709/sRGB (SDR) footage.
# Generated 2026-07-10 with Claude Code.
LUT_3D_SIZE 9
DOMAIN_MIN 0.0 0.0 0.0
DOMAIN_MAX 1.0 1.0 1.0
0.000000 0.000000 0.000000
0.114336 0.000000 0.000000
0.237813 0.000000 0.000000
0.367383 0.000000 0.000000
0.500000 0.000000 0.000000
0.632617 0.000000 0.000000
0.762188 0.000000 0.000000
0.885664 0.000000 0.000000
1.000000 0.000000 0.000000
0.000000 0.114336 0.000000
0.114336 0.114336 0.000000
0.237813 0.118906 0.000000
0.367383 0.122461 0.000000
0.500000 0.125000 0.000000
0.632617 0.126523 0.000000
0.762188 0.127031 0.000000
0.885664 0.126523 0.000000
1.000000 0.125000 0.000000
0.000000 0.237813 0.000000
0.118906 0.237813 0.000000
0.237813 0.237813 0.000000
0.367383 0.244922 0.000000
0.500000 0.250000 0.000000
0.632617 0.253047 0.000000
0.762188 0.254063 0.000000
0.885664 0.253047 0.000000
1.000000 0.250000 0.000000
0.000000 0.367383 0.000000
0.122461 0.367383 0.000000
0.244922 0.367383 0.000000
0.367383 0.367383 0.000000
0.500000 0.375000 0.000000
0.632617 0.379570 0.000000
0.762188 0.381094 0.000000
0.885664 0.379570 0.000000
1.000000 0.375000 0.000000
0.000000 0.500000 0.000000
0.125000 0.500000 0.000000
0.250000 0.500000 0.000000
0.375000 0.500000 0.000000
0.500000 0.500000 0.000000
0.632617 0.506094 0.000000
0.762188 0.508125 0.000000
0.885664 0.506094 0.000000
1.000000 0.500000 0.000000
0.000000 0.632617 0.000000
0.126523 0.632617 0.000000
0.253047 0.632617 0.000000
0.379570 0.632617 0.000000
0.506094 0.632617 0.000000
0.632617 0.632617 0.000000
0.762188 0.635156 0.000000
0.885664 0.632617 0.000000
1.000000 0.625000 0.000000
0.000000 0.762188 0.000000
0.127031 0.762188 0.000000
0.254063 0.762188 0.000000
0.381094 0.762188 0.000000
0.508125 0.762188 0.000000
0.635156 0.762188 0.000000
0.762188 0.762188 0.000000
0.885664 0.759141 0.000000
1.000000 0.750000 0.000000
0.000000 0.885664 0.000000
0.126523 0.885664 0.000000
0.253047 0.885664 0.000000
0.379570 0.885664 0.000000
0.506094 0.885664 0.000000
0.632617 0.885664 0.000000
0.759141 0.885664 0.000000
0.885664 0.885664 0.000000
1.000000 0.875000 0.000000
0.000000 1.000000 0.000000
0.125000 1.000000 0.000000
0.250000 1.000000 0.000000
0.375000 1.000000 0.000000
0.500000 1.000000 0.000000
0.625000 1.000000 0.000000
0.750000 1.000000 0.000000
0.875000 1.000000 0.000000
1.000000 1.000000 0.000000
0.000000 0.000000 0.114336
0.114336 0.000000 0.114336
0.237813 0.000000 0.118906
0.367383 0.000000 0.122461
0.500000 0.000000 0.125000
0.632617 0.000000 0.126523
0.762188 0.000000 0.127031
0.885664 0.000000 0.126523
1.000000 0.000000 0.125000
0.000000 0.114336 0.114336
0.114336 0.114336 0.114336
0.132749 0.069280 0.049116
0.243011 0.098484 0.053229
0.408045 0.130042 0.074555
0.583158 0.145338 0.096398
0.741243 0.147479 0.110534
0.879810 0.142566 0.118276
1.000000 0.125000 0.125000
0.000000 0.237813 0.118906
0.118906 0.237813 0.118906
0.131422 0.083863 0.048328
0.237313 0.112441 0.050417
0.403278 0.176031 0.072120
0.580414 0.224798 0.094783
0.740049 0.248715 0.109607
0.879473 0.256168 0.117803
1.000000 0.250000 0.125000
0.000000 0.367383 0.122461
0.122461 0.367383 0.122461
0.244922 0.367383 0.122461
0.241278 0.134341 0.052370
0.403278 0.221667 0.072120
0.580414 0.303172 0.094783
0.740049 0.348765 0.109607
0.879473 0.368838 0.117803
1.000000 0.375000 0.125000
0.000000 0.500000 0.125000
0.125000 0.500000 0.125000
0.250000 0.500000 0.125000
0.404376 0.484562 0.116091
0.406602 0.271416 0.073816
0.580414 0.379313 0.094783
0.740049 0.448802 0.109607
0.879473 0.481508 0.117803
1.000000 0.500000 0.125000
0.000000 0.632617 0.126523
0.126523 0.632617 0.126523
0.253047 0.632617 0.126523
0.379570 0.632617 0.126523
0.568221 0.613644 0.114738
0.582329 0.441110 0.095910
0.740049 0.537347 0.109607
0.879473 0.591451 0.117803
1.000000 0.625000 0.125000
0.000000 0.762188 0.127031
0.127031 0.762188 0.127031
0.254063 0.762188 0.127031
0.381094 0.762188 0.127031
0.514398 0.761336 0.126352
0.703800 0.751059 0.118207
0.740883 0.622278 0.110254
0.879473 0.692835 0.117803
1.000000 0.750000 0.125000
0.000000 0.885664 0.126523
0.126523 0.885664 0.126523
0.253047 0.885664 0.126523
0.379570 0.885664 0.126523
0.506094 0.885664 0.126523
0.648432 0.884756 0.125239
0.815517 0.881962 0.121299
0.879708 0.798018 0.118133
1.000000 0.875000 0.125000
0.000000 1.000000 0.125000
0.125000 1.000000 0.125000
0.250000 1.000000 0.125000
0.375000 1.000000 0.125000
0.500000 1.000000 0.125000
0.625000 1.000000 0.125000
0.750000 1.000000 0.125000
0.875000 1.000000 0.125000
1.000000 1.000000 0.125000
0.000000 0.000000 0.237813
0.118906 0.000000 0.237813
0.237813 0.000000 0.237813
0.367383 0.000000 0.244922
0.500000 0.000000 0.250000
0.632617 0.000000 0.253047
0.762188 0.000000 0.254062
0.885664 0.000000 0.253047
1.000000 0.000000 0.250000
0.000000 0.118906 0.237813
0.118906 0.118906 0.237813
0.237813 0.118906 0.237813
0.367383 0.122461 0.244922
0.500000 0.125000 0.250000
0.631293 0.125692 0.249680
0.758916 0.124423 0.241727
0.883972 0.124132 0.239886
1.000000 0.125000 0.250000
0.000000 0.237813 0.237813
0.118906 0.237813 0.237813
0.237813 0.237813 0.237813
0.241905 0.159496 0.133315
0.372321 0.194311 0.137756
0.519794 0.233879 0.143044
0.679637 0.275435 0.148867
0.849473 0.303847 0.168300
1.000000 0.250000 0.250000
0.000000 0.367383 0.244922
0.122461 0.367383 0.244922
0.244922 0.367383 0.244922
0.240161 0.178181 0.131871
0.366027 0.209688 0.132685
0.513885 0.252451 0.137721
0.675101 0.298693 0.143426
0.847412 0.348344 0.163614
1.000000 0.375000 0.250000
0.000000 0.500000 0.250000
0.125000 0.500000 0.250000
0.250000 0.500000 0.250000
0.375000 0.500000 0.250000
0.370412 0.236367 0.136213
0.513885 0.271259 0.137721
0.675101 0.319869 0.143426
0.847412 0.389163 0.163614
1.000000 0.500000 0.250000
0.000000 0.632617 0.253047
0.126523 0.632617 0.253047
0.253047 0.632617 0.253047
0.379570 0.632617 0.253047
0.550862 0.613838 0.233669
0.518005 0.302469 0.141428
0.675101 0.341046 0.143426
0.847412 0.429981 0.163614
1.000000 0.625000 0.250000
0.000000 0.762188 0.254063
0.127031 0.762188 0.254063
0.254063 0.762188 0.254063
0.381094 0.762188 0.254063
0.508125 0.762188 0.254063
0.730360 0.665255 0.212124
0.678266 0.377651 0.147219
0.847412 0.470799 0.163614
1.000000 0.750000 0.250000
0.000000 0.885664 0.253047
0.126523 0.885664 0.253047
0.253047 0.885664 0.253047
0.379570 0.885664 0.253047
0.506094 0.885664 0.253047
0.654276 0.884192 0.249509
0.866425 0.728826 0.207418
0.848851 0.526702 0.166885
1.000000 0.875000 0.250000
0.000000 1.000000 0.250000
0.125000 1.000000 0.250000
0.250000 1.000000 0.250000
0.375000 1.000000 0.250000
0.500000 1.000000 0.250000
0.625000 1.000000 0.250000
0.750000 1.000000 0.250000
0.875000 1.000000 0.250000
1.000000 1.000000 0.250000
0.000000 0.000000 0.367383
0.122461 0.000000 0.367383
0.244922 0.000000 0.367383
0.367383 0.000000 0.367383
0.500000 0.000000 0.375000
0.632617 0.000000 0.379570
0.762188 0.000000 0.381094
0.885664 0.000000 0.379570
1.000000 0.000000 0.375000
0.000000 0.122461 0.367383
0.122461 0.122461 0.367383
0.244922 0.122461 0.367383
0.367383 0.122461 0.367383
0.500000 0.125000 0.375000
0.632617 0.126523 0.379570
0.762188 0.127031 0.381094
0.885664 0.126523 0.379570
1.000000 0.125000 0.375000
0.000000 0.244922 0.367383
0.122461 0.244922 0.367383
0.244922 0.244922 0.367383
0.367383 0.244922 0.367383
0.500000 0.250000 0.375000
0.632617 0.253047 0.379570
0.759961 0.251072 0.372536
0.880007 0.239492 0.334692
1.000000 0.250000 0.375000
0.000000 0.367383 0.367383
0.122461 0.367383 0.367383
0.244922 0.367383 0.367383
0.367383 0.367383 0.367383
0.372321 0.260398 0.224839
0.519794 0.312773 0.247003
0.678763 0.354240 0.251138
0.843511 0.393996 0.258041
1.000000 0.375000 0.375000
0.000000 0.500000 0.375000
0.125000 0.500000 0.375000
0.250000 0.500000 0.375000
0.375000 0.500000 0.375000
0.370412 0.286051 0.223019
0.513885 0.330716 0.240498
0.674182 0.375477 0.244391
0.841117 0.422941 0.251362
1.000000 0.500000 0.375000
0.000000 0.632617 0.379570
0.126523 0.632617 0.379570
0.253047 0.632617 0.379570
0.379570 0.632617 0.379570
0.506094 0.632617 0.379570
0.518005 0.361766 0.245029
0.674182 0.396967 0.244391
0.841117 0.449677 0.251362
1.000000 0.625000 0.375000
0.000000 0.762188 0.381094
0.127031 0.762188 0.381094
0.254063 0.762188 0.381094
0.381094 0.762188 0.381094
0.508125 0.762188 0.381094
0.684270 0.748786 0.359315
0.677379 0.432249 0.249095
0.841117 0.476414 0.251362
1.000000 0.750000 0.375000
0.000000 0.885664 0.379570
0.126523 0.885664 0.379570
0.253047 0.885664 0.379570
0.379570 0.885664 0.379570
0.506094 0.885664 0.379570
0.632617 0.885664 0.379570
0.869715 0.807256 0.332698
0.842789 0.519333 0.256023
1.000000 0.875000 0.375000
0.000000 1.000000 0.375000
0.125000 1.000000 0.375000
0.250000 1.000000 0.375000
0.375000 1.000000 0.375000
0.500000 1.000000 0.375000
0.625000 1.000000 0.375000
0.750000 1.000000 0.375000
0.875000 1.000000 0.375000
1.000000 1.000000 0.375000
0.000000 0.000000 0.500000
0.125000 0.000000 0.500000
0.250000 0.000000 0.500000
0.375000 0.000000 0.500000
0.500000 0.000000 0.500000
0.632617 0.000000 0.506094
0.762188 0.000000 0.508125
0.885664 0.000000 0.506094
1.000000 0.000000 0.500000
0.000000 0.125000 0.500000
0.125000 0.125000 0.500000
0.250000 0.125000 0.500000
0.375000 0.125000 0.500000
0.500000 0.125000 0.500000
0.632617 0.126523 0.506094
0.762188 0.127031 0.508125
0.885664 0.126523 0.506094
1.000000 0.125000 0.500000
0.000000 0.250000 0.500000
0.125000 0.250000 0.500000
0.250000 0.250000 0.500000
0.375000 0.250000 0.500000
0.500000 0.250000 0.500000
0.632617 0.253047 0.506094
0.762188 0.254063 0.508125
0.885664 0.253047 0.506094
1.000000 0.250000 0.500000
0.000000 0.375000 0.500000
0.125000 0.375000 0.500000
0.250000 0.375000 0.500000
0.375000 0.375000 0.500000
0.500000 0.375000 0.500000
0.632617 0.379570 0.506094
0.762188 0.381094 0.508125
0.884559 0.376289 0.497756
1.000000 0.375000 0.500000
0.000000 0.500000 0.500000
0.125000 0.500000 0.500000
0.250000 0.500000 0.500000
0.375000 0.500000 0.500000
0.500000 0.500000 0.500000
0.519794 0.362887 0.313037
0.678763 0.447532 0.374070
0.843511 0.486515 0.378543
1.000000 0.500000 0.500000
0.000000 0.632617 0.506094
0.126523 0.632617 0.506094
0.253047 0.632617 0.506094
0.379570 0.632617 0.506094
0.506094 0.632617 0.506094
0.518005 0.398929 0.309960
0.674182 0.468407 0.367055
0.841117 0.515239 0.371522
1.000000 0.625000 0.500000
0.000000 0.762188 0.508125
0.127031 0.762188 0.508125
0.254063 0.762188 0.508125
0.381094 0.762188 0.508125
0.508125 0.762188 0.508125
0.635156 0.762188 0.508125
0.677379 0.502563 0.371946
0.841117 0.543624 0.371522
1.000000 0.750000 0.500000
0.000000 0.885664 0.506094
0.126523 0.885664 0.506094
0.253047 0.885664 0.506094
0.379570 0.885664 0.506094
0.506094 0.885664 0.506094
0.632617 0.885664 0.506094
0.811457 0.879064 0.485622
0.842789 0.585703 0.376422
1.000000 0.875000 0.500000
0.000000 1.000000 0.500000
0.125000 1.000000 0.500000
0.250000 1.000000 0.500000
0.375000 1.000000 0.500000
0.500000 1.000000 0.500000
0.625000 1.000000 0.500000
0.750000 1.000000 0.500000
0.875000 1.000000 0.500000
1.000000 1.000000 0.500000
0.000000 0.000000 0.632617
0.126523 0.000000 0.632617
0.253047 0.000000 0.632617
0.379570 0.000000 0.632617
0.506094 0.000000 0.632617
0.632617 0.000000 0.632617
0.762188 0.000000 0.635156
0.885664 0.000000 0.632617
1.000000 0.000000 0.625000
0.000000 0.126523 0.632617
0.126523 0.126523 0.632617
0.253047 0.126523 0.632617
0.379570 0.126523 0.632617
0.506094 0.126523 0.632617
0.632617 0.126523 0.632617
0.762188 0.127031 0.635156
0.885664 0.126523 0.632617
1.000000 0.125000 0.625000
0.000000 0.253047 0.632617
0.126523 0.253047 0.632617
0.253047 0.253047 0.632617
0.379570 0.253047 0.632617
0.506094 0.253047 0.632617
0.632617 0.253047 0.632617
0.762188 0.254063 0.635156
0.885664 0.253047 0.632617
1.000000 0.250000 0.625000
0.000000 0.379570 0.632617
0.126523 0.379570 0.632617
0.253047 0.379570 0.632617
0.379570 0.379570 0.632617
0.506094 0.379570 0.632617
0.632617 0.379570 0.632617
0.762188 0.381094 0.635156
0.885664 0.379570 0.632617
1.000000 0.375000 0.625000
0.000000 0.506094 0.632617
0.126523 0.506094 0.632617
0.253047 0.506094 0.632617
0.379570 0.506094 0.632617
0.506094 0.506094 0.632617
0.632617 0.506094 0.632617
0.762188 0.508125 0.635156
0.885664 0.506094 0.632617
1.000000 0.500000 0.625000
0.000000 0.632617 0.632617
0.126523 0.632617 0.632617
0.253047 0.632617 0.632617
0.379570 0.632617 0.632617
0.506094 0.632617 0.632617
0.632617 0.632617 0.632617
0.681109 0.477968 0.415907
0.843511 0.581973 0.502871
1.000000 0.625000 0.625000
0.000000 0.762188 0.635156
0.127031 0.762188 0.635156
0.254063 0.762188 0.635156
0.381094 0.762188 0.635156
0.508125 0.762188 0.635156
0.635156 0.762188 0.635156
0.679762 0.530667 0.411377
0.841117 0.613327 0.497922
1.000000 0.750000 0.625000
0.000000 0.885664 0.632617
0.126523 0.885664 0.632617
0.253047 0.885664 0.632617
0.379570 0.885664 0.632617
0.506094 0.885664 0.632617
0.632617 0.885664 0.632617
0.759141 0.885664 0.632617
0.842789 0.654568 0.501346
1.000000 0.875000 0.625000
0.000000 1.000000 0.625000
0.125000 1.000000 0.625000
0.250000 1.000000 0.625000
0.375000 1.000000 0.625000
0.500000 1.000000 0.625000
0.625000 1.000000 0.625000
0.750000 1.000000 0.625000
0.875000 1.000000 0.625000
1.000000 1.000000 0.625000
0.000000 0.000000 0.762188
0.127031 0.000000 0.762188
0.254062 0.000000 0.762188
0.381094 0.000000 0.762188
0.508125 0.000000 0.762188
0.635156 0.000000 0.762188
0.762188 0.000000 0.762188
0.885664 0.000000 0.759141
1.000000 0.000000 0.750000
0.000000 0.127031 0.762188
0.127031 0.127031 0.762188
0.254063 0.127031 0.762188
0.381094 0.127031 0.762188
0.508125 0.127031 0.762188
0.635156 0.127031 0.762188
0.762188 0.127031 0.762188
0.885664 0.126523 0.759141
1.000000 0.125000 0.750000
0.000000 0.254062 0.762188
0.127031 0.254063 0.762188
0.254063 0.254063 0.762188
0.381094 0.254063 0.762188
0.508125 0.254063 0.762188
0.635156 0.254063 0.762188
0.762188 0.254063 0.762188
0.885664 0.253047 0.759141
1.000000 0.250000 0.750000
0.000000 0.381094 0.762188
0.127031 0.381094 0.762188
0.254063 0.381094 0.762188
0.381094 0.381094 0.762188
0.508125 0.381094 0.762188
0.635156 0.381094 0.762188
0.762188 0.381094 0.762188
0.885664 0.379570 0.759141
1.000000 0.375000 0.750000
0.000000 0.508125 0.762188
0.127031 0.508125 0.762188
0.254063 0.508125 0.762188
0.381094 0.508125 0.762188
0.508125 0.508125 0.762188
0.635156 0.508125 0.762188
0.762188 0.508125 0.762188
0.885664 0.506094 0.759141
1.000000 0.500000 0.750000
0.000000 0.635156 0.762188
0.127031 0.635156 0.762188
0.254063 0.635156 0.762188
0.381094 0.635156 0.762188
0.508125 0.635156 0.762188
0.635156 0.635156 0.762188
0.762188 0.635156 0.762188
0.885664 0.632617 0.759141
1.000000 0.625000 0.750000
0.000000 0.762188 0.762188
0.127031 0.762188 0.762188
0.254063 0.762188 0.762188
0.381094 0.762188 0.762188
0.508125 0.762188 0.762188
0.635156 0.762188 0.762188
0.762188 0.762188 0.762188
0.851779 0.637059 0.587938
1.000000 0.750000 0.750000
0.000000 0.885664 0.759141
0.126523 0.885664 0.759141
0.253047 0.885664 0.759141
0.379570 0.885664 0.759141
0.506094 0.885664 0.759141
0.632617 0.885664 0.759141
0.759141 0.885664 0.759141
0.851196 0.732485 0.583572
1.000000 0.875000 0.750000
0.000000 1.000000 0.750000
0.125000 1.000000 0.750000
0.250000 1.000000 0.750000
0.375000 1.000000 0.750000
0.500000 1.000000 0.750000
0.625000 1.000000 0.750000
0.750000 1.000000 0.750000
0.875000 1.000000 0.750000
1.000000 1.000000 0.750000
0.000000 0.000000 0.885664
0.126523 0.000000 0.885664
0.253047 0.000000 0.885664
0.379570 0.000000 0.885664
0.506094 0.000000 0.885664
0.632617 0.000000 0.885664
0.759141 0.000000 0.885664
0.885664 0.000000 0.885664
1.000000 0.000000 0.875000
0.000000 0.126523 0.885664
0.126523 0.126523 0.885664
0.253047 0.126523 0.885664
0.379570 0.126523 0.885664
0.506094 0.126523 0.885664
0.632617 0.126523 0.885664
0.759141 0.126523 0.885664
0.885664 0.126523 0.885664
1.000000 0.125000 0.875000
0.000000 0.253047 0.885664
0.126523 0.253047 0.885664
0.253047 0.253047 0.885664
0.379570 0.253047 0.885664
0.506094 0.253047 0.885664
0.632617 0.253047 0.885664
0.759141 0.253047 0.885664
0.885664 0.253047 0.885664
1.000000 0.250000 0.875000
0.000000 0.379570 0.885664
0.126523 0.379570 0.885664
0.253047 0.379570 0.885664
0.379570 0.379570 0.885664
0.506094 0.379570 0.885664
0.632617 0.379570 0.885664
0.759141 0.379570 0.885664
0.885664 0.379570 0.885664
1.000000 0.375000 0.875000
0.000000 0.506094 0.885664
0.126523 0.506094 0.885664
0.253047 0.506094 0.885664
0.379570 0.506094 0.885664
0.506094 0.506094 0.885664
0.632617 0.506094 0.885664
0.759141 0.506094 0.885664
0.885664 0.506094 0.885664
1.000000 0.500000 0.875000
0.000000 0.632617 0.885664
0.126523 0.632617 0.885664
0.253047 0.632617 0.885664
0.379570 0.632617 0.885664
0.506094 0.632617 0.885664
0.632617 0.632617 0.885664
0.759141 0.632617 0.885664
0.885664 0.632617 0.885664
1.000000 0.625000 0.875000
0.000000 0.759141 0.885664
0.126523 0.759141 0.885664
0.253047 0.759141 0.885664
0.379570 0.759141 0.885664
0.506094 0.759141 0.885664
0.632617 0.759141 0.885664
0.759141 0.759141 0.885664
0.885664 0.759141 0.885664
1.000000 0.750000 0.875000
0.000000 0.885664 0.885664
0.126523 0.885664 0.885664
0.253047 0.885664 0.885664
0.379570 0.885664 0.885664
0.506094 0.885664 0.885664
0.632617 0.885664 0.885664
0.759141 0.885664 0.885664
0.885664 0.885664 0.885664
1.000000 0.875000 0.875000
0.000000 1.000000 0.875000
0.125000 1.000000 0.875000
0.250000 1.000000 0.875000
0.375000 1.000000 0.875000
0.500000 1.000000 0.875000
0.625000 1.000000 0.875000
0.750000 1.000000 0.875000
0.875000 1.000000 0.875000
1.000000 1.000000 0.875000
0.000000 0.000000 1.000000
0.125000 0.000000 1.000000
0.250000 0.000000 1.000000
0.375000 0.000000 1.000000
0.500000 0.000000 1.000000
0.625000 0.000000 1.000000
0.750000 0.000000 1.000000
0.875000 0.000000 1.000000
1.000000 0.000000 1.000000
0.000000 0.125000 1.000000
0.125000 0.125000 1.000000
0.250000 0.125000 1.000000
0.375000 0.125000 1.000000
0.500000 0.125000 1.000000
0.625000 0.125000 1.000000
0.750000 0.125000 1.000000
0.875000 0.125000 1.000000
1.000000 0.125000 1.000000
0.000000 0.250000 1.000000
0.125000 0.250000 1.000000
0.250000 0.250000 1.000000
0.375000 0.250000 1.000000
0.500000 0.250000 1.000000
0.625000 0.250000 1.000000
0.750000 0.250000 1.000000
0.875000 0.250000 1.000000
1.000000 0.250000 1.000000
0.000000 0.375000 1.000000
0.125000 0.375000 1.000000
0.250000 0.375000 1.000000
0.375000 0.375000 1.000000
0.500000 0.375000 1.000000
0.625000 0.375000 1.000000
0.750000 0.375000 1.000000
0.875000 0.375000 1.000000
1.000000 0.375000 1.000000
0.000000 0.500000 1.000000
0.125000 0.500000 1.000000
0.250000 0.500000 1.000000
0.375000 0.500000 1.000000
0.500000 0.500000 1.000000
0.625000 0.500000 1.000000
0.750000 0.500000 1.000000
0.875000 0.500000 1.000000
1.000000 0.500000 1.000000
0.000000 0.625000 1.000000
0.125000 0.625000 1.000000
0.250000 0.625000 1.000000
0.375000 0.625000 1.000000
0.500000 0.625000 1.000000
0.625000 0.625000 1.000000
0.750000 0.625000 1.000000
0.875000 0.625000 1.000000
1.000000 0.625000 1.000000
0.000000 0.750000 1.000000
0.125000 0.750000 1.000000
0.250000 0.750000 1.000000
0.375000 0.750000 1.000000
0.500000 0.750000 1.000000
0.625000 0.750000 1.000000
0.750000 0.750000 1.000000
0.875000 0.750000 1.000000
1.000000 0.750000 1.000000
0.000000 0.875000 1.000000
0.125000 0.875000 1.000000
0.250000 0.875000 1.000000
0.375000 0.875000 1.000000
0.500000 0.875000 1.000000
0.625000 0.875000 1.000000
0.750000 0.875000 1.000000
0.875000 0.875000 1.000000
1.000000 0.875000 1.000000
0.000000 1.000000 1.000000
0.125000 1.000000 1.000000
0.250000 1.000000 1.000000
0.375000 1.000000 1.000000
0.500000 1.000000 1.000000
0.625000 1.000000 1.000000
0.750000 1.000000 1.000000
0.875000 1.000000 1.000000
1.000000 1.000000 1.000000
