assets/LUTs/skintone_morena_deep_restore_33.cube
TITLE "Skintone Morena Deep Restore"
# Restore dark morena skin from lifted/yellowed camera footage
# Skin-weighted: warm saturated band darkens hard, bedding/cool hues hold
# Target: Rec.709 SDR. Run at 100%; stack bronze_oiled after if more gloss wanted
LUT_3D_SIZE 5
DOMAIN_MIN 0.0 0.0 0.0
DOMAIN_MAX 1.0 1.0 1.0
0.000000 0.000000 0.000000
0.216439 0.030087 0.025973
0.442336 0.061488 0.053080
0.679843 0.094504 0.081581
0.960000 0.187008 0.169943
0.027606 0.230047 0.027606
0.167391 0.085952 0.020087
0.306969 0.151740 0.036836
0.499385 0.206413 0.059926
0.960000 0.481595 0.305731
0.057556 0.479632 0.057556
0.437429 0.478296 0.057395
0.307907 0.158103 0.036949
0.476468 0.251903 0.057176
0.960000 0.620178 0.368634
0.088460 0.737165 0.088460
0.425070 0.737165 0.088460
0.588886 0.433419 0.070666
0.473235 0.242995 0.056788
0.960000 0.641250 0.363995
0.115200 0.960000 0.115200
0.400723 0.960000 0.115200
0.878166 0.960000 0.117162
0.960000 0.688681 0.319966
0.960000 0.632291 0.367256
0.027606 0.027606 0.230047
0.230047 0.027606 0.230047
0.479632 0.057556 0.268594
0.737165 0.088460 0.304695
0.960000 0.115200 0.326400
0.027606 0.230047 0.230047
0.230047 0.230047 0.230047
0.442336 0.208184 0.203014
0.679843 0.200007 0.189413
0.960000 0.247126 0.231388
0.057556 0.479632 0.268594
0.239816 0.479632 0.239816
0.307907 0.190624 0.095771
0.471792 0.233215 0.056615
0.960000 0.548188 0.342282
0.088460 0.737165 0.304695
0.245722 0.737165 0.245722
0.687388 0.735111 0.243596
0.473235 0.242995 0.056788
0.960000 0.640884 0.364168
0.115200 0.960000 0.326400
0.240000 0.960000 0.240000
0.613605 0.960000 0.240000
0.960000 0.749041 0.256809
0.960000 0.632291 0.367256
0.057556 0.057556 0.479632
0.268594 0.057556 0.479632
0.479632 0.057556 0.479632
0.737165 0.088460 0.520930
0.960000 0.115200 0.537600
0.057556 0.268594 0.479632
0.239816 0.239816 0.479632
0.479632 0.239816 0.479632
0.737165 0.245722 0.491444
0.960000 0.240000 0.480000
0.057556 0.479632 0.479632
0.239816 0.479632 0.479632
0.479632 0.479632 0.479632
0.684089 0.444029 0.438729
0.960000 0.484751 0.474259
0.088460 0.737165 0.520930
0.245722 0.737165 0.491444
0.491444 0.737165 0.491444
0.492785 0.370191 0.271043
0.960000 0.693551 0.496318
0.115200 0.960000 0.537600
0.240000 0.960000 0.480000
0.480000 0.960000 0.480000
0.913367 0.960000 0.479706
0.960000 0.703433 0.495934
0.088460 0.088460 0.737165
0.304695 0.088460 0.737165
0.520930 0.088460 0.737165
0.737165 0.088460 0.737165
0.960000 0.115200 0.748800
0.088460 0.304695 0.737165
0.245722 0.245722 0.737165
0.491444 0.245722 0.737165
0.737165 0.245722 0.737165
0.960000 0.240000 0.720000
0.088460 0.520930 0.737165
0.245722 0.491444 0.737165
0.491444 0.491444 0.737165
0.737165 0.491444 0.737165
0.960000 0.480000 0.720000
0.088460 0.737165 0.737165
0.245722 0.737165 0.737165
0.491444 0.737165 0.737165
0.737165 0.737165 0.737165
0.960000 0.730424 0.725355
0.115200 0.960000 0.748800
0.240000 0.960000 0.720000
0.480000 0.960000 0.720000
0.720000 0.960000 0.720000
0.960000 0.847427 0.756383
0.115200 0.115200 0.960000
0.326400 0.115200 0.960000
0.537600 0.115200 0.960000
0.748800 0.115200 0.960000
0.960000 0.115200 0.960000
0.115200 0.326400 0.960000
0.240000 0.240000 0.960000
0.480000 0.240000 0.960000
0.720000 0.240000 0.960000
0.960000 0.240000 0.960000
0.115200 0.537600 0.960000
0.240000 0.480000 0.960000
0.480000 0.480000 0.960000
0.720000 0.480000 0.960000
0.960000 0.480000 0.960000
0.115200 0.748800 0.960000
0.240000 0.720000 0.960000
0.480000 0.720000 0.960000
0.720000 0.720000 0.960000
0.960000 0.720000 0.960000
0.115200 0.960000 0.960000
0.240000 0.960000 0.960000
0.480000 0.960000 0.960000
0.720000 0.960000 0.960000
0.960000 0.960000 0.960000
