assets/LUTs/skintone_caramel_cream_33.cube
TITLE "SkinTone Caramel Cream"
# Desaturated caramel: converges all skin saturation toward one muted caramel level -- yellows calm down, pale skin fills in, nothing goes vivid. Creamy, not golden.
# Skin-tone selective LUT. Apply to display-referred Rec.709/sRGB (SDR) footage.
# Generated 2026-07-10 with Claude Code.
LUT_3D_SIZE 9
DOMAIN_MIN 0.0 0.0 0.0
DOMAIN_MAX 1.0 1.0 1.0
0.000000 0.000000 0.000000
0.120898 0.000000 0.000000
0.245312 0.000000 0.000000
0.372070 0.000000 0.000000
0.500000 0.000000 0.000000
0.627930 0.000000 0.000000
0.754687 0.000000 0.000000
0.879102 0.000000 0.000000
1.000000 0.000000 0.000000
0.000000 0.120898 0.000000
0.120898 0.120898 0.000000
0.245312 0.122656 0.000000
0.372070 0.124023 0.000000
0.500000 0.125000 0.000000
0.627930 0.125586 0.000000
0.754687 0.125781 0.000000
0.879102 0.125586 0.000000
1.000000 0.125000 0.000000
0.000000 0.245312 0.000000
0.122656 0.245312 0.000000
0.245312 0.245312 0.000000
0.372070 0.248047 0.000000
0.500000 0.250000 0.000000
0.627930 0.251172 0.000000
0.754687 0.251563 0.000000
0.879102 0.251172 0.000000
1.000000 0.250000 0.000000
0.000000 0.372070 0.000000
0.124023 0.372070 0.000000
0.248047 0.372070 0.000000
0.372070 0.372070 0.000000
0.500000 0.375000 0.000000
0.627930 0.376758 0.000000
0.754687 0.377344 0.000000
0.879102 0.376758 0.000000
1.000000 0.375000 0.000000
0.000000 0.500000 0.000000
0.125000 0.500000 0.000000
0.250000 0.500000 0.000000
0.375000 0.500000 0.000000
0.500000 0.500000 0.000000
0.627930 0.502344 0.000000
0.754687 0.503125 0.000000
0.879102 0.502344 0.000000
1.000000 0.500000 0.000000
0.000000 0.627930 0.000000
0.125586 0.627930 0.000000
0.251172 0.627930 0.000000
0.376758 0.627930 0.000000
0.502344 0.627930 0.000000
0.627930 0.627930 0.000000
0.754687 0.628906 0.000000
0.879102 0.627930 0.000000
1.000000 0.625000 0.000000
0.000000 0.754687 0.000000
0.125781 0.754687 0.000000
0.251563 0.754687 0.000000
0.377344 0.754687 0.000000
0.503125 0.754687 0.000000
0.628906 0.754687 0.000000
0.754687 0.754687 0.000000
0.879102 0.753516 0.000000
1.000000 0.750000 0.000000
0.000000 0.879102 0.000000
0.125586 0.879102 0.000000
0.251172 0.879102 0.000000
0.376758 0.879102 0.000000
0.502344 0.879102 0.000000
0.627930 0.879102 0.000000
0.753516 0.879102 0.000000
0.879102 0.879102 0.000000
1.000000 0.875000 0.000000
0.000000 1.000000 0.000000
0.125000 1.000000 0.000000
0.250000 1.000000 0.000000
0.375000 1.000000 0.000000
0.500000 1.000000 0.000000
0.625000 1.000000 0.000000
0.750000 1.000000 0.000000
0.875000 1.000000 0.000000
1.000000 1.000000 0.000000
0.000000 0.000000 0.120898
0.120898 0.000000 0.120898
0.245312 0.000000 0.122656
0.372070 0.000000 0.124023
0.500000 0.000000 0.125000
0.627930 0.000000 0.125586
0.754687 0.000000 0.125781
0.879102 0.000000 0.125586
1.000000 0.000000 0.125000
0.000000 0.120898 0.120898
0.120898 0.120898 0.120898
0.240042 0.122886 0.120021
0.366442 0.127916 0.122147
0.496268 0.130199 0.124067
0.626023 0.130190 0.125205
0.753882 0.129291 0.125647
0.878869 0.127932 0.125553
1.000000 0.125000 0.125000
0.000000 0.245312 0.122656
0.122656 0.245312 0.122656
0.197393 0.166492 0.115694
0.317187 0.229442 0.157491
0.462245 0.283919 0.180157
0.608229 0.304004 0.178714
0.746290 0.298651 0.163742
0.876674 0.280872 0.144271
1.000000 0.250000 0.125000
0.000000 0.372070 0.124023
0.124023 0.372070 0.124023
0.248047 0.372070 0.124023
0.319382 0.258039 0.156328
0.462245 0.338483 0.180157
0.608229 0.384516 0.178714
0.746290 0.400659 0.167897
0.876674 0.399881 0.154317
1.000000 0.375000 0.125000
0.000000 0.500000 0.125000
0.125000 0.500000 0.125000
0.250000 0.500000 0.125000
0.392249 0.496268 0.127032
0.463818 0.375424 0.177968
0.608229 0.456750 0.178714
0.746290 0.498796 0.167897
0.876674 0.510717 0.154317
1.000000 0.500000 0.125000
0.000000 0.627930 0.125586
0.125586 0.627930 0.125586
0.251172 0.627930 0.125586
0.376758 0.627930 0.125586
0.544699 0.622024 0.136582
0.609068 0.517050 0.176491
0.746290 0.584265 0.167897
0.876674 0.618239 0.154317
1.000000 0.625000 0.125000
0.000000 0.754687 0.125781
0.125781 0.754687 0.125781
0.251563 0.754687 0.125781
0.377344 0.754687 0.125781
0.504486 0.754595 0.125886
0.675661 0.750917 0.141514
0.746651 0.670467 0.166096
0.876674 0.718850 0.154317
1.000000 0.750000 0.125000
0.000000 0.879102 0.125586
0.125586 0.879102 0.125586
0.251172 0.879102 0.125586
0.376758 0.879102 0.125586
0.502344 0.879102 0.125586
0.635622 0.878869 0.126799
0.791626 0.877760 0.139937
0.876778 0.823885 0.153078
1.000000 0.875000 0.125000
0.000000 1.000000 0.125000
0.125000 1.000000 0.125000
0.250000 1.000000 0.125000
0.375000 1.000000 0.125000
0.500000 1.000000 0.125000
0.625000 1.000000 0.125000
0.750000 1.000000 0.125000
0.875000 1.000000 0.125000
1.000000 1.000000 0.125000
0.000000 0.000000 0.245312
0.122656 0.000000 0.245312
0.245312 0.000000 0.245312
0.372070 0.000000 0.248047
0.500000 0.000000 0.250000
0.627930 0.000000 0.251172
0.754687 0.000000 0.251562
0.879102 0.000000 0.251172
1.000000 0.000000 0.250000
0.000000 0.122656 0.245312
0.122656 0.122656 0.245312
0.245312 0.122656 0.245312
0.372070 0.124023 0.248047
0.500000 0.125000 0.250000
0.627930 0.125586 0.251172
0.754687 0.125781 0.251563
0.879102 0.125586 0.251172
1.000000 0.125000 0.250000
0.000000 0.245312 0.245312
0.122656 0.245312 0.245312
0.245312 0.245312 0.245312
0.366380 0.247169 0.244254
0.494601 0.253204 0.247301
0.623366 0.258275 0.249346
0.751413 0.262299 0.250471
0.877655 0.263110 0.250758
1.000000 0.250000 0.250000
0.000000 0.372070 0.248047
0.124023 0.372070 0.248047
0.248047 0.372070 0.248047
0.318843 0.280374 0.217138
0.446215 0.345593 0.263267
0.581666 0.414873 0.311191
0.721021 0.484663 0.358005
0.864045 0.519823 0.367121
1.000000 0.375000 0.250000
0.000000 0.500000 0.250000
0.125000 0.500000 0.250000
0.250000 0.500000 0.250000
0.375000 0.500000 0.250000
0.448417 0.378219 0.262822
0.581666 0.450936 0.311191
0.721021 0.521561 0.358005
0.864045 0.577504 0.379817
1.000000 0.500000 0.250000
0.000000 0.627930 0.251172
0.125586 0.627930 0.251172
0.251172 0.627930 0.251172
0.376758 0.627930 0.251172
0.527600 0.623366 0.252944
0.583597 0.479667 0.308819
0.721021 0.558060 0.358005
0.864045 0.626392 0.379817
1.000000 0.625000 0.250000
0.000000 0.754687 0.251563
0.125781 0.754687 0.251563
0.251563 0.754687 0.251563
0.377344 0.754687 0.251563
0.503125 0.754687 0.251563
0.728140 0.744557 0.273537
0.722448 0.583688 0.353617
0.864045 0.668528 0.379817
1.000000 0.750000 0.250000
0.000000 0.879102 0.251172
0.125586 0.879102 0.251172
0.251172 0.879102 0.251172
0.376758 0.879102 0.251172
0.502344 0.879102 0.251172
0.632618 0.878936 0.251494
0.872334 0.838012 0.299392
0.864691 0.696356 0.374350
1.000000 0.875000 0.250000
0.000000 1.000000 0.250000
0.125000 1.000000 0.250000
0.250000 1.000000 0.250000
0.375000 1.000000 0.250000
0.500000 1.000000 0.250000
0.625000 1.000000 0.250000
0.750000 1.000000 0.250000
0.875000 1.000000 0.250000
1.000000 1.000000 0.250000
0.000000 0.000000 0.372070
0.124023 0.000000 0.372070
0.248047 0.000000 0.372070
0.372070 0.000000 0.372070
0.500000 0.000000 0.375000
0.627930 0.000000 0.376758
0.754687 0.000000 0.377344
0.879102 0.000000 0.376758
1.000000 0.000000 0.375000
0.000000 0.124023 0.372070
0.124023 0.124023 0.372070
0.248047 0.124023 0.372070
0.372070 0.124023 0.372070
0.500000 0.125000 0.375000
0.627930 0.125586 0.376758
0.754687 0.125781 0.377344
0.879102 0.125586 0.376758
1.000000 0.125000 0.375000
0.000000 0.248047 0.372070
0.124023 0.248047 0.372070
0.248047 0.248047 0.372070
0.372070 0.248047 0.372070
0.500000 0.250000 0.375000
0.627930 0.251172 0.376758
0.754687 0.251563 0.377344
0.879102 0.251172 0.376758
1.000000 0.250000 0.375000
0.000000 0.372070 0.372070
0.124023 0.372070 0.372070
0.248047 0.372070 0.372070
0.372070 0.372070 0.372070
0.494601 0.372865 0.369888
0.623366 0.379972 0.374020
0.751377 0.384657 0.375688
0.877413 0.387562 0.376034
1.000000 0.375000 0.375000
0.000000 0.500000 0.375000
0.125000 0.500000 0.375000
0.250000 0.500000 0.375000
0.375000 0.500000 0.375000
0.448417 0.402365 0.326660
0.581666 0.468096 0.375174
0.720656 0.538450 0.425187
0.861552 0.605984 0.470589
1.000000 0.500000 0.375000
0.000000 0.627930 0.376758
0.125586 0.627930 0.376758
0.251172 0.627930 0.376758
0.376758 0.627930 0.376758
0.502344 0.627930 0.376758
0.583597 0.504807 0.375285
0.720656 0.577846 0.425187
0.861552 0.647243 0.470589
1.000000 0.625000 0.375000
0.000000 0.754687 0.377344
0.125781 0.754687 0.377344
0.251563 0.754687 0.377344
0.377344 0.754687 0.377344
0.503125 0.754687 0.377344
0.654997 0.751377 0.378580
0.722098 0.609056 0.423228
0.861552 0.687826 0.470589
1.000000 0.750000 0.375000
0.000000 0.879102 0.376758
0.125586 0.879102 0.376758
0.251172 0.879102 0.376758
0.376758 0.879102 0.376758
0.502344 0.879102 0.376758
0.627930 0.879102 0.376758
0.854515 0.873865 0.395962
0.862304 0.715348 0.466615
1.000000 0.875000 0.375000
0.000000 1.000000 0.375000
0.125000 1.000000 0.375000
0.250000 1.000000 0.375000
0.375000 1.000000 0.375000
0.500000 1.000000 0.375000
0.625000 1.000000 0.375000
0.750000 1.000000 0.375000
0.875000 1.000000 0.375000
1.000000 1.000000 0.375000
0.000000 0.000000 0.500000
0.125000 0.000000 0.500000
0.250000 0.000000 0.500000
0.375000 0.000000 0.500000
0.500000 0.000000 0.500000
0.627930 0.000000 0.502344
0.754687 0.000000 0.503125
0.879102 0.000000 0.502344
1.000000 0.000000 0.500000
0.000000 0.125000 0.500000
0.125000 0.125000 0.500000
0.250000 0.125000 0.500000
0.375000 0.125000 0.500000
0.500000 0.125000 0.500000
0.627930 0.125586 0.502344
0.754687 0.125781 0.503125
0.879102 0.125586 0.502344
1.000000 0.125000 0.500000
0.000000 0.250000 0.500000
0.125000 0.250000 0.500000
0.250000 0.250000 0.500000
0.375000 0.250000 0.500000
0.500000 0.250000 0.500000
0.627930 0.251172 0.502344
0.754687 0.251563 0.503125
0.879102 0.251172 0.502344
1.000000 0.250000 0.500000
0.000000 0.375000 0.500000
0.125000 0.375000 0.500000
0.250000 0.375000 0.500000
0.375000 0.375000 0.500000
0.500000 0.375000 0.500000
0.627930 0.376758 0.502344
0.754687 0.377344 0.503125
0.879102 0.376758 0.502344
1.000000 0.375000 0.500000
0.000000 0.500000 0.500000
0.125000 0.500000 0.500000
0.250000 0.500000 0.500000
0.375000 0.500000 0.500000
0.500000 0.500000 0.500000
0.623366 0.499054 0.496014
0.751377 0.506897 0.500918
0.877413 0.510025 0.501379
1.000000 0.500000 0.500000
0.000000 0.627930 0.502344
0.125586 0.627930 0.502344
0.251172 0.627930 0.502344
0.376758 0.627930 0.502344
0.502344 0.627930 0.502344
0.583597 0.529946 0.441751
0.720656 0.594481 0.491247
0.861552 0.662869 0.540324
1.000000 0.625000 0.500000
0.000000 0.754687 0.503125
0.125781 0.754687 0.503125
0.251563 0.754687 0.503125
0.377344 0.754687 0.503125
0.503125 0.754687 0.503125
0.628906 0.754687 0.503125
0.722098 0.634977 0.491762
0.861552 0.708068 0.540324
1.000000 0.750000 0.500000
0.000000 0.879102 0.502344
0.125586 0.879102 0.502344
0.251172 0.879102 0.502344
0.376758 0.879102 0.502344
0.502344 0.879102 0.502344
0.627930 0.879102 0.502344
0.779706 0.877413 0.503469
0.862304 0.742127 0.538719
1.000000 0.875000 0.500000
0.000000 1.000000 0.500000
0.125000 1.000000 0.500000
0.250000 1.000000 0.500000
0.375000 1.000000 0.500000
0.500000 1.000000 0.500000
0.625000 1.000000 0.500000
0.750000 1.000000 0.500000
0.875000 1.000000 0.500000
1.000000 1.000000 0.500000
0.000000 0.000000 0.627930
0.125586 0.000000 0.627930
0.251172 0.000000 0.627930
0.376758 0.000000 0.627930
0.502344 0.000000 0.627930
0.627930 0.000000 0.627930
0.754687 0.000000 0.628906
0.879102 0.000000 0.627930
1.000000 0.000000 0.625000
0.000000 0.125586 0.627930
0.125586 0.125586 0.627930
0.251172 0.125586 0.627930
0.376758 0.125586 0.627930
0.502344 0.125586 0.627930
0.627930 0.125586 0.627930
0.754687 0.125781 0.628906
0.879102 0.125586 0.627930
1.000000 0.125000 0.625000
0.000000 0.251172 0.627930
0.125586 0.251172 0.627930
0.251172 0.251172 0.627930
0.376758 0.251172 0.627930
0.502344 0.251172 0.627930
0.627930 0.251172 0.627930
0.754687 0.251563 0.628906
0.879102 0.251172 0.627930
1.000000 0.250000 0.625000
0.000000 0.376758 0.627930
0.125586 0.376758 0.627930
0.251172 0.376758 0.627930
0.376758 0.376758 0.627930
0.502344 0.376758 0.627930
0.627930 0.376758 0.627930
0.754687 0.377344 0.628906
0.879102 0.376758 0.627930
1.000000 0.375000 0.625000
0.000000 0.502344 0.627930
0.125586 0.502344 0.627930
0.251172 0.502344 0.627930
0.376758 0.502344 0.627930
0.502344 0.502344 0.627930
0.627930 0.502344 0.627930
0.754687 0.503125 0.628906
0.879102 0.502344 0.627930
1.000000 0.500000 0.625000
0.000000 0.627930 0.627930
0.125586 0.627930 0.627930
0.251172 0.627930 0.627930
0.376758 0.627930 0.627930
0.502344 0.627930 0.627930
0.627930 0.627930 0.627930
0.751377 0.624935 0.621842
0.877413 0.631981 0.626205
1.000000 0.625000 0.625000
0.000000 0.754687 0.628906
0.125781 0.754687 0.628906
0.251563 0.754687 0.628906
0.377344 0.754687 0.628906
0.503125 0.754687 0.628906
0.628906 0.754687 0.628906
0.722098 0.660899 0.560295
0.861552 0.723695 0.610060
1.000000 0.750000 0.625000
0.000000 0.879102 0.627930
0.125586 0.879102 0.627930
0.251172 0.879102 0.627930
0.376758 0.879102 0.627930
0.502344 0.879102 0.627930
0.627930 0.879102 0.627930
0.753516 0.879102 0.627930
0.862304 0.768906 0.610823
1.000000 0.875000 0.625000
0.000000 1.000000 0.625000
0.125000 1.000000 0.625000
0.250000 1.000000 0.625000
0.375000 1.000000 0.625000
0.500000 1.000000 0.625000
0.625000 1.000000 0.625000
0.750000 1.000000 0.625000
0.875000 1.000000 0.625000
1.000000 1.000000 0.625000
0.000000 0.000000 0.754687
0.125781 0.000000 0.754687
0.251562 0.000000 0.754687
0.377344 0.000000 0.754687
0.503125 0.000000 0.754687
0.628906 0.000000 0.754687
0.754687 0.000000 0.754687
0.879102 0.000000 0.753516
1.000000 0.000000 0.750000
0.000000 0.125781 0.754687
0.125781 0.125781 0.754687
0.251563 0.125781 0.754687
0.377344 0.125781 0.754687
0.503125 0.125781 0.754687
0.628906 0.125781 0.754687
0.754687 0.125781 0.754687
0.879102 0.125586 0.753516
1.000000 0.125000 0.750000
0.000000 0.251562 0.754687
0.125781 0.251563 0.754687
0.251563 0.251563 0.754687
0.377344 0.251563 0.754687
0.503125 0.251563 0.754687
0.628906 0.251563 0.754687
0.754687 0.251563 0.754687
0.879102 0.251172 0.753516
1.000000 0.250000 0.750000
0.000000 0.377344 0.754687
0.125781 0.377344 0.754687
0.251563 0.377344 0.754687
0.377344 0.377344 0.754687
0.503125 0.377344 0.754687
0.628906 0.377344 0.754687
0.754687 0.377344 0.754687
0.879102 0.376758 0.753516
1.000000 0.375000 0.750000
0.000000 0.503125 0.754687
0.125781 0.503125 0.754687
0.251563 0.503125 0.754687
0.377344 0.503125 0.754687
0.503125 0.503125 0.754687
0.628906 0.503125 0.754687
0.754687 0.503125 0.754687
0.879102 0.502344 0.753516
1.000000 0.500000 0.750000
0.000000 0.628906 0.754687
0.125781 0.628906 0.754687
0.251563 0.628906 0.754687
0.377344 0.628906 0.754687
0.503125 0.628906 0.754687
0.628906 0.628906 0.754687
0.754687 0.628906 0.754687
0.879102 0.627930 0.753516
1.000000 0.625000 0.750000
0.000000 0.754687 0.754687
0.125781 0.754687 0.754687
0.251563 0.754687 0.754687
0.377344 0.754687 0.754687
0.503125 0.754687 0.754687
0.628906 0.754687 0.754687
0.754687 0.754687 0.754687
0.877413 0.749375 0.746362
1.000000 0.750000 0.750000
0.000000 0.879102 0.753516
0.125586 0.879102 0.753516
0.251172 0.879102 0.753516
0.376758 0.879102 0.753516
0.502344 0.879102 0.753516
0.627930 0.879102 0.753516
0.753516 0.879102 0.753516
0.862304 0.795685 0.682927
1.000000 0.875000 0.750000
0.000000 1.000000 0.750000
0.125000 1.000000 0.750000
0.250000 1.000000 0.750000
0.375000 1.000000 0.750000
0.500000 1.000000 0.750000
0.625000 1.000000 0.750000
0.750000 1.000000 0.750000
0.875000 1.000000 0.750000
1.000000 1.000000 0.750000
0.000000 0.000000 0.879102
0.125586 0.000000 0.879102
0.251172 0.000000 0.879102
0.376758 0.000000 0.879102
0.502344 0.000000 0.879102
0.627930 0.000000 0.879102
0.753516 0.000000 0.879102
0.879102 0.000000 0.879102
1.000000 0.000000 0.875000
0.000000 0.125586 0.879102
0.125586 0.125586 0.879102
0.251172 0.125586 0.879102
0.376758 0.125586 0.879102
0.502344 0.125586 0.879102
0.627930 0.125586 0.879102
0.753516 0.125586 0.879102
0.879102 0.125586 0.879102
1.000000 0.125000 0.875000
0.000000 0.251172 0.879102
0.125586 0.251172 0.879102
0.251172 0.251172 0.879102
0.376758 0.251172 0.879102
0.502344 0.251172 0.879102
0.627930 0.251172 0.879102
0.753516 0.251172 0.879102
0.879102 0.251172 0.879102
1.000000 0.250000 0.875000
0.000000 0.376758 0.879102
0.125586 0.376758 0.879102
0.251172 0.376758 0.879102
0.376758 0.376758 0.879102
0.502344 0.376758 0.879102
0.627930 0.376758 0.879102
0.753516 0.376758 0.879102
0.879102 0.376758 0.879102
1.000000 0.375000 0.875000
0.000000 0.502344 0.879102
0.125586 0.502344 0.879102
0.251172 0.502344 0.879102
0.376758 0.502344 0.879102
0.502344 0.502344 0.879102
0.627930 0.502344 0.879102
0.753516 0.502344 0.879102
0.879102 0.502344 0.879102
1.000000 0.500000 0.875000
0.000000 0.627930 0.879102
0.125586 0.627930 0.879102
0.251172 0.627930 0.879102
0.376758 0.627930 0.879102
0.502344 0.627930 0.879102
0.627930 0.627930 0.879102
0.753516 0.627930 0.879102
0.879102 0.627930 0.879102
1.000000 0.625000 0.875000
0.000000 0.753516 0.879102
0.125586 0.753516 0.879102
0.251172 0.753516 0.879102
0.376758 0.753516 0.879102
0.502344 0.753516 0.879102
0.627930 0.753516 0.879102
0.753516 0.753516 0.879102
0.879102 0.753516 0.879102
1.000000 0.750000 0.875000
0.000000 0.879102 0.879102
0.125586 0.879102 0.879102
0.251172 0.879102 0.879102
0.376758 0.879102 0.879102
0.502344 0.879102 0.879102
0.627930 0.879102 0.879102
0.753516 0.879102 0.879102
0.879102 0.879102 0.879102
1.000000 0.875000 0.875000
0.000000 1.000000 0.875000
0.125000 1.000000 0.875000
0.250000 1.000000 0.875000
0.375000 1.000000 0.875000
0.500000 1.000000 0.875000
0.625000 1.000000 0.875000
0.750000 1.000000 0.875000
0.875000 1.000000 0.875000
1.000000 1.000000 0.875000
0.000000 0.000000 1.000000
0.125000 0.000000 1.000000
0.250000 0.000000 1.000000
0.375000 0.000000 1.000000
0.500000 0.000000 1.000000
0.625000 0.000000 1.000000
0.750000 0.000000 1.000000
0.875000 0.000000 1.000000
1.000000 0.000000 1.000000
0.000000 0.125000 1.000000
0.125000 0.125000 1.000000
0.250000 0.125000 1.000000
0.375000 0.125000 1.000000
0.500000 0.125000 1.000000
0.625000 0.125000 1.000000
0.750000 0.125000 1.000000
0.875000 0.125000 1.000000
1.000000 0.125000 1.000000
0.000000 0.250000 1.000000
0.125000 0.250000 1.000000
0.250000 0.250000 1.000000
0.375000 0.250000 1.000000
0.500000 0.250000 1.000000
0.625000 0.250000 1.000000
0.750000 0.250000 1.000000
0.875000 0.250000 1.000000
1.000000 0.250000 1.000000
0.000000 0.375000 1.000000
0.125000 0.375000 1.000000
0.250000 0.375000 1.000000
0.375000 0.375000 1.000000
0.500000 0.375000 1.000000
0.625000 0.375000 1.000000
0.750000 0.375000 1.000000
0.875000 0.375000 1.000000
1.000000 0.375000 1.000000
0.000000 0.500000 1.000000
0.125000 0.500000 1.000000
0.250000 0.500000 1.000000
0.375000 0.500000 1.000000
0.500000 0.500000 1.000000
0.625000 0.500000 1.000000
0.750000 0.500000 1.000000
0.875000 0.500000 1.000000
1.000000 0.500000 1.000000
0.000000 0.625000 1.000000
0.125000 0.625000 1.000000
0.250000 0.625000 1.000000
0.375000 0.625000 1.000000
0.500000 0.625000 1.000000
0.625000 0.625000 1.000000
0.750000 0.625000 1.000000
0.875000 0.625000 1.000000
1.000000 0.625000 1.000000
0.000000 0.750000 1.000000
0.125000 0.750000 1.000000
0.250000 0.750000 1.000000
0.375000 0.750000 1.000000
0.500000 0.750000 1.000000
0.625000 0.750000 1.000000
0.750000 0.750000 1.000000
0.875000 0.750000 1.000000
1.000000 0.750000 1.000000
0.000000 0.875000 1.000000
0.125000 0.875000 1.000000
0.250000 0.875000 1.000000
0.375000 0.875000 1.000000
0.500000 0.875000 1.000000
0.625000 0.875000 1.000000
0.750000 0.875000 1.000000
0.875000 0.875000 1.000000
1.000000 0.875000 1.000000
0.000000 1.000000 1.000000
0.125000 1.000000 1.000000
0.250000 1.000000 1.000000
0.375000 1.000000 1.000000
0.500000 1.000000 1.000000
0.625000 1.000000 1.000000
0.750000 1.000000 1.000000
0.875000 1.000000 1.000000
1.000000 1.000000 1.000000
