assets/LUTs/skintone_deyellow_correct_33.cube
TITLE "SkinTone De-Yellow Correct"
# Corrective only: rotates yellow casts (incl. yellowish whites) back toward warm orange and tames yellow saturation. No added density or contrast.
# Skin-tone selective LUT. Apply to display-referred Rec.709/sRGB (SDR) footage.
# Generated 2026-07-10 with Claude Code.
LUT_3D_SIZE 5
DOMAIN_MIN 0.0 0.0 0.0
DOMAIN_MAX 1.0 1.0 1.0
0.000000 0.000000 0.000000
0.250000 0.000000 0.000000
0.500000 0.000000 0.000000
0.750000 0.000000 0.000000
1.000000 0.000000 0.000000
0.000000 0.250000 0.000000
0.250000 0.250000 0.000000
0.500000 0.250000 0.000000
0.750000 0.250000 0.000000
1.000000 0.250000 0.000000
0.000000 0.500000 0.000000
0.250000 0.500000 0.000000
0.500000 0.500000 0.000000
0.750000 0.500000 0.000000
1.000000 0.500000 0.000000
0.000000 0.750000 0.000000
0.250000 0.750000 0.000000
0.500000 0.750000 0.000000
0.750000 0.750000 0.000000
1.000000 0.750000 0.000000
0.000000 1.000000 0.000000
0.250000 1.000000 0.000000
0.500000 1.000000 0.000000
0.750000 1.000000 0.000000
1.000000 1.000000 0.000000
0.000000 0.000000 0.250000
0.250000 0.000000 0.250000
0.500000 0.000000 0.250000
0.750000 0.000000 0.250000
1.000000 0.000000 0.250000
0.000000 0.250000 0.250000
0.250000 0.250000 0.250000
0.500000 0.250000 0.250000
0.750000 0.250000 0.250000
1.000000 0.250000 0.250000
0.000000 0.500000 0.250000
0.250000 0.500000 0.250000
0.500000 0.446667 0.300000
0.750000 0.500000 0.250000
1.000000 0.500000 0.250000
0.000000 0.750000 0.250000
0.250000 0.750000 0.250000
0.517077 0.750000 0.259444
0.750000 0.644213 0.348904
1.000000 0.750000 0.250000
0.000000 1.000000 0.250000
0.250000 1.000000 0.250000
0.500000 1.000000 0.250000
0.750000 1.000000 0.250000
1.000000 1.000000 0.250000
0.000000 0.000000 0.500000
0.250000 0.000000 0.500000
0.500000 0.000000 0.500000
0.750000 0.000000 0.500000
1.000000 0.000000 0.500000
0.000000 0.250000 0.500000
0.250000 0.250000 0.500000
0.500000 0.250000 0.500000
0.750000 0.250000 0.500000
1.000000 0.250000 0.500000
0.000000 0.500000 0.500000
0.250000 0.500000 0.500000
0.500000 0.500000 0.500000
0.750000 0.500000 0.500000
1.000000 0.500000 0.500000
0.000000 0.750000 0.500000
0.250000 0.750000 0.500000
0.500000 0.750000 0.500000
0.750000 0.696667 0.550000
1.000000 0.750000 0.500000
0.000000 1.000000 0.500000
0.250000 1.000000 0.500000
0.500000 1.000000 0.500000
0.750000 1.000000 0.500000
1.000000 1.000000 0.500000
0.000000 0.000000 0.750000
0.250000 0.000000 0.750000
0.500000 0.000000 0.750000
0.750000 0.000000 0.750000
1.000000 0.000000 0.750000
0.000000 0.250000 0.750000
0.250000 0.250000 0.750000
0.500000 0.250000 0.750000
0.750000 0.250000 0.750000
1.000000 0.250000 0.750000
0.000000 0.500000 0.750000
0.250000 0.500000 0.750000
0.500000 0.500000 0.750000
0.750000 0.500000 0.750000
1.000000 0.500000 0.750000
0.000000 0.750000 0.750000
0.250000 0.750000 0.750000
0.500000 0.750000 0.750000
0.750000 0.750000 0.750000
1.000000 0.750000 0.750000
0.000000 1.000000 0.750000
0.250000 1.000000 0.750000
0.500000 1.000000 0.750000
0.750000 1.000000 0.750000
1.000000 1.000000 0.750000
0.000000 0.000000 1.000000
0.250000 0.000000 1.000000
0.500000 0.000000 1.000000
0.750000 0.000000 1.000000
1.000000 0.000000 1.000000
0.000000 0.250000 1.000000
0.250000 0.250000 1.000000
0.500000 0.250000 1.000000
0.750000 0.250000 1.000000
1.000000 0.250000 1.000000
0.000000 0.500000 1.000000
0.250000 0.500000 1.000000
0.500000 0.500000 1.000000
0.750000 0.500000 1.000000
1.000000 0.500000 1.000000
0.000000 0.750000 1.000000
0.250000 0.750000 1.000000
0.500000 0.750000 1.000000
0.750000 0.750000 1.000000
1.000000 0.750000 1.000000
0.000000 1.000000 1.000000
0.250000 1.000000 1.000000
0.500000 1.000000 1.000000
0.750000 1.000000 1.000000
1.000000 1.000000 1.000000
