assets/LUTs/SkinBalanceNeutral65Davinci.cube
TITLE "Generated by Resolve"
#Copyright Sven Bayer - CameraRig 2026
LUT_3D_SIZE 65
0 0 0
0.01561 0 0
0.0312352 0 0
0.0468605 0 0
0.0624857 0 0
0.0781109 0 0
0.0937362 0 0
0.109361 0 0
0.124987 0 0
0.140612 0 0
0.156237 0 0
0.171862 0 0
0.187488 0 0
0.203113 0 0
0.218738 0 0
0.234363 0 0
0.249989 0 0
0.265614 0 0
0.281239 0 0
0.296864 0 0
0.31249 0 0
0.328115 0 0
0.34374 0 0
0.359365 0 0
0.37499 0 0
0.390616 0 0
0.406241 0 0
0.421866 0 0
0.437491 0 0
0.453117 0 0
0.468742 0 0
0.484367 0 0
0.499992 0 0
0.515618 0 0
0.531243 0 0
0.546868 0 0
0.562493 0 0
0.578119 0 0
0.593744 0 0
0.609369 0 0
0.624994 0 0
0.64062 0 0
0.656245 0 0
0.67187 0 0
0.687495 0 0
0.70312 0 0
0.718746 0 0
0.734371 0 0
0.749996 0 0
0.765621 0 0
0.781247 0 0
0.796872 0 0
0.812497 0 0
0.828122 0 0
0.843748 0 0
0.859373 0 0
0.874998 0 0
0.890623 0 0
0.906249 0 0
0.921874 0 0
0.937499 0 0
0.953124 0 0
0.96875 0 0
0.984375 0 0
1 0 0
0 0.01561 0
0.01561 0.01561 0
0.0312352 0.01561 0
0.0468605 0.01561 0
0.0624857 0.01561 0
0.0781109 0.01561 0
0.0937362 0.01561 0
0.109361 0.01561 0
0.124987 0.01561 0
0.140612 0.01561 0
0.156237 0.01561 0
0.171847 0.01561 0
0.187427 0.0156405 0
0.20296 0.0156863 0
0.218448 0.0157473 0
0.233875 0.0158541 0
0.24921 0.0159915 0
0.264469 0.0161593 0
0.279866 0.0162661 0
0.295781 0.016144 0
0.311635 0.016022 0
0.327474 0.0159152 0
0.343267 0.0158389 0
0.35903 0.0157778 0
0.374762 0.0157168 0
0.390478 0.0156863 0
0.406165 0.0156558 0
0.42182 0.0156252 0
0.437476 0.01561 0
0.453117 0.01561 0
0.468742 0.01561 0
0.484367 0.01561 0
0.499992 0.01561 0
0.515618 0.01561 0
0.531243 0.01561 0
0.546868 0.01561 0
0.562493 0.01561 0
0.578119 0.01561 0
0.593744 0.01561 0
0.609369 0.01561 0
0.624994 0.01561 0
0.64062 0.01561 0
0.656245 0.01561 0
0.67187 0.01561 0
0.687495 0.01561 0
0.70312 0.01561 0
0.718746 0.01561 0
0.734371 0.01561 0
0.749996 0.01561 0
0.765621 0.01561 0
0.781247 0.01561 0
0.796872 0.01561 0
0.812497 0.01561 0
0.828122 0.01561 0
0.843748 0.01561 0
0.859373 0.01561 0
0.874998 0.01561 0
0.890623 0.01561 0
0.906249 0.01561 0
0.921874 0.01561 0
0.937499 0.01561 0
0.953124 0.01561 0
0.96875 0.01561 0
0.984375 0.01561 0
1 0.01561 0
0 0.0312352 0
0.01561 0.0312352 0
0.0312352 0.0312352 0
0.0468605 0.0312352 0
0.0624857 0.0312352 0
0.0781109 0.0312352 0
0.0937362 0.0312352 0
0.109361 0.0312352 0
0.124987 0.0312352 0
0.140612 0.0312352 0
0.156222 0.0312505 0
0.171801 0.0312657 0
0.18735 0.0312963 0
0.202853 0.0313573 0
0.218311 0.0314336 0
0.233692 0.0315557 0
0.248997 0.0317082 0
0.26421 0.0318914 0
0.279332 0.0321355 0
0.294331 0.0324407 0
0.309209 0.0328069 0
0.323949 0.0332341 0
0.340246 0.0328985 0
0.356725 0.0325017 0
0.373068 0.032166 0
0.389273 0.0318761 0
0.405386 0.0316472 0
0.421378 0.0314794 0
0.437263 0.031342 0
0.45304 0.0312657 0
0.468742 0.0312352 0
0.484367 0.0312352 0
0.499992 0.0312352 0
0.515618 0.0312352 0
0.531243 0.0312352 0
0.546868 0.0312352 0
0.562493 0.0312352 0
0.578119 0.0312352 0
0.593744 0.0312352 0
0.609369 0.0312352 0
0.624994 0.0312352 0
0.64062 0.0312352 0
0.656245 0.0312352 0
0.67187 0.0312352 0
0.687495 0.0312352 0
0.70312 0.0312352 0
0.718746 0.0312352 0
0.734371 0.0312352 0
0.749996 0.0312352 0
0.765621 0.0312352 0
0.781247 0.0312352 0
0.796872 0.0312352 0
0.812497 0.0312352 0
0.828122 0.0312352 0
0.843748 0.0312352 0
0.859373 0.0312352 0
0.874998 0.0312352 0
0.890623 0.0312352 0
0.906249 0.0312352 0
0.921874 0.0312352 0
0.937499 0.0312352 0
0.953124 0.0312352 0
0.96875 0.0312352 0
0.984375 0.0312352 0
1 0.0312352 0
0 0.0468605 0
0.01561 0.0468605 0
0.0312352 0.0468605 0
0.0468605 0.0468605 0
0.0624857 0.0468605 0
0.0781109 0.0468605 0
0.0937362 0.0468605 0
0.109361 0.0468605 0
0.124987 0.0468605 0
0.140551 0.0468757 0
0.1561 0.0469062 0
0.171679 0.0469368 0
0.187427 0.046891 0
0.202945 0.0469368 0
0.218402 0.047013 0
0.233783 0.0471199 0
0.249088 0.0472725 0
0.264302 0.0474708 0
0.279408 0.047715 0
0.294392 0.0480201 0
0.309239 0.0483864 0
0.323964 0.0488136 0
0.338521 0.0493172 0
0.353552 0.0496071 0
0.370565 0.0489509 0
0.387411 0.0483711 0
0.404059 0.0478981 0
0.420508 0.0475013 0
0.436759 0.0472114 0
0.452827 0.0469978 0
0.468696 0.046891 0
0.484367 0.0468605 0
0.499992 0.0468605 0
0.515618 0.0468605 0
0.531243 0.0468605 0
0.546868 0.0468605 0
0.562493 0.0468605 0
0.578119 0.0468605 0
0.593744 0.0468605 0
0.609369 0.0468605 0
0.624994 0.0468605 0
0.64062 0.0468605 0
0.656245 0.0468605 0
0.67187 0.0468605 0
0.687495 0.0468605 0
0.70312 0.0468605 0
0.718746 0.0468605 0
0.734371 0.0468605 0
0.749996 0.0468605 0
0.765621 0.0468605 0
0.781247 0.0468605 0
0.796872 0.0468605 0
0.812497 0.0468605 0
0.828122 0.0468605 0
0.843748 0.0468605 0
0.859373 0.0468605 0
0.874998 0.0468605 0
0.890623 0.0468605 0
0.906249 0.0468605 0
0.921874 0.0468605 0
0.937499 0.0468605 0
0.953124 0.0468605 0
0.96875 0.0468605 0
0.984375 0.0468605 0
1 0.0468605 0
0 0.0624857 0
0.01561 0.0624857 0
0.0312352 0.0624857 0
0.0468605 0.0624857 0
0.0624857 0.0624857 0
0.0781109 0.0624857 0
0.0937514 0.0624857 1.5259e-05
0.109422 0.0624704 6.10361e-05
0.125093 0.0624399 0.000106813
0.14081 0.0623789 0.000427253
0.156252 0.0624399 0.000411994
0.171511 0.062562 0.000198367
0.186526 0.0627909 0
0.201907 0.0629435 0
0.217563 0.062974 0
0.233677 0.0627909 0
0.249683 0.062623 0
0.264942 0.0627909 0
0.280079 0.0630198 0
0.295094 0.0632944 0
0.309972 0.0636454 0
0.324712 0.0640574 0
0.3393 0.0645457 0
0.353719 0.0651255 0
0.36939 0.065095 0
0.386221 0.0645457 0
0.403037 0.0639963 0
0.419715 0.0634928 0
0.43621 0.0630961 0
0.452491 0.0627756 0
0.468559 0.0625772 0
0.484367 0.0624857 0
0.499992 0.0624857 0
0.515618 0.0624857 0
0.531243 0.0624857 0
0.546868 0.0624857 0
0.562493 0.0624857 0
0.578119 0.0624857 0
0.593744 0.0624857 0
0.609369 0.0624857 0
0.624994 0.0624857 0
0.64062 0.0624857 0
0.656245 0.0624857 0
0.67187 0.0624857 0
0.687495 0.0624857 0
0.70312 0.0624857 0
0.718746 0.0624857 0
0.734371 0.0624857 0
0.749996 0.0624857 0
0.765621 0.0624857 0
0.781247 0.0624857 0
0.796872 0.0624857 0
0.812497 0.0624857 0
0.828122 0.0624857 0
0.843748 0.0624857 0
0.859373 0.0624857 0
0.874998 0.0624857 0
0.890623 0.0624857 0
0.906249 0.0624857 0
0.921874 0.0624857 0
0.937499 0.0624857 0
0.953124 0.0624857 0
0.96875 0.0624857 0
0.984375 0.0624857 0
1 0.0624857 0
0 0.0781109 0
0.01561 0.0781109 0
0.0312352 0.0781109 0
0.0468605 0.0781109 0
0.0624857 0.0781109 0
0.0781109 0.0781109 0
0.0937362 0.0781109 0
0.109361 0.0781109 0
0.12549 0.0779126 0.000503548
0.141283 0.077821 0.000854505
0.157382 0.0775616 0.00199893
0.17293 0.0775464 0.00231937
0.187961 0.0777447 0.00207523
0.20267 0.0780652 0.00149538
0.216999 0.0785534 0.000503548
0.23125 0.0791028 0
0.24683 0.0792706 0
0.26302 0.0791485 0
0.279637 0.0787976 0
0.296086 0.0784619 0
0.311543 0.0785382 0
0.326467 0.0788586 0
0.341115 0.0793164 0
0.356008 0.0796521 0
0.371466 0.0797284 0
0.387304 0.0796368 0
0.403418 0.0794232 0
0.419699 0.079118 0
0.436027 0.0787976 0
0.452277 0.0785077 0
0.468391 0.0782788 0
0.484306 0.0781415 0
0.499992 0.0781109 0
0.515618 0.0781109 0
0.531243 0.0781109 0
0.546868 0.0781109 0
0.562493 0.0781109 0
0.578119 0.0781109 0
0.593744 0.0781109 0
0.609369 0.0781109 0
0.624994 0.0781109 0
0.64062 0.0781109 0
0.656245 0.0781109 0
0.67187 0.0781109 0
0.687495 0.0781109 0
0.70312 0.0781109 0
0.718746 0.0781109 0
0.734371 0.0781109 0
0.749996 0.0781109 0
0.765621 0.0781109 0
0.781247 0.0781109 0
0.796872 0.0781109 0
0.812497 0.0781109 0
0.828122 0.0781109 0
0.843748 0.0781109 0
0.859373 0.0781109 0
0.874998 0.0781109 0
0.890623 0.0781109 0
0.906249 0.0781109 0
0.921874 0.0781109 0
0.937499 0.0781109 0
0.953124 0.0781109 0
0.96875 0.0781109 0
0.984375 0.0781109 0
1 0.0781109 0
0 0.0937362 0
0.01561 0.0937362 0
0.0312352 0.0937362 0
0.0468605 0.0937362 0
0.0624857 0.0937362 0
0.0781109 0.0937362 0
0.0937362 0.0937362 0
0.109361 0.0937362 0
0.124987 0.0937362 0
0.140734 0.0936904 0.000137331
0.158404 0.0928359 0.00257877
0.174594 0.0924392 0.00456245
0.190707 0.0921645 0.00579843
0.206119 0.0921645 0.00637827
0.220462 0.092607 0.00575265
0.234348 0.0932174 0.004654
0.247791 0.0940261 0.00306706
0.260945 0.0949264 0.0011902
0.276677 0.0951553 0
0.292287 0.0954147 0
0.307408 0.0957809 0
0.324697 0.0951705 0
0.34226 0.094377 0
0.358618 0.0940719 0
0.374319 0.0940414 0
0.389654 0.0941787 0
0.405097 0.094255 0
0.420722 0.094255 0
0.43653 0.0941787 0
0.452445 0.0940414 0
0.468376 0.093904 0
0.48426 0.0937819 0
0.499992 0.0937362 0
0.515618 0.0937362 0
0.531243 0.0937362 0
0.546868 0.0937362 0
0.562493 0.0937362 0
0.578119 0.0937362 0
0.593744 0.0937362 0
0.609369 0.0937362 0
0.624994 0.0937362 0
0.64062 0.0937362 0
0.656245 0.0937362 0
0.67187 0.0937362 0
0.687495 0.0937362 0
0.70312 0.0937362 0
0.718746 0.0937362 0
0.734371 0.0937362 0
0.749996 0.0937362 0
0.765621 0.0937362 0
0.781247 0.0937362 0
0.796872 0.0937362 0
0.812497 0.0937362 0
0.828122 0.0937362 0
0.843748 0.0937362 0
0.859373 0.0937362 0
0.874998 0.0937362 0
0.890623 0.0937362 0
0.906249 0.0937362 0
0.921874 0.0937362 0
0.937499 0.0937362 0
0.953124 0.0937362 0
0.96875 0.0937362 0
0.984375 0.0937362 0
1 0.0937362 0
0 0.109361 0
0.01561 0.109361 0
0.0312352 0.109361 0
0.0468605 0.109361 0
0.0624857 0.109361 0
0.0781109 0.109361 0
0.0937362 0.109361 0
0.109361 0.109361 0
0.124987 0.109361 0
0.140612 0.109361 0
0.156237 0.109361 0
0.175113 0.108034 0.00360113
0.193332 0.106767 0.00831617
0.208835 0.1066 0.0100404
0.224674 0.106386 0.0115206
0.240436 0.106172 0.0130465
0.253803 0.10695 0.0118563
0.266438 0.108034 0.00984207
0.278401 0.109392 0.00703441
0.291188 0.11043 0.00492866
0.3066 0.110933 0.000900282
0.321782 0.111452 0
0.336553 0.112078 0
0.350988 0.112779 0
0.36968 0.111574 0
0.387884 0.110521 0
0.405066 0.10988 0
0.421393 0.109575 0
0.437247 0.109468 0
0.452873 0.109468 0
0.468544 0.109453 0
0.484276 0.109407 0
0.499977 0.109361 0
0.515618 0.109361 0
0.531243 0.109361 0
0.546868 0.109361 0
0.562493 0.109361 0
0.578119 0.109361 0
0.593744 0.109361 0
0.609369 0.109361 0
0.624994 0.109361 0
0.64062 0.109361 0
0.656245 0.109361 0
0.67187 0.109361 0
0.687495 0.109361 0
0.70312 0.109361 0
0.718746 0.109361 0
0.734371 0.109361 0
0.749996 0.109361 0
0.765621 0.109361 0
0.781247 0.109361 0
0.796872 0.109361 0
0.812497 0.109361 0
0.828122 0.109361 0
0.843748 0.109361 0
0.859373 0.109361 0
0.874998 0.109361 0
0.890623 0.109361 0
0.906249 0.109361 0
0.921874 0.109361 0
0.937499 0.109361 0
0.953124 0.109361 0
0.96875 0.109361 0
0.984375 0.109361 0
1 0.109361 0
0 0.124987 0
0.01561 0.124987 0
0.0312352 0.124987 0
0.0468605 0.124987 0
0.0624857 0.124987 0
0.0781109 0.124987 0
0.0937362 0.124987 0
0.109361 0.124987 0
0.124987 0.124987 0
0.140612 0.124987 0
0.156237 0.124987 0
0.171862 0.124987 0
0.188037 0.124758 0.000686656
0.212924 0.120836 0.0119783
0.229831 0.119814 0.0178988
0.244022 0.120211 0.0180362
0.258564 0.120455 0.0186618
0.272404 0.120989 0.018555
0.284657 0.122164 0.0166476
0.296788 0.123384 0.0146334
0.30901 0.124559 0.0127718
0.322072 0.125673 0.00932326
0.337072 0.126421 0.00424201
0.351934 0.127138 0
0.366537 0.127932 0
0.380682 0.128832 0
0.397574 0.128496 0
0.416098 0.127367 0
0.434195 0.126375 0
0.451499 0.125673 0
0.468086 0.125277 0
0.484184 0.125063 0
0.499977 0.124987 0
0.515618 0.124987 0
0.531243 0.124987 0
0.546868 0.124987 0
0.562493 0.124987 0
0.578119 0.124987 0
0.593744 0.124987 0
0.609369 0.124987 0
0.624994 0.124987 0
0.64062 0.124987 0
0.656245 0.124987 0
0.67187 0.124987 0
0.687495 0.124987 0
0.70312 0.124987 0
0.718746 0.124987 0
0.734371 0.124987 0
0.749996 0.124987 0
0.765621 0.124987 0
0.781247 0.124987 0
0.796872 0.124987 0
0.812497 0.124987 0
0.828122 0.124987 0
0.843748 0.124987 0
0.859373 0.124987 0
0.874998 0.124987 0
0.890623 0.124987 0
0.906249 0.124987 0
0.921874 0.124987 0
0.937499 0.124987 0
0.953124 0.124987 0
0.96875 0.124987 0
0.984375 0.124987 0
1 0.124987 0
0 0.140612 0
0.01561 0.140612 0
0.0312352 0.140612 0
0.0468605 0.140612 0
0.0624857 0.140612 0
0.0781109 0.140612 0
0.0937362 0.140612 0
0.109361 0.140612 0
0.124987 0.140612 0
0.140612 0.140612 0
0.156237 0.140612 0
0.171862 0.140612 0
0.187488 0.140612 0
0.203113 0.140612 0
0.224292 0.138262 0.00672923
0.251102 0.133242 0.0230869
0.266346 0.132769 0.0284276
0.2795 0.133516 0.0280613
0.292363 0.134386 0.0273747
0.304601 0.135515 0.0259403
0.316609 0.136736 0.0242161
0.328328 0.138079 0.0221561
0.339803 0.139528 0.0197757
0.353552 0.140658 0.0144198
0.368353 0.141558 0.00846876
0.3832 0.142412 0.00282292
0.397681 0.143328 0
0.412116 0.144183 0
0.428504 0.144091 0
0.446204 0.143374 0
0.464134 0.142489 0
0.481651 0.141741 0
0.498589 0.141207 0
0.515023 0.140871 0
0.531044 0.140703 0
0.546838 0.140627 0
0.562493 0.140612 0
0.578119 0.140612 0
0.593744 0.140612 0
0.609369 0.140612 0
0.624994 0.140612 0
0.64062 0.140612 0
0.656245 0.140612 0
0.67187 0.140612 0
0.687495 0.140612 0
0.70312 0.140612 0
0.718746 0.140612 0
0.734371 0.140612 0
0.749996 0.140612 0
0.765621 0.140612 0
0.781247 0.140612 0
0.796872 0.140612 0
0.812497 0.140612 0
0.828122 0.140612 0
0.843748 0.140612 0
0.859373 0.140612 0
0.874998 0.140612 0
0.890623 0.140612 0
0.906249 0.140612 0
0.921874 0.140612 0
0.937499 0.140612 0
0.953124 0.140612 0
0.96875 0.140612 0
0.984375 0.140612 0
1 0.140612 0
0 0.156237 0
0.01561 0.156237 0
0.0312352 0.156237 0
0.0468605 0.156237 0
0.0624857 0.156237 0
0.0781109 0.156237 0
0.0937362 0.156237 0
0.109361 0.156237 0
0.124987 0.156237 0
0.140612 0.156237 0
0.156237 0.156237 0
0.171862 0.156237 0
0.187488 0.156237 0
0.203113 0.156237 0
0.218738 0.156237 0
0.235645 0.155673 0.00170901
0.266957 0.14902 0.0211185
0.289097 0.145495 0.0360571
0.302129 0.145846 0.0395972
0.314122 0.147036 0.0383612
0.325826 0.148333 0.0367132
0.33727 0.149752 0.034699
0.348501 0.151278 0.0323949
0.359564 0.152865 0.0298314
0.371695 0.15433 0.0256199
0.386099 0.155398 0.0191043
0.400992 0.156344 0.0125277
0.415778 0.157275 0.00624094
0.430457 0.15816 0.000747692
0.445533 0.158755 0
0.461509 0.158877 0
0.478492 0.15848 0
0.495842 0.157885 0
0.513024 0.15729 0
0.529824 0.156817 0
0.546227 0.156512 0
0.562264 0.156329 0
0.578073 0.156252 0
0.593744 0.156237 0
0.609369 0.156237 0
0.624994 0.156237 0
0.64062 0.156237 0
0.656245 0.156237 0
0.67187 0.156237 0
0.687495 0.156237 0
0.70312 0.156237 0
0.718746 0.156237 0
0.734371 0.156237 0
0.749996 0.156237 0
0.765621 0.156237 0
0.781247 0.156237 0
0.796872 0.156237 0
0.812497 0.156237 0
0.828122 0.156237 0
0.843748 0.156237 0
0.859373 0.156237 0
0.874998 0.156237 0
0.890623 0.156237 0
0.906249 0.156237 0
0.921874 0.156237 0
0.937499 0.156237 0
0.953124 0.156237 0
0.96875 0.156237 0
0.984375 0.156237 0
1 0.156237 0
0 0.171862 0
0.01561 0.171862 0
0.0312352 0.171862 0
0.0468605 0.171862 0
0.0624857 0.171862 0
0.0781109 0.171862 0
0.0937362 0.171862 0
0.109361 0.171862 0
0.124987 0.171862 0
0.140612 0.171862 0
0.156237 0.171862 0
0.171862 0.171862 0
0.187488 0.171862 0
0.203113 0.171862 0
0.218738 0.171862 0
0.234363 0.171862 0
0.25005 0.171832 9.15541e-05
0.273381 0.168551 0.00970474
0.311696 0.15874 0.0394598
0.325277 0.158556 0.0464942
0.336309 0.159518 0.0496071
0.347387 0.161059 0.0475776
0.358312 0.162661 0.0452735
0.3691 0.164324 0.0427253
0.379812 0.166033 0.0399634
0.391287 0.167651 0.0361028
0.405341 0.168826 0.0295872
0.420005 0.169863 0.0227054
0.434501 0.171023 0.0152438
0.449088 0.172045 0.00860609
0.463966 0.172839 0.0033875
0.479316 0.173312 0
0.495262 0.173449 0
0.511788 0.173251 0
0.528572 0.172869 0
0.545281 0.172488 0
0.56173 0.172168 0
0.577859 0.171969 0
0.593713 0.171878 0
0.609369 0.171862 0
0.624994 0.171862 0
0.64062 0.171862 0
0.656245 0.171862 0
0.67187 0.171862 0
0.687495 0.171862 0
0.70312 0.171862 0
0.718746 0.171862 0
0.734371 0.171862 0
0.749996 0.171862 0
0.765621 0.171862 0
0.781247 0.171862 0
0.796872 0.171862 0
0.812497 0.171862 0
0.828122 0.171862 0
0.843748 0.171862 0
0.859373 0.171862 0
0.874998 0.171862 0
0.890623 0.171862 0
0.906249 0.171862 0
0.921874 0.171862 0
0.937499 0.171862 0
0.953124 0.171862 0
0.96875 0.171862 0
0.984375 0.171862 0
1 0.171862 0
0 0.187488 0
0.01561 0.187488 0
0.0312352 0.187488 0
0.0468605 0.187488 0
0.0624857 0.187488 0
0.0781109 0.187488 0
0.0937362 0.187488 0
0.109361 0.187488 0
0.124987 0.187488 0
0.140612 0.187488 0
0.156237 0.187488 0
0.171862 0.187488 0
0.187488 0.187488 0
0.203113 0.187488 0
0.218738 0.187488 0
0.234363 0.187488 0
0.249989 0.187488 0
0.265614 0.187488 0
0.283238 0.186618 0.00267033
0.315373 0.179599 0.0231479
0.350011 0.171069 0.0510262
0.360327 0.172183 0.0547189
0.369772 0.17377 0.05626
0.379416 0.175586 0.0553292
0.389883 0.177371 0.0525673
0.400351 0.179171 0.0496376
0.412253 0.180743 0.0451514
0.425834 0.182025 0.0389105
0.439719 0.183368 0.0313878
0.453758 0.18471 0.0232853
0.467933 0.185992 0.0155337
0.482353 0.187045 0.00910964
0.497261 0.187778 0.00437934
0.512764 0.188144 0.00135805
0.528725 0.188235 0
0.544976 0.188113 0
0.561334 0.1879 0
0.5776 0.187686 0
0.593622 0.187533 0
0.609369 0.187488 0
0.624994 0.187488 0
0.64062 0.187488 0
0.656245 0.187488 0
0.67187 0.187488 0
0.687495 0.187488 0
0.70312 0.187488 0
0.718746 0.187488 0
0.734371 0.187488 0
0.749996 0.187488 0
0.765621 0.187488 0
0.781247 0.187488 0
0.796872 0.187488 0
0.812497 0.187488 0
0.828122 0.187488 0
0.843748 0.187488 0
0.859373 0.187488 0
0.874998 0.187488 0
0.890623 0.187488 0
0.906249 0.187488 0
0.921874 0.187488 0
0.937499 0.187488 0
0.953124 0.187488 0
0.96875 0.187488 0
0.984375 0.187488 0
1 0.187488 0
0 0.203113 0
0.01561 0.203113 0
0.0312352 0.203113 0
0.0468605 0.203113 0
0.0624857 0.203113 0
0.0781109 0.203113 0
0.0937362 0.203113 0
0.109361 0.203113 0
0.124987 0.203113 0
0.140612 0.203113 0
0.156237 0.203113 0
0.171862 0.203113 0
0.187488 0.203113 0
0.203113 0.203113 0
0.218738 0.203113 0
0.234363 0.203113 0
0.249989 0.203113 0
0.265614 0.203113 0
0.281239 0.203113 0
0.297047 0.203037 0.000274662
0.320607 0.199649 0.0102083
0.358526 0.190097 0.0386511
0.385855 0.18436 0.0601511
0.39443 0.186191 0.0618143
0.403052 0.188205 0.061738
0.412375 0.190188 0.0601053
0.422812 0.19202 0.057084
0.434501 0.193652 0.052491
0.447166 0.195209 0.0462348
0.460288 0.19678 0.038468
0.473564 0.198428 0.0297093
0.486976 0.200046 0.0209354
0.500664 0.201434 0.0133822
0.514977 0.202441 0.00764477
0.530007 0.203052 0.00378424
0.545586 0.203311 0.00148013
0.561486 0.203357 0.000335698
0.577539 0.203281 0
0.593545 0.203174 0
0.609369 0.203113 0
0.624994 0.203113 0
0.64062 0.203113 0
0.656245 0.203113 0
0.67187 0.203113 0
0.687495 0.203113 0
0.70312 0.203113 0
0.718746 0.203113 0
0.734371 0.203113 0
0.749996 0.203113 0
0.765621 0.203113 0
0.781247 0.203113 0
0.796872 0.203113 0
0.812497 0.203113 0
0.828122 0.203113 0
0.843748 0.203113 0
