assets/LUTs/skintone_bronze_deep_33.cube
TITLE "SkinTone Bronze Deep"
# Strongest look: bronze, deep, saturated skin with clear density. Dial back with LUT strength if needed.
# Skin-tone selective LUT. Apply to display-referred Rec.709/sRGB (SDR) footage.
# Generated 2026-07-10 with Claude Code.
LUT_3D_SIZE 5
DOMAIN_MIN 0.0 0.0 0.0
DOMAIN_MAX 1.0 1.0 1.0
0.000000 0.000000 0.000000
0.240625 0.000000 0.000000
0.500000 0.000000 0.000000
0.759375 0.000000 0.000000
1.000000 0.000000 0.000000
0.000000 0.240625 0.000000
0.240625 0.240625 0.000000
0.500000 0.250000 0.000000
0.759375 0.253125 0.000000
1.000000 0.250000 0.000000
0.000000 0.500000 0.000000
0.250000 0.500000 0.000000
0.500000 0.500000 0.000000
0.759375 0.506250 0.000000
1.000000 0.500000 0.000000
0.000000 0.759375 0.000000
0.253125 0.759375 0.000000
0.506250 0.759375 0.000000
0.759375 0.759375 0.000000
1.000000 0.750000 0.000000
0.000000 1.000000 0.000000
0.250000 1.000000 0.000000
0.500000 1.000000 0.000000
0.750000 1.000000 0.000000
1.000000 1.000000 0.000000
0.000000 0.000000 0.240625
0.240625 0.000000 0.240625
0.500000 0.000000 0.250000
0.759375 0.000000 0.253125
1.000000 0.000000 0.250000
0.000000 0.240625 0.240625
0.240625 0.240625 0.240625
0.412335 0.215651 0.177014
0.704021 0.274237 0.190912
1.000000 0.250000 0.250000
0.000000 0.500000 0.250000
0.250000 0.500000 0.250000
0.418162 0.331735 0.181663
0.700767 0.392877 0.187383
1.000000 0.500000 0.250000
0.000000 0.759375 0.253125
0.253125 0.759375 0.253125
0.506250 0.759375 0.253125
0.707928 0.521734 0.195168
1.000000 0.750000 0.250000
0.000000 1.000000 0.250000
0.250000 1.000000 0.250000
0.500000 1.000000 0.250000
0.750000 1.000000 0.250000
1.000000 1.000000 0.250000
0.000000 0.000000 0.500000
0.250000 0.000000 0.500000
0.500000 0.000000 0.500000
0.759375 0.000000 0.506250
1.000000 0.000000 0.500000
0.000000 0.250000 0.500000
0.250000 0.250000 0.500000
0.500000 0.250000 0.500000
0.759375 0.253125 0.506250
1.000000 0.250000 0.500000
0.000000 0.500000 0.500000
0.250000 0.500000 0.500000
0.500000 0.500000 0.500000
0.703427 0.470500 0.424742
1.000000 0.500000 0.500000
0.000000 0.759375 0.506250
0.253125 0.759375 0.506250
0.506250 0.759375 0.506250
0.707374 0.606139 0.430354
1.000000 0.750000 0.500000
0.000000 1.000000 0.500000
0.250000 1.000000 0.500000
0.500000 1.000000 0.500000
0.750000 1.000000 0.500000
1.000000 1.000000 0.500000
0.000000 0.000000 0.759375
0.253125 0.000000 0.759375
0.506250 0.000000 0.759375
0.759375 0.000000 0.759375
1.000000 0.000000 0.750000
0.000000 0.253125 0.759375
0.253125 0.253125 0.759375
0.506250 0.253125 0.759375
0.759375 0.253125 0.759375
1.000000 0.250000 0.750000
0.000000 0.506250 0.759375
0.253125 0.506250 0.759375
0.506250 0.506250 0.759375
0.759375 0.506250 0.759375
1.000000 0.500000 0.750000
0.000000 0.759375 0.759375
0.253125 0.759375 0.759375
0.506250 0.759375 0.759375
0.759375 0.759375 0.759375
1.000000 0.750000 0.750000
0.000000 1.000000 0.750000
0.250000 1.000000 0.750000
0.500000 1.000000 0.750000
0.750000 1.000000 0.750000
1.000000 1.000000 0.750000
0.000000 0.000000 1.000000
0.250000 0.000000 1.000000
0.500000 0.000000 1.000000
0.750000 0.000000 1.000000
1.000000 0.000000 1.000000
0.000000 0.250000 1.000000
0.250000 0.250000 1.000000
0.500000 0.250000 1.000000
0.750000 0.250000 1.000000
1.000000 0.250000 1.000000
0.000000 0.500000 1.000000
0.250000 0.500000 1.000000
0.500000 0.500000 1.000000
0.750000 0.500000 1.000000
1.000000 0.500000 1.000000
0.000000 0.750000 1.000000
0.250000 0.750000 1.000000
0.500000 0.750000 1.000000
0.750000 0.750000 1.000000
1.000000 0.750000 1.000000
0.000000 1.000000 1.000000
0.250000 1.000000 1.000000
0.500000 1.000000 1.000000
0.750000 1.000000 1.000000
1.000000 1.000000 1.000000
