assets/LUTs/skintone_caramel_overdrive_33.cube
TITLE "SkinTone Caramel Overdrive"
# Caramel Glow with the dial snapped off: hard pull to golden-orange, heavy richness and density.
# Skin-tone selective LUT. Apply to display-referred Rec.709/sRGB (SDR) footage.
# Generated 2026-07-10 with Claude Code.
LUT_3D_SIZE 5
DOMAIN_MIN 0.0 0.0 0.0
DOMAIN_MAX 1.0 1.0 1.0
0.000000 0.000000 0.000000
0.240625 0.000000 0.000000
0.500000 0.000000 0.000000
0.759375 0.000000 0.000000
1.000000 0.000000 0.000000
0.000000 0.240625 0.000000
0.240625 0.240625 0.000000
0.500000 0.250000 0.000000
0.759375 0.253125 0.000000
1.000000 0.250000 0.000000
0.000000 0.500000 0.000000
0.250000 0.500000 0.000000
0.500000 0.500000 0.000000
0.759375 0.506250 0.000000
1.000000 0.500000 0.000000
0.000000 0.759375 0.000000
0.253125 0.759375 0.000000
0.506250 0.759375 0.000000
0.759375 0.759375 0.000000
1.000000 0.750000 0.000000
0.000000 1.000000 0.000000
0.250000 1.000000 0.000000
0.500000 1.000000 0.000000
0.750000 1.000000 0.000000
1.000000 1.000000 0.000000
0.000000 0.000000 0.240625
0.240625 0.000000 0.240625
0.500000 0.000000 0.250000
0.759375 0.000000 0.253125
1.000000 0.000000 0.250000
0.000000 0.240625 0.240625
0.240625 0.240625 0.240625
0.426728 0.234976 0.169941
0.713606 0.309186 0.174030
1.000000 0.250000 0.250000
0.000000 0.500000 0.250000
0.250000 0.500000 0.250000
0.426728 0.327207 0.169941
0.708907 0.399974 0.166189
1.000000 0.500000 0.250000
0.000000 0.759375 0.253125
0.253125 0.759375 0.253125
0.506250 0.759375 0.253125
0.713606 0.506147 0.174030
1.000000 0.750000 0.250000
0.000000 1.000000 0.250000
0.250000 1.000000 0.250000
0.500000 1.000000 0.250000
0.750000 1.000000 0.250000
1.000000 1.000000 0.250000
0.000000 0.000000 0.500000
0.250000 0.000000 0.500000
0.500000 0.000000 0.500000
0.759375 0.000000 0.506250
1.000000 0.000000 0.500000
0.000000 0.250000 0.500000
0.250000 0.250000 0.500000
0.500000 0.250000 0.500000
0.759375 0.253125 0.506250
1.000000 0.250000 0.500000
0.000000 0.500000 0.500000
0.250000 0.500000 0.500000
0.500000 0.500000 0.500000
0.713112 0.487443 0.410906
1.000000 0.500000 0.500000
0.000000 0.759375 0.506250
0.253125 0.759375 0.506250
0.506250 0.759375 0.506250
0.713112 0.595988 0.410906
1.000000 0.750000 0.500000
0.000000 1.000000 0.500000
0.250000 1.000000 0.500000
0.500000 1.000000 0.500000
0.750000 1.000000 0.500000
1.000000 1.000000 0.500000
0.000000 0.000000 0.759375
0.253125 0.000000 0.759375
0.506250 0.000000 0.759375
0.759375 0.000000 0.759375
1.000000 0.000000 0.750000
0.000000 0.253125 0.759375
0.253125 0.253125 0.759375
0.506250 0.253125 0.759375
0.759375 0.253125 0.759375
1.000000 0.250000 0.750000
0.000000 0.506250 0.759375
0.253125 0.506250 0.759375
0.506250 0.506250 0.759375
0.759375 0.506250 0.759375
1.000000 0.500000 0.750000
0.000000 0.759375 0.759375
0.253125 0.759375 0.759375
0.506250 0.759375 0.759375
0.759375 0.759375 0.759375
1.000000 0.750000 0.750000
0.000000 1.000000 0.750000
0.250000 1.000000 0.750000
0.500000 1.000000 0.750000
0.750000 1.000000 0.750000
1.000000 1.000000 0.750000
0.000000 0.000000 1.000000
0.250000 0.000000 1.000000
0.500000 0.000000 1.000000
0.750000 0.000000 1.000000
1.000000 0.000000 1.000000
0.000000 0.250000 1.000000
0.250000 0.250000 1.000000
0.500000 0.250000 1.000000
0.750000 0.250000 1.000000
1.000000 0.250000 1.000000
0.000000 0.500000 1.000000
0.250000 0.500000 1.000000
0.500000 0.500000 1.000000
0.750000 0.500000 1.000000
1.000000 0.500000 1.000000
0.000000 0.750000 1.000000
0.250000 0.750000 1.000000
0.500000 0.750000 1.000000
0.750000 0.750000 1.000000
1.000000 0.750000 1.000000
0.000000 1.000000 1.000000
0.250000 1.000000 1.000000
0.500000 1.000000 1.000000
0.750000 1.000000 1.000000
1.000000 1.000000 1.000000
