assets/LUTs/skintone_forced_tan_turbo_33.cube
TITLE "SkinTone Forced Tan TURBO"
# Overpowered pale rescue: heavy saturation floor, strong pull to tan, big density in bright mids. Instant beach trip.
# Skin-tone selective LUT. Apply to display-referred Rec.709/sRGB (SDR) footage.
# Generated 2026-07-10 with Claude Code.
LUT_3D_SIZE 5
DOMAIN_MIN 0.0 0.0 0.0
DOMAIN_MAX 1.0 1.0 1.0
0.000000 0.000000 0.000000
0.244375 0.000000 0.000000
0.500000 0.000000 0.000000
0.755625 0.000000 0.000000
1.000000 0.000000 0.000000
0.000000 0.244375 0.000000
0.244375 0.244375 0.000000
0.500000 0.250000 0.000000
0.755625 0.251875 0.000000
1.000000 0.250000 0.000000
0.000000 0.500000 0.000000
0.250000 0.500000 0.000000
0.500000 0.500000 0.000000
0.755625 0.503750 0.000000
1.000000 0.500000 0.000000
0.000000 0.755625 0.000000
0.251875 0.755625 0.000000
0.503750 0.755625 0.000000
0.755625 0.755625 0.000000
1.000000 0.750000 0.000000
0.000000 1.000000 0.000000
0.250000 1.000000 0.000000
0.500000 1.000000 0.000000
0.750000 1.000000 0.000000
1.000000 1.000000 0.000000
0.000000 0.000000 0.244375
0.244375 0.000000 0.244375
0.500000 0.000000 0.250000
0.755625 0.000000 0.251875
1.000000 0.000000 0.250000
0.000000 0.244375 0.244375
0.244375 0.244375 0.244375
0.417034 0.227167 0.178005
0.702787 0.293560 0.189057
1.000000 0.250000 0.250000
0.000000 0.500000 0.250000
0.250000 0.500000 0.250000
0.420349 0.340746 0.180760
0.701504 0.411927 0.187580
1.000000 0.500000 0.250000
0.000000 0.755625 0.251875
0.251875 0.755625 0.251875
0.503750 0.755625 0.251875
0.705019 0.535686 0.191634
1.000000 0.750000 0.250000
0.000000 1.000000 0.250000
0.250000 1.000000 0.250000
0.500000 1.000000 0.250000
0.750000 1.000000 0.250000
1.000000 1.000000 0.250000
0.000000 0.000000 0.500000
0.250000 0.000000 0.500000
0.500000 0.000000 0.500000
0.755625 0.000000 0.503750
1.000000 0.000000 0.500000
0.000000 0.250000 0.500000
0.250000 0.250000 0.500000
0.500000 0.250000 0.500000
0.755625 0.251875 0.503750
1.000000 0.250000 0.500000
0.000000 0.500000 0.500000
0.250000 0.500000 0.500000
0.500000 0.500000 0.500000
0.702220 0.460263 0.397614
1.000000 0.500000 0.500000
0.000000 0.755625 0.503750
0.251875 0.755625 0.503750
0.503750 0.755625 0.503750
0.704476 0.603668 0.401065
1.000000 0.750000 0.500000
0.000000 1.000000 0.500000
0.250000 1.000000 0.500000
0.500000 1.000000 0.500000
0.750000 1.000000 0.500000
1.000000 1.000000 0.500000
0.000000 0.000000 0.755625
0.251875 0.000000 0.755625
0.503750 0.000000 0.755625
0.755625 0.000000 0.755625
1.000000 0.000000 0.750000
0.000000 0.251875 0.755625
0.251875 0.251875 0.755625
0.503750 0.251875 0.755625
0.755625 0.251875 0.755625
1.000000 0.250000 0.750000
0.000000 0.503750 0.755625
0.251875 0.503750 0.755625
0.503750 0.503750 0.755625
0.755625 0.503750 0.755625
1.000000 0.500000 0.750000
0.000000 0.755625 0.755625
0.251875 0.755625 0.755625
0.503750 0.755625 0.755625
0.755625 0.755625 0.755625
1.000000 0.750000 0.750000
0.000000 1.000000 0.750000
0.250000 1.000000 0.750000
0.500000 1.000000 0.750000
0.750000 1.000000 0.750000
1.000000 1.000000 0.750000
0.000000 0.000000 1.000000
0.250000 0.000000 1.000000
0.500000 0.000000 1.000000
0.750000 0.000000 1.000000
1.000000 0.000000 1.000000
0.000000 0.250000 1.000000
0.250000 0.250000 1.000000
0.500000 0.250000 1.000000
0.750000 0.250000 1.000000
1.000000 0.250000 1.000000
0.000000 0.500000 1.000000
0.250000 0.500000 1.000000
0.500000 0.500000 1.000000
0.750000 0.500000 1.000000
1.000000 0.500000 1.000000
0.000000 0.750000 1.000000
0.250000 0.750000 1.000000
0.500000 0.750000 1.000000
0.750000 0.750000 1.000000
1.000000 0.750000 1.000000
0.000000 1.000000 1.000000
0.250000 1.000000 1.000000
0.500000 1.000000 1.000000
0.750000 1.000000 1.000000
1.000000 1.000000 1.000000
