assets/LUTs/skintone_bronze_oiled_33.cube
TITLE "Skintone Bronze Oiled"
# Aggressive de-yellow -> deep bronze / tan / oiled skin look
# Target: Rec.709 SDR footage after exposure/WB correction
# Strong look LUT - mix down (50-80%) if it lands too heavy
LUT_3D_SIZE 9
DOMAIN_MIN 0.0 0.0 0.0
DOMAIN_MAX 1.0 1.0 1.0
0.003000 0.002963 0.002962
0.035028 0.000694 0.000000
0.144533 0.002865 0.000000
0.271439 0.005381 0.000000
0.410975 0.008148 0.000000
0.560725 0.011116 0.000000
0.719151 0.014257 0.000000
0.893883 0.183814 0.169452
1.000000 0.362886 0.350000
0.000000 0.035028 0.000000
0.035028 0.016539 0.000000
0.144533 0.062629 0.000000
0.271439 0.090480 0.000000
0.410975 0.110023 0.000000
0.560725 0.125746 0.000000
0.719151 0.139121 0.000000
0.893883 0.293007 0.169452
1.000000 0.449390 0.350000
0.000000 0.144533 0.000000
0.144533 0.138833 0.000000
0.144533 0.068244 0.000000
0.271439 0.131001 0.000000
0.410975 0.178083 0.000000
0.560725 0.213697 0.000000
0.719151 0.239717 0.000000
0.893883 0.384465 0.169452
1.000000 0.524012 0.350000
0.000000 0.271439 0.000000
0.173142 0.271439 0.000000
0.271439 0.172124 0.000000
0.271439 0.128165 0.000000
0.410975 0.200979 0.000000
0.560725 0.262880 0.000000
0.719151 0.311622 0.000000
0.893883 0.457572 0.169452
1.000000 0.586310 0.350000
0.000000 0.410975 0.000000
0.183778 0.410975 0.000000
0.410975 0.394767 0.000000
0.410975 0.225399 0.000000
0.410975 0.194049 0.000000
0.560725 0.273656 0.000000
0.719151 0.347075 0.000000
0.893883 0.503016 0.169452
1.000000 0.631657 0.350000
0.000000 0.560725 0.000000
0.188786 0.560725 0.000000
0.442333 0.560725 0.000000
0.560725 0.413901 0.000000
0.560725 0.288931 0.000000
0.560725 0.264757 0.000000
0.719151 0.349447 0.000000
0.893883 0.522725 0.169452
1.000000 0.658710 0.350000
0.000000 0.719151 0.000000
0.191727 0.719151 0.000000
0.458722 0.719151 0.000000
0.719151 0.690790 0.000000
0.719151 0.456027 0.000000
0.719151 0.358981 0.000000
0.719151 0.339561 0.000000
0.893883 0.520009 0.169452
1.000000 0.667870 0.350000
0.169452 0.893883 0.169452
0.328080 0.893883 0.169452
0.552297 0.893883 0.169452
0.789096 0.893883 0.169452
0.893883 0.744594 0.169452
0.893883 0.589573 0.169452
0.893883 0.524595 0.169452
0.893883 0.511505 0.169452
1.000000 0.663447 0.350000
0.350000 1.000000 0.350000
0.470147 1.000000 0.350000
0.640664 1.000000 0.350000
0.826344 1.000000 0.350000
1.000000 0.974366 0.350000
1.000000 0.801720 0.350000
1.000000 0.706492 0.350000
1.000000 0.665137 0.350000
1.000000 0.656910 0.350000
0.000000 0.000000 0.035028
0.035028 0.000000 0.035028
0.144533 0.000000 0.072267
0.271439 0.000000 0.090480
0.410975 0.000000 0.102744
0.560725 0.000000 0.112145
0.719151 0.000000 0.127674
0.893883 0.169452 0.295636
1.000000 0.350000 0.465807
0.000000 0.035028 0.035028
0.035028 0.034596 0.034587
0.144533 0.060369 0.058667
0.271439 0.061806 0.057566
0.410975 0.054538 0.047329
0.560725 0.042452 0.031969
0.719151 0.027120 0.013123
0.893883 0.183814 0.169452
1.000000 0.362886 0.350000
0.000000 0.144533 0.072267
0.067931 0.144533 0.067931
0.144533 0.079578 0.021473
0.271439 0.117619 0.000000
0.410975 0.136992 0.000000
0.560725 0.150112 0.000000
0.719151 0.161274 0.000000
0.893883 0.309594 0.169452
1.000000 0.460860 0.350000
0.000000 0.271439 0.090480
0.079622 0.271439 0.079622
0.271439 0.263006 0.057598
0.271439 0.128165 0.000000
0.410975 0.198344 0.000000
0.560725 0.242972 0.000000
0.719151 0.274074 0.000000
0.893883 0.410929 0.169452
1.000000 0.542922 0.350000
0.000000 0.410975 0.102744
0.084250 0.410975 0.084250
0.292657 0.410975 0.084250
0.410975 0.260607 0.000000
0.410975 0.194049 0.000000
0.560725 0.274212 0.000000
0.719151 0.337153 0.000000
0.893883 0.483361 0.169452
1.000000 0.608518 0.350000
0.000000 0.560725 0.112145
0.085230 0.560725 0.085230
0.297860 0.560725 0.085230
0.560725 0.539875 0.032047
0.560725 0.307529 0.000000
0.560725 0.264757 0.000000
0.719151 0.350974 0.000000
0.893883 0.519075 0.169452
1.000000 0.649292 0.350000
0.000000 0.719151 0.119859
0.083901 0.719151 0.083901
0.297778 0.719151 0.083901
0.585024 0.719151 0.083901
0.719151 0.530844 0.000000
0.719151 0.370565 0.000000
0.719151 0.339561 0.000000
0.893883 0.521464 0.169452
1.000000 0.666977 0.350000
0.169452 0.893883 0.272942
0.235686 0.893883 0.235686
0.411162 0.893883 0.235686
0.655527 0.893883 0.235686
0.893883 0.865314 0.169452
0.893883 0.628827 0.169452
0.893883 0.531069 0.169452
0.893883 0.511505 0.169452
1.000000 0.664539 0.350000
0.350000 1.000000 0.431250
0.397125 1.000000 0.397125
0.529136 1.000000 0.397125
0.715730 1.000000 0.397125
0.912042 1.000000 0.391912
1.000000 0.866050 0.350000
1.000000 0.726957 0.350000
1.000000 0.668654 0.350000
1.000000 0.656910 0.350000
0.000000 0.000000 0.144533
0.072267 0.000000 0.144533
0.144533 0.000000 0.144533
0.271439 0.000000 0.180959
0.410975 0.000000 0.205488
0.560725 0.000000 0.224290
0.719151 0.000000 0.239717
0.893883 0.169452 0.376432
1.000000 0.350000 0.512500
0.000000 0.072267 0.144533
0.067931 0.067931 0.144533
0.144533 0.067931 0.144533
0.271439 0.079622 0.175530
0.410975 0.084250 0.193158
0.560725 0.085230 0.204104
0.719151 0.083901 0.210951
0.893883 0.233258 0.350542
1.000000 0.390759 0.496879
0.000000 0.144533 0.144533
0.067931 0.144533 0.144533
0.144533 0.142747 0.142711
0.271439 0.164945 0.162791
0.410975 0.171658 0.166817
0.560725 0.170288 0.162391
0.719151 0.163749 0.152515
0.893883 0.295080 0.282968
1.000000 0.436258 0.424856
0.000000 0.271439 0.180959
0.079622 0.271439 0.175530
0.175530 0.271439 0.175530
0.271439 0.187093 0.111643
0.410975 0.212509 0.060749
0.560725 0.202776 0.023801
0.719151 0.194085 0.002130
0.893883 0.331910 0.169452
1.000000 0.475743 0.350000
0.000000 0.410975 0.205488
0.084250 0.410975 0.193158
0.193158 0.410975 0.193158
0.410975 0.401348 0.166855
0.410975 0.226277 0.061057
0.560725 0.270616 0.000000
0.719151 0.311622 0.000000
0.893883 0.445538 0.169452
1.000000 0.566667 0.350000
0.000000 0.560725 0.224290
0.085230 0.560725 0.204104
0.204104 0.560725 0.204104
0.431580 0.560725 0.204104
0.560725 0.371719 0.044147
0.560725 0.264757 0.000000
0.719151 0.351687 0.000000
0.893883 0.509080 0.169452
1.000000 0.631657 0.350000
0.000000 0.719151 0.239717
0.083901 0.719151 0.210951
0.210951 0.719151 0.210951
0.438206 0.719151 0.210951
0.719151 0.696809 0.152601
0.719151 0.394418 0.000000
0.719151 0.339561 0.000000
0.893883 0.523003 0.169452
1.000000 0.663702 0.350000
0.169452 0.893883 0.376432
0.235686 0.893883 0.345385
0.345385 0.893883 0.345385
0.530054 0.893883 0.345385
0.778072 0.893883 0.345385
0.893883 0.704192 0.169452
0.893883 0.542738 0.169452
0.893883 0.511505 0.169452
1.000000 0.665845 0.350000
0.350000 1.000000 0.512500
0.397125 1.000000 0.483250
0.483250 1.000000 0.483250
0.621016 1.000000 0.483250
0.812867 1.000000 0.483250
1.000000 0.977321 0.424941
1.000000 0.762177 0.350000
1.000000 0.674463 0.350000
1.000000 0.656910 0.350000
0.000000 0.000000 0.271439
0.090480 0.000000 0.271439
0.180959 0.000000 0.271439
0.271439 0.000000 0.271439
0.410975 0.000000 0.308231
0.560725 0.000000 0.336435
0.719151 0.000000 0.359576
0.893883 0.169452 0.479922
1.000000 0.350000 0.593750
0.000000 0.090480 0.271439
0.079622 0.079622 0.271439
0.175530 0.079622 0.271439
0.271439 0.079622 0.271439
0.410975 0.084250 0.302067
0.560725 0.085230 0.322978
0.719151 0.083901 0.338001
0.893883 0.235686 0.455085
1.000000 0.397125 0.569375
0.000000 0.180959 0.271439
0.079622 0.175530 0.271439
0.175530 0.175530 0.271439
0.271439 0.175530 0.271439
0.410975 0.193158 0.302067
0.560725 0.204104 0.322978
0.719151 0.210951 0.338001
0.893883 0.345385 0.455085
1.000000 0.481310 0.573395
0.000000 0.271439 0.271439
0.079622 0.271439 0.271439
0.175530 0.271439 0.271439
0.271439 0.268084 0.268016
0.410975 0.288777 0.286305
0.560725 0.298123 0.292812
0.719151 0.300378 0.291908
0.893883 0.413050 0.403324
1.000000 0.528876 0.519347
0.000000 0.410975 0.308231
0.084250 0.410975 0.302067
0.193158 0.410975 0.302067
0.302067 0.410975 0.302067
0.410975 0.311768 0.223023
0.560725 0.340071 0.171345
0.719151 0.332227 0.138764
0.893883 0.437107 0.270118
1.000000 0.547236 0.416349
0.000000 0.560725 0.336435
0.085230 0.560725 0.322978
0.204104 0.560725 0.322978
0.322978 0.560725 0.322978
0.560725 0.550161 0.292856
0.560725 0.355384 0.171698
0.719151 0.403117 0.108318
0.893883 0.497784 0.194903
1.000000 0.597720 0.350000
0.000000 0.719151 0.359576
0.083901 0.719151 0.338001
0.210951 0.719151 0.338001
0.338001 0.719151 0.338001
0.581124 0.719151 0.338001
0.719151 0.515024 0.161247
0.719151 0.395955 0.106842
0.893883 0.538535 0.198445
1.000000 0.654734 0.350000
0.169452 0.893883 0.479922
0.235686 0.893883 0.455085
0.345385 0.893883 0.455085
0.455085 0.893883 0.455085
0.651304 0.893883 0.455085
0.893883 0.874540 0.403400
0.893883 0.588426 0.217421
0.893883 0.525258 0.195508
1.000000 0.667226 0.350000
0.350000 1.000000 0.593750
0.397125 1.000000 0.569375
0.483250 1.000000 0.569375
0.569375 1.000000 0.569375
0.714359 1.000000 0.569375
0.909077 1.000000 0.569375
1.000000 0.850030 0.427262
1.000000 0.684933 0.350000
1.000000 0.656910 0.350000
0.000000 0.000000 0.410975
0.102744 0.000000 0.410975
0.205488 0.000000 0.410975
0.308231 0.000000 0.410975
0.410975 0.000000 0.410975
0.560725 0.000000 0.448580
0.719151 0.000000 0.479434
0.893883 0.169452 0.583412
1.000000 0.350000 0.675000
0.000000 0.102744 0.410975
0.084250 0.084250 0.410975
0.193158 0.084250 0.410975
0.302067 0.084250 0.410975
0.410975 0.084250 0.410975
0.560725 0.085230 0.441851
0.719151 0.083901 0.465051
0.893883 0.235686 0.564784
1.000000 0.397125 0.655500
0.000000 0.205488 0.410975
0.084250 0.193158 0.410975
0.193158 0.193158 0.410975
0.302067 0.193158 0.410975
0.410975 0.193158 0.410975
0.560725 0.204104 0.441851
0.719151 0.210951 0.465051
0.893883 0.345385 0.564784
1.000000 0.483250 0.655500
0.000000 0.308231 0.410975
0.084250 0.302067 0.410975
0.193158 0.302067 0.410975
0.302067 0.302067 0.410975
0.410975 0.302067 0.410975
0.560725 0.322978 0.441851
0.719151 0.338001 0.465051
0.893883 0.455085 0.564784
1.000000 0.569375 0.655500
0.000000 0.410975 0.410975
0.084250 0.410975 0.410975
0.193158 0.410975 0.410975
0.302067 0.410975 0.410975
0.410975 0.405896 0.405793
0.560725 0.425959 0.423233
0.719151 0.437006 0.431300
0.893883 0.531020 0.523680
1.000000 0.621494 0.613839
0.000000 0.560725 0.448580
0.085230 0.560725 0.441851
0.204104 0.560725 0.441851
0.322978 0.560725 0.441851
0.441851 0.560725 0.441851
0.560725 0.448697 0.348483
0.719151 0.479015 0.295393
0.893883 0.556038 0.387116
1.000000 0.638705 0.506622
0.000000 0.719151 0.479434
0.083901 0.719151 0.465051
0.210951 0.719151 0.465051
0.338001 0.719151 0.465051
0.465051 0.719151 0.465051
0.719151 0.707801 0.431349
0.719151 0.495687 0.295787
0.893883 0.617644 0.359966
1.000000 0.686105 0.446082
0.169452 0.893883 0.583412
0.235686 0.893883 0.564784
0.345385 0.893883 0.564784
0.455085 0.893883 0.564784
0.564784 0.893883 0.564784
0.774705 0.893883 0.564784
0.893883 0.715802 0.407165
0.893883 0.611370 0.358649
1.000000 0.718422 0.448933
0.350000 1.000000 0.675000
0.397125 1.000000 0.655500
0.483250 1.000000 0.655500
0.569375 1.000000 0.655500
0.655500 1.000000 0.655500
0.809552 1.000000 0.655500
1.000000 0.984773 0.613899
1.000000 0.758062 0.464206
1.000000 0.707881 0.446569
0.000000 0.000000 0.560725
0.112145 0.000000 0.560725
0.224290 0.000000 0.560725
0.336435 0.000000 0.560725
0.448580 0.000000 0.560725
0.560725 0.000000 0.560725
0.719151 0.000000 0.599293
0.893883 0.169452 0.686903
1.000000 0.350000 0.756250
0.000000 0.112145 0.560725
0.085230 0.085230 0.560725
0.204104 0.085230 0.560725
0.322978 0.085230 0.560725
0.441851 0.085230 0.560725
0.560725 0.085230 0.560725
0.719151 0.083901 0.592101
0.893883 0.235686 0.674484
1.000000 0.397125 0.741625
0.000000 0.224290 0.560725
0.085230 0.204104 0.560725
0.204104 0.204104 0.560725
0.322978 0.204104 0.560725
0.441851 0.204104 0.560725
0.560725 0.204104 0.560725
0.719151 0.210951 0.592101
0.893883 0.345385 0.674484
1.000000 0.483250 0.741625
0.000000 0.336435 0.560725
0.085230 0.322978 0.560725
0.204104 0.322978 0.560725
0.322978 0.322978 0.560725
0.441851 0.322978 0.560725
0.560725 0.322978 0.560725
0.719151 0.338001 0.592101
0.893883 0.455085 0.674484
1.000000 0.569375 0.741625
0.000000 0.448580 0.560725
0.085230 0.441851 0.560725
0.204104 0.441851 0.560725
0.322978 0.441851 0.560725
0.441851 0.441851 0.560725
0.560725 0.441851 0.560725
0.719151 0.465051 0.592101
0.893883 0.564784 0.674484
1.000000 0.655500 0.741625
0.000000 0.560725 0.560725
0.085230 0.560725 0.560725
0.204104 0.560725 0.560725
0.322978 0.560725 0.560725
0.441851 0.560725 0.560725
0.560725 0.553795 0.553655
0.719151 0.573635 0.570692
0.893883 0.648990 0.644037
1.000000 0.714112 0.708330
0.000000 0.719151 0.599293
0.083901 0.719151 0.592101
0.210951 0.719151 0.592101
0.338001 0.719151 0.592101
0.465051 0.719151 0.592101
0.592101 0.719151 0.592101
0.719151 0.595418 0.484733
0.893883 0.682824 0.521435
1.000000 0.731806 0.597709
0.169452 0.893883 0.686903
0.235686 0.893883 0.674484
0.345385 0.893883 0.674484
0.455085 0.893883 0.674484
0.564784 0.893883 0.674484
0.674484 0.893883 0.674484
0.893883 0.884031 0.644081
0.893883 0.697481 0.521791
1.000000 0.780484 0.575717
0.350000 1.000000 0.756250
0.397125 1.000000 0.741625
0.483250 1.000000 0.741625
0.569375 1.000000 0.741625
0.655500 1.000000 0.741625
0.741625 1.000000 0.741625
0.906434 1.000000 0.741625
1.000000 0.858751 0.613950
1.000000 0.775487 0.574651
0.000000 0.000000 0.719151
0.119859 0.000000 0.719151
0.239717 0.000000 0.719151
0.359576 0.000000 0.719151
0.479434 0.000000 0.719151
0.599293 0.000000 0.719151
0.719151 0.000000 0.719151
0.893883 0.169452 0.790393
1.000000 0.350000 0.837500
0.000000 0.119859 0.719151
0.083901 0.083901 0.719151
0.210951 0.083901 0.719151
0.338001 0.083901 0.719151
0.465051 0.083901 0.719151
0.592101 0.083901 0.719151
0.719151 0.083901 0.719151
0.893883 0.235686 0.784183
1.000000 0.397125 0.827750
0.000000 0.239717 0.719151
0.083901 0.210951 0.719151
0.210951 0.210951 0.719151
0.338001 0.210951 0.719151
0.465051 0.210951 0.719151
0.592101 0.210951 0.719151
0.719151 0.210951 0.719151
0.893883 0.345385 0.784183
1.000000 0.483250 0.827750
0.000000 0.359576 0.719151
0.083901 0.338001 0.719151
0.210951 0.338001 0.719151
0.338001 0.338001 0.719151
0.465051 0.338001 0.719151
0.592101 0.338001 0.719151
0.719151 0.338001 0.719151
0.893883 0.455085 0.784183
1.000000 0.569375 0.827750
0.000000 0.479434 0.719151
0.083901 0.465051 0.719151
0.210951 0.465051 0.719151
0.338001 0.465051 0.719151
0.465051 0.465051 0.719151
0.592101 0.465051 0.719151
0.719151 0.465051 0.719151
0.893883 0.564784 0.784183
1.000000 0.655500 0.827750
0.000000 0.599293 0.719151
0.083901 0.592101 0.719151
0.210951 0.592101 0.719151
0.338001 0.592101 0.719151
0.465051 0.592101 0.719151
0.592101 0.592101 0.719151
0.719151 0.592101 0.719151
0.893883 0.674484 0.784183
1.000000 0.741625 0.827750
0.000000 0.719151 0.719151
0.083901 0.719151 0.719151
0.210951 0.719151 0.719151
0.338001 0.719151 0.719151
0.465051 0.719151 0.719151
0.592101 0.719151 0.719151
0.719151 0.710264 0.710084
0.893883 0.766960 0.764393
1.000000 0.806731 0.802821
0.169452 0.893883 0.790393
0.235686 0.893883 0.784183
0.345385 0.893883 0.784183
0.455085 0.893883 0.784183
0.564784 0.893883 0.784183
0.674484 0.893883 0.784183
0.784183 0.893883 0.784183
0.893883 0.783593 0.684933
1.000000 0.831380 0.702442
0.350000 1.000000 0.837500
0.397125 1.000000 0.827750
0.483250 1.000000 0.827750
0.569375 1.000000 0.827750
0.655500 1.000000 0.827750
0.741625 1.000000 0.827750
0.827750 1.000000 0.827750
1.000000 0.992225 0.802858
1.000000 0.843093 0.702734
0.169452 0.169452 0.893883
0.272942 0.169452 0.893883
0.376432 0.169452 0.893883
0.479922 0.169452 0.893883
0.583412 0.169452 0.893883
0.686903 0.169452 0.893883
0.790393 0.169452 0.893883
0.893883 0.169452 0.893883
1.000000 0.350000 0.918750
0.169452 0.272942 0.893883
0.235686 0.235686 0.893883
0.345385 0.235686 0.893883
0.455085 0.235686 0.893883
0.564784 0.235686 0.893883
0.674484 0.235686 0.893883
0.784183 0.235686 0.893883
0.893883 0.235686 0.893883
1.000000 0.397125 0.913875
0.169452 0.376432 0.893883
0.235686 0.345385 0.893883
0.345385 0.345385 0.893883
0.455085 0.345385 0.893883
0.564784 0.345385 0.893883
0.674484 0.345385 0.893883
0.784183 0.345385 0.893883
0.893883 0.345385 0.893883
1.000000 0.483250 0.913875
0.169452 0.479922 0.893883
0.235686 0.455085 0.893883
0.345385 0.455085 0.893883
0.455085 0.455085 0.893883
0.564784 0.455085 0.893883
0.674484 0.455085 0.893883
0.784183 0.455085 0.893883
0.893883 0.455085 0.893883
1.000000 0.569375 0.913875
0.169452 0.583412 0.893883
0.235686 0.564784 0.893883
0.345385 0.564784 0.893883
0.455085 0.564784 0.893883
0.564784 0.564784 0.893883
0.674484 0.564784 0.893883
0.784183 0.564784 0.893883
0.893883 0.564784 0.893883
1.000000 0.655500 0.913875
0.169452 0.686903 0.893883
0.235686 0.674484 0.893883
0.345385 0.674484 0.893883
0.455085 0.674484 0.893883
0.564784 0.674484 0.893883
0.674484 0.674484 0.893883
0.784183 0.674484 0.893883
0.893883 0.674484 0.893883
1.000000 0.741625 0.913875
0.169452 0.790393 0.893883
0.235686 0.784183 0.893883
0.345385 0.784183 0.893883
0.455085 0.784183 0.893883
0.564784 0.784183 0.893883
0.674484 0.784183 0.893883
0.784183 0.784183 0.893883
0.893883 0.784183 0.893883
1.000000 0.827750 0.913875
0.169452 0.893883 0.893883
0.235686 0.893883 0.893883
0.345385 0.893883 0.893883
0.455085 0.893883 0.893883
0.564784 0.893883 0.893883
0.674484 0.893883 0.893883
0.784183 0.893883 0.893883
0.893883 0.884930 0.884749
1.000000 0.899349 0.897313
0.350000 1.000000 0.918750
0.397125 1.000000 0.913875
0.483250 1.000000 0.913875
0.569375 1.000000 0.913875
0.655500 1.000000 0.913875
0.741625 1.000000 0.913875
0.827750 1.000000 0.913875
0.913875 1.000000 0.913875
1.000000 0.910699 0.830816
0.350000 0.350000 1.000000
0.431250 0.350000 1.000000
0.512500 0.350000 1.000000
0.593750 0.350000 1.000000
0.675000 0.350000 1.000000
0.756250 0.350000 1.000000
0.837500 0.350000 1.000000
0.918750 0.350000 1.000000
1.000000 0.350000 1.000000
0.350000 0.431250 1.000000
0.397125 0.397125 1.000000
0.483250 0.397125 1.000000
0.569375 0.397125 1.000000
0.655500 0.397125 1.000000
0.741625 0.397125 1.000000
0.827750 0.397125 1.000000
0.913875 0.397125 1.000000
1.000000 0.397125 1.000000
0.350000 0.512500 1.000000
0.397125 0.483250 1.000000
0.483250 0.483250 1.000000
0.569375 0.483250 1.000000
0.655500 0.483250 1.000000
0.741625 0.483250 1.000000
0.827750 0.483250 1.000000
0.913875 0.483250 1.000000
1.000000 0.483250 1.000000
0.350000 0.593750 1.000000
0.397125 0.569375 1.000000
0.483250 0.569375 1.000000
0.569375 0.569375 1.000000
0.655500 0.569375 1.000000
0.741625 0.569375 1.000000
0.827750 0.569375 1.000000
0.913875 0.569375 1.000000
1.000000 0.569375 1.000000
0.350000 0.675000 1.000000
0.397125 0.655500 1.000000
0.483250 0.655500 1.000000
0.569375 0.655500 1.000000
0.655500 0.655500 1.000000
0.741625 0.655500 1.000000
0.827750 0.655500 1.000000
0.913875 0.655500 1.000000
1.000000 0.655500 1.000000
0.350000 0.756250 1.000000
0.397125 0.741625 1.000000
0.483250 0.741625 1.000000
0.569375 0.741625 1.000000
0.655500 0.741625 1.000000
0.741625 0.741625 1.000000
0.827750 0.741625 1.000000
0.913875 0.741625 1.000000
1.000000 0.741625 1.000000
0.350000 0.837500 1.000000
0.397125 0.827750 1.000000
0.483250 0.827750 1.000000
0.569375 0.827750 1.000000
0.655500 0.827750 1.000000
0.741625 0.827750 1.000000
0.827750 0.827750 1.000000
0.913875 0.827750 1.000000
1.000000 0.827750 1.000000
0.350000 0.918750 1.000000
0.397125 0.913875 1.000000
0.483250 0.913875 1.000000
0.569375 0.913875 1.000000
0.655500 0.913875 1.000000
0.741625 0.913875 1.000000
0.827750 0.913875 1.000000
0.913875 0.913875 1.000000
1.000000 0.913875 1.000000
0.350000 1.000000 1.000000
0.397125 1.000000 1.000000
0.483250 1.000000 1.000000
0.569375 1.000000 1.000000
0.655500 1.000000 1.000000
0.741625 1.000000 1.000000
0.827750 1.000000 1.000000
0.913875 1.000000 1.000000
1.000000 0.991967 0.991804
