assets/LUTs/SkinBalanceNeutral65Davinci.cube
TITLE "Generated by Resolve"
#Copyright Sven Bayer - CameraRig 2026
LUT_3D_SIZE 9
0 0 0
0.124987 0 0
0.249989 0 0
0.37499 0 0
0.499992 0 0
0.624994 0 0
0.749996 0 0
0.874998 0 0
1 0 0
0 0.124987 0
0.124987 0.124987 0
0.258564 0.120455 0.0186618
0.366537 0.127932 0
0.499977 0.124987 0
0.624994 0.124987 0
0.749996 0.124987 0
0.874998 0.124987 0
1 0.124987 0
0 0.249989 0
0.124987 0.249989 0
0.249989 0.249989 0
0.377584 0.248859 0.00349432
0.520241 0.239353 0.0436408
0.624994 0.249989 0
0.749996 0.249989 0
0.874998 0.249989 0
1 0.249989 0
0 0.37499 0
0.124987 0.37499 0
0.249989 0.37499 0
0.37499 0.37499 0
0.499992 0.37499 0
0.625025 0.374975 4.57771e-05
0.749996 0.37499 0
0.874998 0.37499 0
1 0.37499 0
0 0.499992 0
0.124987 0.499992 0
0.249989 0.499992 0
0.37499 0.499992 0
0.499992 0.499992 0
0.624994 0.499992 0
0.749996 0.499992 0
0.874998 0.499992 0
1 0.499992 0
0 0.624994 0
0.124987 0.624994 0
0.249989 0.624994 0
0.37499 0.624994 0
0.499992 0.624994 0
0.624994 0.624994 0
0.749996 0.624994 0
0.874998 0.624994 0
1 0.624994 0
0 0.749996 0
0.124987 0.749996 0
0.249989 0.749996 0
0.37499 0.749996 0
0.499992 0.749996 0
0.624994 0.749996 0
0.749996 0.749996 0
0.874998 0.749996 0
1 0.749996 0
0 0.874998 0
0.124987 0.874998 0
0.249989 0.874998 0
0.37499 0.874998 0
0.499992 0.874998 0
0.624994 0.874998 0
0.749996 0.874998 0
0.874998 0.874998 0
1 0.874998 0
0 1 0
0.124987 1 0
0.249989 1 0
0.37499 1 0
0.499992 1 0
0.624994 1 0
0.749996 1 0
0.874998 1 0
1 1 0
0 0 0.124987
0.124987 0 0.124987
0.249989 0 0.124987
0.37499 0 0.124987
0.499992 0 0.124987
0.624994 0 0.124987
0.749996 0 0.124987
0.874998 0 0.124987
1 0 0.124987
0 0.124987 0.124987
0.124987 0.124987 0.124987
0.249989 0.124987 0.124987
0.37499 0.124987 0.124987
0.499992 0.124987 0.124987
0.624994 0.124987 0.124987
0.749996 0.124987 0.124987
0.874998 0.124987 0.124987
1 0.124987 0.124987
0 0.249989 0.124987
0.124987 0.249989 0.124987
0.249989 0.249989 0.124987
0.386191 0.242954 0.159335
0.489525 0.253788 0.117494
0.624979 0.249989 0.124971
0.749996 0.249989 0.124987
0.874998 0.249989 0.124987
1 0.249989 0.124987
0 0.37499 0.124987
0.124987 0.37499 0.124987
0.249989 0.37499 0.124987
0.37499 0.37499 0.124987
0.502586 0.373861 0.128466
0.645243 0.364355 0.168612
0.749996 0.37499 0.124987
0.874998 0.37499 0.124987
1 0.37499 0.124987
0 0.499992 0.124987
0.124987 0.499992 0.124987
0.249989 0.499992 0.124987
0.37499 0.499992 0.124987
0.499992 0.499992 0.124987
0.624994 0.499992 0.124987
0.750027 0.499977 0.125032
0.874998 0.499992 0.124987
1 0.499992 0.124987
0 0.624994 0.124987
0.124987 0.624994 0.124987
0.249989 0.624994 0.124987
0.37499 0.624994 0.124987
0.499992 0.624994 0.124987
0.624994 0.624994 0.124987
0.749996 0.624994 0.124987
0.874998 0.624994 0.124987
1 0.624994 0.124987
0 0.749996 0.124987
0.124987 0.749996 0.124987
0.249989 0.749996 0.124987
0.37499 0.749996 0.124987
0.499992 0.749996 0.124987
0.624994 0.749996 0.124987
0.749996 0.749996 0.124987
0.874998 0.749996 0.124987
1 0.749996 0.124987
0 0.874998 0.124987
0.124987 0.874998 0.124987
0.249989 0.874998 0.124987
0.37499 0.874998 0.124987
0.499992 0.874998 0.124987
0.624994 0.874998 0.124987
0.749996 0.874998 0.124987
0.874998 0.874998 0.124987
1 0.874998 0.124987
0 1 0.124987
0.124987 1 0.124987
0.249989 1 0.124987
0.37499 1 0.124987
0.499992 1 0.124987
0.624994 1 0.124987
0.749996 1 0.124987
0.874998 1 0.124987
1 1 0.124987
0 0 0.249989
0.124987 0 0.249989
0.249989 0 0.249989
0.37499 0 0.249989
0.499992 0 0.249989
0.624994 0 0.249989
0.749996 0 0.249989
0.874998 0 0.249989
1 0 0.249989
0 0.124987 0.249989
0.124987 0.124987 0.249989
0.249989 0.124987 0.249989
0.37499 0.124987 0.249989
0.499992 0.124987 0.249989
0.624994 0.124987 0.249989
0.749996 0.124987 0.249989
0.874998 0.124987 0.249989
1 0.124987 0.249989
0 0.249989 0.249989
0.124987 0.249989 0.249989
0.249989 0.249989 0.249989
0.37499 0.249989 0.249989
0.499992 0.249989 0.249989
0.624994 0.249989 0.249989
0.749996 0.249989 0.249989
0.874998 0.249989 0.249989
1 0.249989 0.249989
0 0.37499 0.249989
0.124987 0.37499 0.249989
0.249989 0.37499 0.249989
0.37499 0.37499 0.249989
0.511193 0.367956 0.284337
0.614527 0.37879 0.242496
0.749981 0.37499 0.249973
0.874998 0.37499 0.249989
1 0.37499 0.249989
0 0.499992 0.249989
0.124987 0.499992 0.249989
0.249989 0.499992 0.249989
0.37499 0.499992 0.249989
0.499992 0.499992 0.249989
0.627588 0.498863 0.253468
0.770245 0.489357 0.293614
0.874998 0.499992 0.249989
1 0.499992 0.249989
0 0.624994 0.249989
0.124987 0.624994 0.249989
0.249989 0.624994 0.249989
0.37499 0.624994 0.249989
0.499992 0.624994 0.249989
0.624994 0.624994 0.249989
0.749996 0.624994 0.249989
0.875029 0.624979 0.250034
1 0.624994 0.249989
0 0.749996 0.249989
0.124987 0.749996 0.249989
0.249989 0.749996 0.249989
0.37499 0.749996 0.249989
0.499992 0.749996 0.249989
0.624994 0.749996 0.249989
0.749996 0.749996 0.249989
0.874998 0.749996 0.249989
1 0.749996 0.249989
0 0.874998 0.249989
0.124987 0.874998 0.249989
0.249989 0.874998 0.249989
0.37499 0.874998 0.249989
0.499992 0.874998 0.249989
0.624994 0.874998 0.249989
0.749996 0.874998 0.249989
0.874998 0.874998 0.249989
1 0.874998 0.249989
0 1 0.249989
0.124987 1 0.249989
0.249989 1 0.249989
0.37499 1 0.249989
0.499992 1 0.249989
0.624994 1 0.249989
0.749996 1 0.249989
0.874998 1 0.249989
1 1 0.249989
0 0 0.37499
0.124987 0 0.37499
0.249989 0 0.37499
0.37499 0 0.37499
0.499992 0 0.37499
0.624994 0 0.37499
0.749996 0 0.37499
0.874998 0 0.37499
1 0 0.37499
0 0.124987 0.37499
0.124987 0.124987 0.37499
0.249989 0.124987 0.37499
0.37499 0.124987 0.37499
0.499992 0.124987 0.37499
0.624994 0.124987 0.37499
0.749996 0.124987 0.37499
0.874998 0.124987 0.37499
1 0.124987 0.37499
0 0.249989 0.37499
0.124987 0.249989 0.37499
0.249989 0.249989 0.37499
0.37499 0.249989 0.37499
0.499992 0.249989 0.37499
0.624994 0.249989 0.37499
0.749996 0.249989 0.37499
0.874998 0.249989 0.37499
1 0.249989 0.37499
0 0.37499 0.37499
0.124987 0.37499 0.37499
0.249989 0.37499 0.37499
0.37499 0.37499 0.37499
0.499992 0.37499 0.37499
0.624994 0.37499 0.37499
0.749996 0.37499 0.37499
0.874998 0.37499 0.37499
1 0.37499 0.37499
0 0.499992 0.37499
0.124987 0.499992 0.37499
0.249989 0.499992 0.37499
0.37499 0.499992 0.37499
0.499992 0.499992 0.37499
0.636194 0.492958 0.409339
0.739528 0.503807 0.367498
0.874983 0.499992 0.374975
1 0.499992 0.37499
0 0.624994 0.37499
0.124987 0.624994 0.37499
0.249989 0.624994 0.37499
0.37499 0.624994 0.37499
0.499992 0.624994 0.37499
0.624994 0.624994 0.37499
0.75259 0.623865 0.37847
0.895247 0.614359 0.418616
1 0.624994 0.37499
0 0.749996 0.37499
0.124987 0.749996 0.37499
0.249989 0.749996 0.37499
0.37499 0.749996 0.37499
0.499992 0.749996 0.37499
0.624994 0.749996 0.37499
0.749996 0.749996 0.37499
0.874998 0.749996 0.37499
1 0.749981 0.375036
0 0.874998 0.37499
0.124987 0.874998 0.37499
0.249989 0.874998 0.37499
0.37499 0.874998 0.37499
0.499992 0.874998 0.37499
0.624994 0.874998 0.37499
0.749996 0.874998 0.37499
0.874998 0.874998 0.37499
1 0.874998 0.37499
0 1 0.37499
0.124987 1 0.37499
0.249989 1 0.37499
0.37499 1 0.37499
0.499992 1 0.37499
0.624994 1 0.37499
0.749996 1 0.37499
0.874998 1 0.37499
1 1 0.37499
0 0 0.499992
0.124987 0 0.499992
0.249989 0 0.499992
0.37499 0 0.499992
0.499992 0 0.499992
0.624994 0 0.499992
0.749996 0 0.499992
0.874998 0 0.499992
1 0 0.499992
0 0.124987 0.499992
0.124987 0.124987 0.499992
0.249989 0.124987 0.499992
0.37499 0.124987 0.499992
0.499992 0.124987 0.499992
0.624994 0.124987 0.499992
0.749996 0.124987 0.499992
0.874998 0.124987 0.499992
1 0.124987 0.499992
0 0.249989 0.499992
0.124987 0.249989 0.499992
0.249989 0.249989 0.499992
0.37499 0.249989 0.499992
0.499992 0.249989 0.499992
0.624994 0.249989 0.499992
0.749996 0.249989 0.499992
0.874998 0.249989 0.499992
1 0.249989 0.499992
0 0.37499 0.499992
0.124987 0.37499 0.499992
0.249989 0.37499 0.499992
0.37499 0.37499 0.499992
0.499992 0.37499 0.499992
0.624994 0.37499 0.499992
0.749996 0.37499 0.499992
0.874998 0.37499 0.499992
1 0.37499 0.499992
0 0.499992 0.499992
0.124987 0.499992 0.499992
0.249989 0.499992 0.499992
0.37499 0.499992 0.499992
0.499992 0.499992 0.499992
0.624994 0.499992 0.499992
0.749996 0.499992 0.499992
0.874998 0.499992 0.499992
1 0.499992 0.499992
0 0.624994 0.499992
0.124987 0.624994 0.499992
0.249989 0.624994 0.499992
0.37499 0.624994 0.499992
0.499992 0.624994 0.499992
0.624994 0.624994 0.499992
0.76109 0.618021 0.534188
0.865583 0.628351 0.493874
0.999985 0.624994 0.499977
0 0.749996 0.499992
0.124987 0.749996 0.499992
0.249989 0.749996 0.499992
0.37499 0.749996 0.499992
0.499992 0.749996 0.499992
0.624994 0.749996 0.499992
0.749996 0.749996 0.499992
0.877592 0.748867 0.503471
1 0.748959 0.5037
0 0.874998 0.499992
0.124987 0.874998 0.499992
0.249989 0.874998 0.499992
0.37499 0.874998 0.499992
0.499992 0.874998 0.499992
0.624994 0.874998 0.499992
0.749996 0.874998 0.499992
0.874998 0.874998 0.499992
1 0.874998 0.499992
0 1 0.499992
0.124987 1 0.499992
0.249989 1 0.499992
0.37499 1 0.499992
0.499992 1 0.499992
0.624994 1 0.499992
0.749996 1 0.499992
0.874998 1 0.499992
1 1 0.499992
0 0 0.624994
0.124987 0 0.624994
0.249989 0 0.624994
0.37499 0 0.624994
0.499992 0 0.624994
0.624994 0 0.624994
0.749996 0 0.624994
0.874998 0 0.624994
1 0 0.624994
0 0.124987 0.624994
0.124987 0.124987 0.624994
0.249989 0.124987 0.624994
0.37499 0.124987 0.624994
0.499992 0.124987 0.624994
0.624994 0.124987 0.624994
0.749996 0.124987 0.624994
0.874998 0.124987 0.624994
1 0.124987 0.624994
0 0.249989 0.624994
0.124987 0.249989 0.624994
0.249989 0.249989 0.624994
0.37499 0.249989 0.624994
0.499992 0.249989 0.624994
0.624994 0.249989 0.624994
0.749996 0.249989 0.624994
0.874998 0.249989 0.624994
1 0.249989 0.624994
0 0.37499 0.624994
0.124987 0.37499 0.624994
0.249989 0.37499 0.624994
0.37499 0.37499 0.624994
0.499992 0.37499 0.624994
0.624994 0.37499 0.624994
0.749996 0.37499 0.624994
0.874998 0.37499 0.624994
1 0.37499 0.624994
0 0.499992 0.624994
0.124987 0.499992 0.624994
0.249989 0.499992 0.624994
0.37499 0.499992 0.624994
0.499992 0.499992 0.624994
0.624994 0.499992 0.624994
0.749996 0.499992 0.624994
0.874998 0.499992 0.624994
1 0.499992 0.624994
0 0.624994 0.624994
0.124987 0.624994 0.624994
0.249989 0.624994 0.624994
0.37499 0.624994 0.624994
0.499992 0.624994 0.624994
0.624994 0.624994 0.624994
0.749996 0.624994 0.624994
0.874998 0.624994 0.624994
1 0.624994 0.624994
0 0.749996 0.624994
0.124987 0.749996 0.624994
0.249989 0.749996 0.624994
0.37499 0.749996 0.624994
0.499992 0.749996 0.624994
0.624994 0.749996 0.624994
0.749996 0.749996 0.624994
0.879225 0.747982 0.632197
0.999786 0.750072 0.624887
0 0.874998 0.624994
0.124987 0.874998 0.624994
0.249989 0.874998 0.624994
0.37499 0.874998 0.624994
0.499992 0.874998 0.624994
0.624994 0.874998 0.624994
0.749996 0.874998 0.624994
0.874998 0.874998 0.624994
1 0.874998 0.624994
0 1 0.624994
0.124987 1 0.624994
0.249989 1 0.624994
0.37499 1 0.624994
0.499992 1 0.624994
0.624994 1 0.624994
0.749996 1 0.624994
0.874998 1 0.624994
1 1 0.624994
0 0 0.749996
0.124987 0 0.749996
0.249989 0 0.749996
0.37499 0 0.749996
0.499992 0 0.749996
0.624994 0 0.749996
0.749996 0 0.749996
0.874998 0 0.749996
1 0 0.749996
0 0.124987 0.749996
0.124987 0.124987 0.749996
0.249989 0.124987 0.749996
0.37499 0.124987 0.749996
0.499992 0.124987 0.749996
0.624994 0.124987 0.749996
0.749996 0.124987 0.749996
0.874998 0.124987 0.749996
1 0.124987 0.749996
0 0.249989 0.749996
0.124987 0.249989 0.749996
0.249989 0.249989 0.749996
0.37499 0.249989 0.749996
0.499992 0.249989 0.749996
0.624994 0.249989 0.749996
0.749996 0.249989 0.749996
0.874998 0.249989 0.749996
1 0.249989 0.749996
0 0.37499 0.749996
0.124987 0.37499 0.749996
0.249989 0.37499 0.749996
0.37499 0.37499 0.749996
0.499992 0.37499 0.749996
0.624994 0.37499 0.749996
0.749996 0.37499 0.749996
0.874998 0.37499 0.749996
1 0.37499 0.749996
0 0.499992 0.749996
0.124987 0.499992 0.749996
0.249989 0.499992 0.749996
0.37499 0.499992 0.749996
0.499992 0.499992 0.749996
0.624994 0.499992 0.749996
0.749996 0.499992 0.749996
0.874998 0.499992 0.749996
1 0.499992 0.749996
0 0.624994 0.749996
0.124987 0.624994 0.749996
0.249989 0.624994 0.749996
0.37499 0.624994 0.749996
0.499992 0.624994 0.749996
0.624994 0.624994 0.749996
0.749996 0.624994 0.749996
0.874998 0.624994 0.749996
1 0.624994 0.749996
0 0.749996 0.749996
0.124987 0.749996 0.749996
0.249989 0.749996 0.749996
0.37499 0.749996 0.749996
0.499992 0.749996 0.749996
0.624994 0.749996 0.749996
0.749996 0.749996 0.749996
0.874998 0.749996 0.749996
1 0.749996 0.749996
0 0.874998 0.749996
0.124987 0.874998 0.749996
0.249989 0.874998 0.749996
0.37499 0.874998 0.749996
0.499992 0.874998 0.749996
0.624994 0.874998 0.749996
0.749996 0.874998 0.749996
0.874998 0.874998 0.749996
1 0.874998 0.749996
0 1 0.749996
0.124987 1 0.749996
0.249989 1 0.749996
0.37499 1 0.749996
0.499992 1 0.749996
0.624994 1 0.749996
0.749996 1 0.749996
0.874998 1 0.749996
1 1 0.749996
0 0 0.874998
0.124987 0 0.874998
0.249989 0 0.874998
0.37499 0 0.874998
0.499992 0 0.874998
0.624994 0 0.874998
0.749996 0 0.874998
0.874998 0 0.874998
1 0 0.874998
0 0.124987 0.874998
0.124987 0.124987 0.874998
0.249989 0.124987 0.874998
0.37499 0.124987 0.874998
0.499992 0.124987 0.874998
0.624994 0.124987 0.874998
0.749996 0.124987 0.874998
0.874998 0.124987 0.874998
1 0.124987 0.874998
0 0.249989 0.874998
0.124987 0.249989 0.874998
0.249989 0.249989 0.874998
0.37499 0.249989 0.874998
0.499992 0.249989 0.874998
0.624994 0.249989 0.874998
0.749996 0.249989 0.874998
0.874998 0.249989 0.874998
1 0.249989 0.874998
0 0.37499 0.874998
0.124987 0.37499 0.874998
0.249989 0.37499 0.874998
0.37499 0.37499 0.874998
0.499992 0.37499 0.874998
0.624994 0.37499 0.874998
0.749996 0.37499 0.874998
0.874998 0.37499 0.874998
1 0.37499 0.874998
0 0.499992 0.874998
0.124987 0.499992 0.874998
0.249989 0.499992 0.874998
0.37499 0.499992 0.874998
0.499992 0.499992 0.874998
0.624994 0.499992 0.874998
0.749996 0.499992 0.874998
0.874998 0.499992 0.874998
1 0.499992 0.874998
0 0.624994 0.874998
0.124987 0.624994 0.874998
0.249989 0.624994 0.874998
0.37499 0.624994 0.874998
0.499992 0.624994 0.874998
0.624994 0.624994 0.874998
0.749996 0.624994 0.874998
0.874998 0.624994 0.874998
1 0.624994 0.874998
0 0.749996 0.874998
0.124987 0.749996 0.874998
0.249989 0.749996 0.874998
0.37499 0.749996 0.874998
0.499992 0.749996 0.874998
0.624994 0.749996 0.874998
0.749996 0.749996 0.874998
0.874998 0.749996 0.874998
1 0.749996 0.874998
0 0.874998 0.874998
0.124987 0.874998 0.874998
0.249989 0.874998 0.874998
0.37499 0.874998 0.874998
0.499992 0.874998 0.874998
0.624994 0.874998 0.874998
0.749996 0.874998 0.874998
0.874998 0.874998 0.874998
1 0.874998 0.874998
0 1 0.874998
0.124987 1 0.874998
0.249989 1 0.874998
0.37499 1 0.874998
0.499992 1 0.874998
0.624994 1 0.874998
0.749996 1 0.874998
0.874998 1 0.874998
1 1 0.874998
0 0 1
0.124987 0 1
0.249989 0 1
0.37499 0 1
0.499992 0 1
0.624994 0 1
0.749996 0 1
0.874998 0 1
1 0 1
0 0.124987 1
0.124987 0.124987 1
0.249989 0.124987 1
0.37499 0.124987 1
0.499992 0.124987 1
0.624994 0.124987 1
0.749996 0.124987 1
0.874998 0.124987 1
1 0.124987 1
0 0.249989 1
0.124987 0.249989 1
0.249989 0.249989 1
0.37499 0.249989 1
0.499992 0.249989 1
0.624994 0.249989 1
0.749996 0.249989 1
0.874998 0.249989 1
1 0.249989 1
0 0.37499 1
0.124987 0.37499 1
0.249989 0.37499 1
0.37499 0.37499 1
0.499992 0.37499 1
0.624994 0.37499 1
0.749996 0.37499 1
0.874998 0.37499 1
1 0.37499 1
0 0.499992 1
0.124987 0.499992 1
0.249989 0.499992 1
0.37499 0.499992 1
0.499992 0.499992 1
0.624994 0.499992 1
0.749996 0.499992 1
0.874998 0.499992 1
1 0.499992 1
0 0.624994 1
0.124987 0.624994 1
0.249989 0.624994 1
0.37499 0.624994 1
0.499992 0.624994 1
0.624994 0.624994 1
0.749996 0.624994 1
0.874998 0.624994 1
1 0.624994 1
0 0.749996 1
0.124987 0.749996 1
0.249989 0.749996 1
0.37499 0.749996 1
0.499992 0.749996 1
0.624994 0.749996 1
0.749996 0.749996 1
0.874998 0.749996 1
1 0.749996 1
0 0.874998 1
0.124987 0.874998 1
0.249989 0.874998 1
0.37499 0.874998 1
0.499992 0.874998 1
0.624994 0.874998 1
0.749996 0.874998 1
0.874998 0.874998 1
1 0.874998 1
0 1 1
0.124987 1 1
0.249989 1 1
0.37499 1 1
0.499992 1 1
0.624994 1 1
0.749996 1 1
0.874998 1 1
1 1 1
