assets/LUTs/skintone_tanline_pop_33.cube
TITLE "SkinTone Tanline Pop"
# Expands separation inside skin: tanned areas get deeper and more saturated, pale areas lighter and cleaner, so tan lines punch. Mild warm pull keeps it coherent.
# Skin-tone selective LUT. Apply to display-referred Rec.709/sRGB (SDR) footage.
# Generated 2026-07-10 with Claude Code.
LUT_3D_SIZE 5
DOMAIN_MIN 0.0 0.0 0.0
DOMAIN_MAX 1.0 1.0 1.0
0.000000 0.000000 0.000000
0.245312 0.000000 0.000000
0.500000 0.000000 0.000000
0.754687 0.000000 0.000000
1.000000 0.000000 0.000000
0.000000 0.245312 0.000000
0.245312 0.245312 0.000000
0.500000 0.250000 0.000000
0.754687 0.251563 0.000000
1.000000 0.250000 0.000000
0.000000 0.500000 0.000000
0.250000 0.500000 0.000000
0.500000 0.500000 0.000000
0.754687 0.503125 0.000000
1.000000 0.500000 0.000000
0.000000 0.754687 0.000000
0.251563 0.754687 0.000000
0.503125 0.754687 0.000000
0.754687 0.754687 0.000000
1.000000 0.750000 0.000000
0.000000 1.000000 0.000000
0.250000 1.000000 0.000000
0.500000 1.000000 0.000000
0.750000 1.000000 0.000000
1.000000 1.000000 0.000000
0.000000 0.000000 0.245312
0.245312 0.000000 0.245312
0.500000 0.000000 0.250000
0.754687 0.000000 0.251562
1.000000 0.000000 0.250000
0.000000 0.245312 0.245312
0.245312 0.245312 0.245312
0.408982 0.197220 0.167977
0.767306 0.256237 0.186539
1.000000 0.250000 0.250000
0.000000 0.500000 0.250000
0.250000 0.500000 0.250000
0.414792 0.348685 0.172576
0.767785 0.448252 0.182726
1.000000 0.500000 0.250000
0.000000 0.754687 0.251563
0.251563 0.754687 0.251563
0.503125 0.754687 0.251563
0.766798 0.610606 0.190355
1.000000 0.750000 0.250000
0.000000 1.000000 0.250000
0.250000 1.000000 0.250000
0.500000 1.000000 0.250000
0.750000 1.000000 0.250000
1.000000 1.000000 0.250000
0.000000 0.000000 0.500000
0.250000 0.000000 0.500000
0.500000 0.000000 0.500000
0.754687 0.000000 0.503125
1.000000 0.000000 0.500000
0.000000 0.250000 0.500000
0.250000 0.250000 0.500000
0.500000 0.250000 0.500000
0.754687 0.251563 0.503125
1.000000 0.250000 0.500000
0.000000 0.500000 0.500000
0.250000 0.500000 0.500000
0.500000 0.500000 0.500000
0.767400 0.507971 0.472145
1.000000 0.500000 0.500000
0.000000 0.754687 0.503125
0.251563 0.754687 0.503125
0.503125 0.754687 0.503125
0.766892 0.687067 0.474417
1.000000 0.750000 0.500000
0.000000 1.000000 0.500000
0.250000 1.000000 0.500000
0.500000 1.000000 0.500000
0.750000 1.000000 0.500000
1.000000 1.000000 0.500000
0.000000 0.000000 0.754687
0.251562 0.000000 0.754687
0.503125 0.000000 0.754687
0.754687 0.000000 0.754687
1.000000 0.000000 0.750000
0.000000 0.251562 0.754687
0.251563 0.251563 0.754687
0.503125 0.251563 0.754687
0.754687 0.251563 0.754687
1.000000 0.250000 0.750000
0.000000 0.503125 0.754687
0.251563 0.503125 0.754687
0.503125 0.503125 0.754687
0.754687 0.503125 0.754687
1.000000 0.500000 0.750000
0.000000 0.754687 0.754687
0.251563 0.754687 0.754687
0.503125 0.754687 0.754687
0.754687 0.754687 0.754687
1.000000 0.750000 0.750000
0.000000 1.000000 0.750000
0.250000 1.000000 0.750000
0.500000 1.000000 0.750000
0.750000 1.000000 0.750000
1.000000 1.000000 0.750000
0.000000 0.000000 1.000000
0.250000 0.000000 1.000000
0.500000 0.000000 1.000000
0.750000 0.000000 1.000000
1.000000 0.000000 1.000000
0.000000 0.250000 1.000000
0.250000 0.250000 1.000000
0.500000 0.250000 1.000000
0.750000 0.250000 1.000000
1.000000 0.250000 1.000000
0.000000 0.500000 1.000000
0.250000 0.500000 1.000000
0.500000 0.500000 1.000000
0.750000 0.500000 1.000000
1.000000 0.500000 1.000000
0.000000 0.750000 1.000000
0.250000 0.750000 1.000000
0.500000 0.750000 1.000000
0.750000 0.750000 1.000000
1.000000 0.750000 1.000000
0.000000 1.000000 1.000000
0.250000 1.000000 1.000000
0.500000 1.000000 1.000000
0.750000 1.000000 1.000000
1.000000 1.000000 1.000000
