assets/LUTs/skintone_caramel_overdrive_33.cube
TITLE "SkinTone Caramel Overdrive"
# Caramel Glow with the dial snapped off: hard pull to golden-orange, heavy richness and density.
# Skin-tone selective LUT. Apply to display-referred Rec.709/sRGB (SDR) footage.
# Generated 2026-07-10 with Claude Code.
LUT_3D_SIZE 33
DOMAIN_MIN 0.0 0.0 0.0
DOMAIN_MAX 1.0 1.0 1.0
0.000000 0.000000 0.000000
0.028412 0.000000 0.000000
0.057373 0.000000 0.000000
0.086847 0.000000 0.000000
0.116797 0.000000 0.000000
0.147186 0.000000 0.000000
0.177979 0.000000 0.000000
0.209137 0.000000 0.000000
0.240625 0.000000 0.000000
0.272406 0.000000 0.000000
0.304443 0.000000 0.000000
0.336700 0.000000 0.000000
0.369141 0.000000 0.000000
0.401727 0.000000 0.000000
0.434424 0.000000 0.000000
0.467194 0.000000 0.000000
0.500000 0.000000 0.000000
0.532806 0.000000 0.000000
0.565576 0.000000 0.000000
0.598273 0.000000 0.000000
0.630859 0.000000 0.000000
0.663300 0.000000 0.000000
0.695557 0.000000 0.000000
0.727594 0.000000 0.000000
0.759375 0.000000 0.000000
0.790863 0.000000 0.000000
0.822021 0.000000 0.000000
0.852814 0.000000 0.000000
0.883203 0.000000 0.000000
0.913153 0.000000 0.000000
0.942627 0.000000 0.000000
0.971588 0.000000 0.000000
1.000000 0.000000 0.000000
0.000000 0.028412 0.000000
0.028412 0.028412 0.000000
0.057373 0.028687 0.000000
0.086847 0.028949 0.000000
0.116797 0.029199 0.000000
0.147186 0.029437 0.000000
0.177979 0.029663 0.000000
0.209137 0.029877 0.000000
0.240625 0.030078 0.000000
0.272406 0.030267 0.000000
0.304443 0.030444 0.000000
0.336700 0.030609 0.000000
0.369141 0.030762 0.000000
0.401727 0.030902 0.000000
0.434424 0.031030 0.000000
0.467194 0.031146 0.000000
0.500000 0.031250 0.000000
0.532806 0.031342 0.000000
0.565576 0.031421 0.000000
0.598273 0.031488 0.000000
0.630859 0.031543 0.000000
0.663300 0.031586 0.000000
0.695557 0.031616 0.000000
0.727594 0.031635 0.000000
0.759375 0.031641 0.000000
0.790863 0.031635 0.000000
0.822021 0.031616 0.000000
0.852814 0.031586 0.000000
0.883203 0.031543 0.000000
0.913153 0.031488 0.000000
0.942627 0.031421 0.000000
0.971588 0.031342 0.000000
1.000000 0.031250 0.000000
0.000000 0.057373 0.000000
0.028687 0.057373 0.000000
0.057373 0.057373 0.000000
0.086847 0.057898 0.000000
0.116797 0.058398 0.000000
0.147186 0.058875 0.000000
0.177979 0.059326 0.000000
0.209137 0.059753 0.000000
0.240625 0.060156 0.000000
0.272406 0.060535 0.000000
0.304443 0.060889 0.000000
0.336700 0.061218 0.000000
0.369141 0.061523 0.000000
0.401727 0.061804 0.000000
0.434424 0.062061 0.000000
0.467194 0.062292 0.000000
0.500000 0.062500 0.000000
0.532806 0.062683 0.000000
0.565576 0.062842 0.000000
0.598273 0.062976 0.000000
0.630859 0.063086 0.000000
0.663300 0.063171 0.000000
0.695557 0.063232 0.000000
0.727594 0.063269 0.000000
0.759375 0.063281 0.000000
0.790863 0.063269 0.000000
0.822021 0.063232 0.000000
0.852814 0.063171 0.000000
0.883203 0.063086 0.000000
0.913153 0.062976 0.000000
0.942627 0.062842 0.000000
0.971588 0.062683 0.000000
1.000000 0.062500 0.000000
0.000000 0.086847 0.000000
0.028949 0.086847 0.000000
0.057898 0.086847 0.000000
0.086847 0.086847 0.000000
0.116797 0.087598 0.000000
0.147186 0.088312 0.000000
0.177979 0.088989 0.000000
0.209137 0.089630 0.000000
0.240625 0.090234 0.000000
0.272406 0.090802 0.000000
0.304443 0.091333 0.000000
0.336700 0.091827 0.000000
0.369141 0.092285 0.000000
0.401727 0.092706 0.000000
0.434424 0.093091 0.000000
0.467194 0.093439 0.000000
0.500000 0.093750 0.000000
0.532806 0.094025 0.000000
0.565576 0.094263 0.000000
0.598273 0.094464 0.000000
0.630859 0.094629 0.000000
0.663300 0.094757 0.000000
0.695557 0.094849 0.000000
0.727594 0.094904 0.000000
0.759375 0.094922 0.000000
0.790863 0.094904 0.000000
0.822021 0.094849 0.000000
0.852814 0.094757 0.000000
0.883203 0.094629 0.000000
0.913153 0.094464 0.000000
0.942627 0.094263 0.000000
0.971588 0.094025 0.000000
1.000000 0.093750 0.000000
0.000000 0.116797 0.000000
0.029199 0.116797 0.000000
0.058398 0.116797 0.000000
0.087598 0.116797 0.000000
0.116797 0.116797 0.000000
0.147186 0.117749 0.000000
0.177979 0.118652 0.000000
0.209137 0.119507 0.000000
0.240625 0.120313 0.000000
0.272406 0.121069 0.000000
0.304443 0.121777 0.000000
0.336700 0.122437 0.000000
0.369141 0.123047 0.000000
0.401727 0.123608 0.000000
0.434424 0.124121 0.000000
0.467194 0.124585 0.000000
0.500000 0.125000 0.000000
0.532806 0.125366 0.000000
0.565576 0.125684 0.000000
0.598273 0.125952 0.000000
0.630859 0.126172 0.000000
0.663300 0.126343 0.000000
0.695557 0.126465 0.000000
0.727594 0.126538 0.000000
0.759375 0.126562 0.000000
0.790863 0.126538 0.000000
0.822021 0.126465 0.000000
0.852814 0.126343 0.000000
0.883203 0.126172 0.000000
0.913153 0.125952 0.000000
0.942627 0.125684 0.000000
0.971588 0.125366 0.000000
1.000000 0.125000 0.000000
0.000000 0.147186 0.000000
0.029437 0.147186 0.000000
0.058875 0.147186 0.000000
0.088312 0.147186 0.000000
0.117749 0.147186 0.000000
0.147186 0.147186 0.000000
0.177979 0.148315 0.000000
0.209137 0.149384 0.000000
0.240625 0.150391 0.000000
0.272406 0.151337 0.000000
0.304443 0.152222 0.000000
0.336700 0.153046 0.000000
0.369141 0.153809 0.000000
0.401727 0.154510 0.000000
0.434424 0.155151 0.000000
0.467194 0.155731 0.000000
0.500000 0.156250 0.000000
0.532806 0.156708 0.000000
0.565576 0.157104 0.000000
0.598273 0.157440 0.000000
0.630859 0.157715 0.000000
0.663300 0.157928 0.000000
0.695557 0.158081 0.000000
0.727594 0.158173 0.000000
0.759375 0.158203 0.000000
0.790863 0.158173 0.000000
0.822021 0.158081 0.000000
0.852814 0.157928 0.000000
0.883203 0.157715 0.000000
0.913153 0.157440 0.000000
0.942627 0.157104 0.000000
0.971588 0.156708 0.000000
1.000000 0.156250 0.000000
0.000000 0.177979 0.000000
0.029663 0.177979 0.000000
0.059326 0.177979 0.000000
0.088989 0.177979 0.000000
0.118652 0.177979 0.000000
0.148315 0.177979 0.000000
0.177979 0.177979 0.000000
0.209137 0.179260 0.000000
0.240625 0.180469 0.000000
0.272406 0.181604 0.000000
0.304443 0.182666 0.000000
0.336700 0.183655 0.000000
0.369141 0.184570 0.000000
0.401727 0.185413 0.000000
0.434424 0.186182 0.000000
0.467194 0.186877 0.000000
0.500000 0.187500 0.000000
0.532806 0.188049 0.000000
0.565576 0.188525 0.000000
0.598273 0.188928 0.000000
0.630859 0.189258 0.000000
0.663300 0.189514 0.000000
0.695557 0.189697 0.000000
0.727594 0.189807 0.000000
0.759375 0.189844 0.000000
0.790863 0.189807 0.000000
0.822021 0.189697 0.000000
0.852814 0.189514 0.000000
0.883203 0.189258 0.000000
0.913153 0.188928 0.000000
0.942627 0.188525 0.000000
0.971588 0.188049 0.000000
1.000000 0.187500 0.000000
0.000000 0.209137 0.000000
0.029877 0.209137 0.000000
0.059753 0.209137 0.000000
0.089630 0.209137 0.000000
0.119507 0.209137 0.000000
0.149384 0.209137 0.000000
0.179260 0.209137 0.000000
0.209137 0.209137 0.000000
0.240625 0.210547 0.000000
0.272406 0.211871 0.000000
0.304443 0.213110 0.000000
0.336700 0.214264 0.000000
0.369141 0.215332 0.000000
0.401727 0.216315 0.000000
0.434424 0.217212 0.000000
0.467194 0.218024 0.000000
0.500000 0.218750 0.000000
0.532806 0.219391 0.000000
0.565576 0.219946 0.000000
0.598273 0.220416 0.000000
0.630859 0.220801 0.000000
0.663300 0.221100 0.000000
0.695557 0.221313 0.000000
0.727594 0.221442 0.000000
0.759375 0.221484 0.000000
0.790863 0.221442 0.000000
0.822021 0.221313 0.000000
0.852814 0.221100 0.000000
0.883203 0.220801 0.000000
0.913153 0.220416 0.000000
0.942627 0.219946 0.000000
0.971588 0.219391 0.000000
1.000000 0.218750 0.000000
0.000000 0.240625 0.000000
0.030078 0.240625 0.000000
0.060156 0.240625 0.000000
0.090234 0.240625 0.000000
0.120313 0.240625 0.000000
0.150391 0.240625 0.000000
0.180469 0.240625 0.000000
0.210547 0.240625 0.000000
0.240625 0.240625 0.000000
0.272406 0.242139 0.000000
0.304443 0.243555 0.000000
0.336700 0.244873 0.000000
0.369141 0.246094 0.000000
0.401727 0.247217 0.000000
0.434424 0.248242 0.000000
0.467194 0.249170 0.000000
0.500000 0.250000 0.000000
0.532806 0.250732 0.000000
0.565576 0.251367 0.000000
0.598273 0.251904 0.000000
0.630859 0.252344 0.000000
0.663300 0.252686 0.000000
0.695557 0.252930 0.000000
0.727594 0.253076 0.000000
0.759375 0.253125 0.000000
0.790863 0.253076 0.000000
0.822021 0.252930 0.000000
0.852814 0.252686 0.000000
0.883203 0.252344 0.000000
0.913153 0.251904 0.000000
0.942627 0.251367 0.000000
0.971588 0.250732 0.000000
1.000000 0.250000 0.000000
0.000000 0.272406 0.000000
0.030267 0.272406 0.000000
0.060535 0.272406 0.000000
0.090802 0.272406 0.000000
0.121069 0.272406 0.000000
0.151337 0.272406 0.000000
0.181604 0.272406 0.000000
0.211871 0.272406 0.000000
0.242139 0.272406 0.000000
0.272406 0.272406 0.000000
0.304443 0.273999 0.000000
0.336700 0.275482 0.000000
0.369141 0.276855 0.000000
0.401727 0.278119 0.000000
0.434424 0.279272 0.000000
0.467194 0.280316 0.000000
0.500000 0.281250 0.000000
0.532806 0.282074 0.000000
0.565576 0.282788 0.000000
0.598273 0.283392 0.000000
0.630859 0.283887 0.000000
0.663300 0.284271 0.000000
0.695557 0.284546 0.000000
0.727594 0.284711 0.000000
0.759375 0.284766 0.000000
0.790863 0.284711 0.000000
0.822021 0.284546 0.000000
0.852814 0.284271 0.000000
0.883203 0.283887 0.000000
0.913153 0.283392 0.000000
0.942627 0.282788 0.000000
0.971588 0.282074 0.000000
1.000000 0.281250 0.000000
0.000000 0.304443 0.000000
0.030444 0.304443 0.000000
0.060889 0.304443 0.000000
0.091333 0.304443 0.000000
0.121777 0.304443 0.000000
0.152222 0.304443 0.000000
0.182666 0.304443 0.000000
0.213110 0.304443 0.000000
0.243555 0.304443 0.000000
0.273999 0.304443 0.000000
0.304443 0.304443 0.000000
0.336700 0.306091 0.000000
0.369141 0.307617 0.000000
0.401727 0.309021 0.000000
0.434424 0.310303 0.000000
0.467194 0.311462 0.000000
0.500000 0.312500 0.000000
0.532806 0.313416 0.000000
0.565576 0.314209 0.000000
0.598273 0.314880 0.000000
0.630859 0.315430 0.000000
0.663300 0.315857 0.000000
0.695557 0.316162 0.000000
0.727594 0.316345 0.000000
0.759375 0.316406 0.000000
0.790863 0.316345 0.000000
0.822021 0.316162 0.000000
0.852814 0.315857 0.000000
0.883203 0.315430 0.000000
0.913153 0.314880 0.000000
0.942627 0.314209 0.000000
0.971588 0.313416 0.000000
1.000000 0.312500 0.000000
0.000000 0.336700 0.000000
0.030609 0.336700 0.000000
0.061218 0.336700 0.000000
0.091827 0.336700 0.000000
0.122437 0.336700 0.000000
0.153046 0.336700 0.000000
0.183655 0.336700 0.000000
0.214264 0.336700 0.000000
0.244873 0.336700 0.000000
0.275482 0.336700 0.000000
0.306091 0.336700 0.000000
0.336700 0.336700 0.000000
0.369141 0.338379 0.000000
0.401727 0.339923 0.000000
0.434424 0.341333 0.000000
0.467194 0.342609 0.000000
0.500000 0.343750 0.000000
0.532806 0.344757 0.000000
0.565576 0.345630 0.000000
0.598273 0.346368 0.000000
0.630859 0.346973 0.000000
0.663300 0.347443 0.000000
0.695557 0.347778 0.000000
0.727594 0.347980 0.000000
0.759375 0.348047 0.000000
0.790863 0.347980 0.000000
0.822021 0.347778 0.000000
0.852814 0.347443 0.000000
0.883203 0.346973 0.000000
0.913153 0.346368 0.000000
0.942627 0.345630 0.000000
0.971588 0.344757 0.000000
1.000000 0.343750 0.000000
0.000000 0.369141 0.000000
0.030762 0.369141 0.000000
0.061523 0.369141 0.000000
0.092285 0.369141 0.000000
0.123047 0.369141 0.000000
0.153809 0.369141 0.000000
0.184570 0.369141 0.000000
0.215332 0.369141 0.000000
0.246094 0.369141 0.000000
0.276855 0.369141 0.000000
0.307617 0.369141 0.000000
0.338379 0.369141 0.000000
0.369141 0.369141 0.000000
0.401727 0.370825 0.000000
0.434424 0.372363 0.000000
0.467194 0.373755 0.000000
0.500000 0.375000 0.000000
0.532806 0.376099 0.000000
0.565576 0.377051 0.000000
0.598273 0.377856 0.000000
0.630859 0.378516 0.000000
0.663300 0.379028 0.000000
0.695557 0.379395 0.000000
0.727594 0.379614 0.000000
0.759375 0.379688 0.000000
0.790863 0.379614 0.000000
0.822021 0.379395 0.000000
0.852814 0.379028 0.000000
0.883203 0.378516 0.000000
0.913153 0.377856 0.000000
0.942627 0.377051 0.000000
0.971588 0.376099 0.000000
1.000000 0.375000 0.000000
0.000000 0.401727 0.000000
0.030902 0.401727 0.000000
0.061804 0.401727 0.000000
0.092706 0.401727 0.000000
0.123608 0.401727 0.000000
0.154510 0.401727 0.000000
0.185413 0.401727 0.000000
0.216315 0.401727 0.000000
0.247217 0.401727 0.000000
0.278119 0.401727 0.000000
0.309021 0.401727 0.000000
0.339923 0.401727 0.000000
0.370825 0.401727 0.000000
0.401727 0.401727 0.000000
0.434424 0.403394 0.000000
0.467194 0.404901 0.000000
0.500000 0.406250 0.000000
0.532806 0.407440 0.000000
0.565576 0.408472 0.000000
0.598273 0.409344 0.000000
0.630859 0.410059 0.000000
0.663300 0.410614 0.000000
0.695557 0.411011 0.000000
0.727594 0.411249 0.000000
0.759375 0.411328 0.000000
0.790863 0.411249 0.000000
0.822021 0.411011 0.000000
0.852814 0.410614 0.000000
0.883203 0.410059 0.000000
0.913153 0.409344 0.000000
0.942627 0.408472 0.000000
0.971588 0.407440 0.000000
1.000000 0.406250 0.000000
0.000000 0.434424 0.000000
0.031030 0.434424 0.000000
0.062061 0.434424 0.000000
0.093091 0.434424 0.000000
0.124121 0.434424 0.000000
0.155151 0.434424 0.000000
0.186182 0.434424 0.000000
0.217212 0.434424 0.000000
0.248242 0.434424 0.000000
0.279272 0.434424 0.000000
0.310303 0.434424 0.000000
0.341333 0.434424 0.000000
0.372363 0.434424 0.000000
0.403394 0.434424 0.000000
0.434424 0.434424 0.000000
0.467194 0.436047 0.000000
0.500000 0.437500 0.000000
0.532806 0.438782 0.000000
0.565576 0.439893 0.000000
0.598273 0.440833 0.000000
0.630859 0.441602 0.000000
0.663300 0.442200 0.000000
0.695557 0.442627 0.000000
0.727594 0.442883 0.000000
0.759375 0.442969 0.000000
0.790863 0.442883 0.000000
0.822021 0.442627 0.000000
0.852814 0.442200 0.000000
0.883203 0.441602 0.000000
0.913153 0.440833 0.000000
0.942627 0.439893 0.000000
0.971588 0.438782 0.000000
1.000000 0.437500 0.000000
0.000000 0.467194 0.000000
0.031146 0.467194 0.000000
0.062292 0.467194 0.000000
0.093439 0.467194 0.000000
0.124585 0.467194 0.000000
0.155731 0.467194 0.000000
0.186877 0.467194 0.000000
0.218024 0.467194 0.000000
0.249170 0.467194 0.000000
0.280316 0.467194 0.000000
0.311462 0.467194 0.000000
0.342609 0.467194 0.000000
0.373755 0.467194 0.000000
0.404901 0.467194 0.000000
0.436047 0.467194 0.000000
0.467194 0.467194 0.000000
0.500000 0.468750 0.000000
0.532806 0.470123 0.000000
0.565576 0.471313 0.000000
0.598273 0.472321 0.000000
0.630859 0.473145 0.000000
0.663300 0.473785 0.000000
0.695557 0.474243 0.000000
0.727594 0.474518 0.000000
0.759375 0.474609 0.000000
0.790863 0.474518 0.000000
0.822021 0.474243 0.000000
0.852814 0.473785 0.000000
0.883203 0.473145 0.000000
0.913153 0.472321 0.000000
0.942627 0.471313 0.000000
0.971588 0.470123 0.000000
1.000000 0.468750 0.000000
0.000000 0.500000 0.000000
0.031250 0.500000 0.000000
0.062500 0.500000 0.000000
0.093750 0.500000 0.000000
0.125000 0.500000 0.000000
0.156250 0.500000 0.000000
0.187500 0.500000 0.000000
0.218750 0.500000 0.000000
0.250000 0.500000 0.000000
0.281250 0.500000 0.000000
0.312500 0.500000 0.000000
0.343750 0.500000 0.000000
0.375000 0.500000 0.000000
0.406250 0.500000 0.000000
0.437500 0.500000 0.000000
0.468750 0.500000 0.000000
0.500000 0.500000 0.000000
0.532806 0.501465 0.000000
0.565576 0.502734 0.000000
0.598273 0.503809 0.000000
0.630859 0.504688 0.000000
0.663300 0.505371 0.000000
0.695557 0.505859 0.000000
0.727594 0.506152 0.000000
0.759375 0.506250 0.000000
0.790863 0.506152 0.000000
0.822021 0.505859 0.000000
0.852814 0.505371 0.000000
0.883203 0.504687 0.000000
0.913153 0.503809 0.000000
0.942627 0.502734 0.000000
0.971588 0.501465 0.000000
1.000000 0.500000 0.000000
0.000000 0.532806 0.000000
0.031342 0.532806 0.000000
0.062683 0.532806 0.000000
0.094025 0.532806 0.000000
0.125366 0.532806 0.000000
0.156708 0.532806 0.000000
0.188049 0.532806 0.000000
0.219391 0.532806 0.000000
0.250732 0.532806 0.000000
0.282074 0.532806 0.000000
0.313416 0.532806 0.000000
0.344757 0.532806 0.000000
0.376099 0.532806 0.000000
0.407440 0.532806 0.000000
0.438782 0.532806 0.000000
0.470123 0.532806 0.000000
0.501465 0.532806 0.000000
0.532806 0.532806 0.000000
0.565576 0.534155 0.000000
0.598273 0.535297 0.000000
0.630859 0.536230 0.000000
0.663300 0.536957 0.000000
0.695557 0.537476 0.000000
0.727594 0.537787 0.000000
0.759375 0.537891 0.000000
0.790863 0.537787 0.000000
0.822021 0.537476 0.000000
0.852814 0.536957 0.000000
0.883203 0.536230 0.000000
0.913153 0.535297 0.000000
0.942627 0.534155 0.000000
0.971588 0.532806 0.000000
1.000000 0.531250 0.000000
0.000000 0.565576 0.000000
0.031421 0.565576 0.000000
0.062842 0.565576 0.000000
0.094263 0.565576 0.000000
0.125684 0.565576 0.000000
0.157104 0.565576 0.000000
0.188525 0.565576 0.000000
0.219946 0.565576 0.000000
0.251367 0.565576 0.000000
0.282788 0.565576 0.000000
0.314209 0.565576 0.000000
0.345630 0.565576 0.000000
0.377051 0.565576 0.000000
0.408472 0.565576 0.000000
0.439893 0.565576 0.000000
0.471313 0.565576 0.000000
0.502734 0.565576 0.000000
0.534155 0.565576 0.000000
0.565576 0.565576 0.000000
0.598273 0.566785 0.000000
0.630859 0.567773 0.000000
0.663300 0.568542 0.000000
0.695557 0.569092 0.000000
0.727594 0.569421 0.000000
0.759375 0.569531 0.000000
0.790863 0.569421 0.000000
0.822021 0.569092 0.000000
0.852814 0.568542 0.000000
0.883203 0.567773 0.000000
0.913153 0.566785 0.000000
0.942627 0.565576 0.000000
0.971588 0.564148 0.000000
1.000000 0.562500 0.000000
0.000000 0.598273 0.000000
0.031488 0.598273 0.000000
0.062976 0.598273 0.000000
0.094464 0.598273 0.000000
0.125952 0.598273 0.000000
0.157440 0.598273 0.000000
0.188928 0.598273 0.000000
0.220416 0.598273 0.000000
0.251904 0.598273 0.000000
0.283392 0.598273 0.000000
0.314880 0.598273 0.000000
0.346368 0.598273 0.000000
0.377856 0.598273 0.000000
0.409344 0.598273 0.000000
0.440833 0.598273 0.000000
0.472321 0.598273 0.000000
0.503809 0.598273 0.000000
0.535297 0.598273 0.000000
0.566785 0.598273 0.000000
0.598273 0.598273 0.000000
0.630859 0.599316 0.000000
0.663300 0.600128 0.000000
0.695557 0.600708 0.000000
0.727594 0.601056 0.000000
0.759375 0.601172 0.000000
0.790863 0.601056 0.000000
0.822021 0.600708 0.000000
0.852814 0.600128 0.000000
0.883203 0.599316 0.000000
0.913153 0.598273 0.000000
0.942627 0.596997 0.000000
0.971588 0.595490 0.000000
1.000000 0.593750 0.000000
0.000000 0.630859 0.000000
0.031543 0.630859 0.000000
0.063086 0.630859 0.000000
0.094629 0.630859 0.000000
0.126172 0.630859 0.000000
0.157715 0.630859 0.000000
0.189258 0.630859 0.000000
0.220801 0.630859 0.000000
0.252344 0.630859 0.000000
0.283887 0.630859 0.000000
0.315430 0.630859 0.000000
0.346973 0.630859 0.000000
0.378516 0.630859 0.000000
0.410059 0.630859 0.000000
0.441602 0.630859 0.000000
0.473145 0.630859 0.000000
0.504687 0.630859 0.000000
0.536230 0.630859 0.000000
0.567773 0.630859 0.000000
0.599316 0.630859 0.000000
0.630859 0.630859 0.000000
0.663300 0.631714 0.000000
0.695557 0.632324 0.000000
0.727594 0.632690 0.000000
0.759375 0.632812 0.000000
0.790863 0.632690 0.000000
0.822021 0.632324 0.000000
0.852814 0.631714 0.000000
0.883203 0.630859 0.000000
0.913153 0.629761 0.000000
0.942627 0.628418 0.000000
0.971588 0.626831 0.000000
1.000000 0.625000 0.000000
0.000000 0.663300 0.000000
0.031586 0.663300 0.000000
0.063171 0.663300 0.000000
0.094757 0.663300 0.000000
0.126343 0.663300 0.000000
0.157928 0.663300 0.000000
0.189514 0.663300 0.000000
0.221100 0.663300 0.000000
0.252686 0.663300 0.000000
0.284271 0.663300 0.000000
0.315857 0.663300 0.000000
0.347443 0.663300 0.000000
0.379028 0.663300 0.000000
0.410614 0.663300 0.000000
0.442200 0.663300 0.000000
0.473785 0.663300 0.000000
0.505371 0.663300 0.000000
0.536957 0.663300 0.000000
0.568542 0.663300 0.000000
0.600128 0.663300 0.000000
0.631714 0.663300 0.000000
0.663300 0.663300 0.000000
0.695557 0.663940 0.000000
0.727594 0.664325 0.000000
0.759375 0.664453 0.000000
0.790863 0.664325 0.000000
0.822021 0.663940 0.000000
0.852814 0.663300 0.000000
0.883203 0.662402 0.000000
0.913153 0.661249 0.000000
0.942627 0.659839 0.000000
0.971588 0.658173 0.000000
1.000000 0.656250 0.000000
0.000000 0.695557 0.000000
0.031616 0.695557 0.000000
0.063232 0.695557 0.000000
0.094849 0.695557 0.000000
0.126465 0.695557 0.000000
0.158081 0.695557 0.000000
0.189697 0.695557 0.000000
0.221313 0.695557 0.000000
0.252930 0.695557 0.000000
0.284546 0.695557 0.000000
0.316162 0.695557 0.000000
0.347778 0.695557 0.000000
0.379395 0.695557 0.000000
0.411011 0.695557 0.000000
0.442627 0.695557 0.000000
0.474243 0.695557 0.000000
0.505859 0.695557 0.000000
0.537476 0.695557 0.000000
0.569092 0.695557 0.000000
0.600708 0.695557 0.000000
0.632324 0.695557 0.000000
0.663940 0.695557 0.000000
0.695557 0.695557 0.000000
0.727594 0.695959 0.000000
0.759375 0.696094 0.000000
0.790863 0.695959 0.000000
0.822021 0.695557 0.000000
0.852814 0.694885 0.000000
0.883203 0.693945 0.000000
0.913153 0.692737 0.000000
0.942627 0.691260 0.000000
0.971588 0.689514 0.000000
1.000000 0.687500 0.000000
0.000000 0.727594 0.000000
0.031635 0.727594 0.000000
0.063269 0.727594 0.000000
0.094904 0.727594 0.000000
0.126538 0.727594 0.000000
0.158173 0.727594 0.000000
0.189807 0.727594 0.000000
0.221442 0.727594 0.000000
0.253076 0.727594 0.000000
0.284711 0.727594 0.000000
0.316345 0.727594 0.000000
0.347980 0.727594 0.000000
0.379614 0.727594 0.000000
0.411249 0.727594 0.000000
0.442883 0.727594 0.000000
0.474518 0.727594 0.000000
0.506152 0.727594 0.000000
0.537787 0.727594 0.000000
0.569421 0.727594 0.000000
0.601056 0.727594 0.000000
0.632690 0.727594 0.000000
0.664325 0.727594 0.000000
0.695959 0.727594 0.000000
0.727594 0.727594 0.000000
0.759375 0.727734 0.000000
0.790863 0.727594 0.000000
0.822021 0.727173 0.000000
0.852814 0.726471 0.000000
0.883203 0.725488 0.000000
0.913153 0.724225 0.000000
0.942627 0.722681 0.000000
0.971588 0.720856 0.000000
1.000000 0.718750 0.000000
0.000000 0.759375 0.000000
0.031641 0.759375 0.000000
0.063281 0.759375 0.000000
0.094922 0.759375 0.000000
0.126562 0.759375 0.000000
0.158203 0.759375 0.000000
0.189844 0.759375 0.000000
0.221484 0.759375 0.000000
0.253125 0.759375 0.000000
0.284766 0.759375 0.000000
0.316406 0.759375 0.000000
0.348047 0.759375 0.000000
0.379688 0.759375 0.000000
0.411328 0.759375 0.000000
0.442969 0.759375 0.000000
0.474609 0.759375 0.000000
0.506250 0.759375 0.000000
0.537891 0.759375 0.000000
0.569531 0.759375 0.000000
0.601172 0.759375 0.000000
0.632813 0.759375 0.000000
0.664453 0.759375 0.000000
0.696094 0.759375 0.000000
0.727734 0.759375 0.000000
0.759375 0.759375 0.000000
0.790863 0.759229 0.000000
0.822021 0.758789 0.000000
0.852814 0.758057 0.000000
0.883203 0.757031 0.000000
0.913153 0.755713 0.000000
0.942627 0.754102 0.000000
0.971588 0.752197 0.000000
1.000000 0.750000 0.000000
0.000000 0.790863 0.000000
0.031635 0.790863 0.000000
0.063269 0.790863 0.000000
0.094904 0.790863 0.000000
0.126538 0.790863 0.000000
0.158173 0.790863 0.000000
0.189807 0.790863 0.000000
0.221442 0.790863 0.000000
0.253076 0.790863 0.000000
0.284711 0.790863 0.000000
0.316345 0.790863 0.000000
0.347980 0.790863 0.000000
0.379614 0.790863 0.000000
0.411249 0.790863 0.000000
0.442883 0.790863 0.000000
0.474518 0.790863 0.000000
0.506152 0.790863 0.000000
0.537787 0.790863 0.000000
0.569421 0.790863 0.000000
0.601056 0.790863 0.000000
0.632690 0.790863 0.000000
0.664325 0.790863 0.000000
0.695959 0.790863 0.000000
0.727594 0.790863 0.000000
0.759229 0.790863 0.000000
0.790863 0.790863 0.000000
0.822021 0.790405 0.000000
0.852814 0.789642 0.000000
0.883203 0.788574 0.000000
0.913153 0.787201 0.000000
0.942627 0.785522 0.000000
0.971588 0.783539 0.000000
1.000000 0.781250 0.000000
0.000000 0.822021 0.000000
0.031616 0.822021 0.000000
0.063232 0.822021 0.000000
0.094849 0.822021 0.000000
0.126465 0.822021 0.000000
0.158081 0.822021 0.000000
0.189697 0.822021 0.000000
0.221313 0.822021 0.000000
0.252930 0.822021 0.000000
0.284546 0.822021 0.000000
0.316162 0.822021 0.000000
0.347778 0.822021 0.000000
0.379395 0.822021 0.000000
0.411011 0.822021 0.000000
0.442627 0.822021 0.000000
0.474243 0.822021 0.000000
0.505859 0.822021 0.000000
0.537476 0.822021 0.000000
0.569092 0.822021 0.000000
