assets/LUTs/skintone_forced_tan_turbo_33.cube
TITLE "SkinTone Forced Tan TURBO"
# Overpowered pale rescue: heavy saturation floor, strong pull to tan, big density in bright mids. Instant beach trip.
# Skin-tone selective LUT. Apply to display-referred Rec.709/sRGB (SDR) footage.
# Generated 2026-07-10 with Claude Code.
LUT_3D_SIZE 33
DOMAIN_MIN 0.0 0.0 0.0
DOMAIN_MAX 1.0 1.0 1.0
0.000000 0.000000 0.000000
0.029547 0.000000 0.000000
0.059424 0.000000 0.000000
0.089608 0.000000 0.000000
0.120078 0.000000 0.000000
0.150812 0.000000 0.000000
0.181787 0.000000 0.000000
0.212982 0.000000 0.000000
0.244375 0.000000 0.000000
0.275944 0.000000 0.000000
0.307666 0.000000 0.000000
0.339520 0.000000 0.000000
0.371484 0.000000 0.000000
0.403536 0.000000 0.000000
0.435654 0.000000 0.000000
0.467816 0.000000 0.000000
0.500000 0.000000 0.000000
0.532184 0.000000 0.000000
0.564346 0.000000 0.000000
0.596464 0.000000 0.000000
0.628516 0.000000 0.000000
0.660480 0.000000 0.000000
0.692334 0.000000 0.000000
0.724056 0.000000 0.000000
0.755625 0.000000 0.000000
0.787018 0.000000 0.000000
0.818213 0.000000 0.000000
0.849188 0.000000 0.000000
0.879922 0.000000 0.000000
0.910392 0.000000 0.000000
0.940576 0.000000 0.000000
0.970453 0.000000 0.000000
1.000000 0.000000 0.000000
0.000000 0.029547 0.000000
0.029547 0.029547 0.000000
0.059424 0.029712 0.000000
0.089608 0.029869 0.000000
0.120078 0.030020 0.000000
0.150812 0.030162 0.000000
0.181787 0.030298 0.000000
0.212982 0.030426 0.000000
0.244375 0.030547 0.000000
0.275944 0.030660 0.000000
0.307666 0.030767 0.000000
0.339520 0.030865 0.000000
0.371484 0.030957 0.000000
0.403536 0.031041 0.000000
0.435654 0.031118 0.000000
0.467816 0.031188 0.000000
0.500000 0.031250 0.000000
0.532184 0.031305 0.000000
0.564346 0.031353 0.000000
0.596464 0.031393 0.000000
0.628516 0.031426 0.000000
0.660480 0.031451 0.000000
0.692334 0.031470 0.000000
0.724056 0.031481 0.000000
0.755625 0.031484 0.000000
0.787018 0.031481 0.000000
0.818213 0.031470 0.000000
0.849188 0.031451 0.000000
0.879922 0.031426 0.000000
0.910392 0.031393 0.000000
0.940576 0.031353 0.000000
0.970453 0.031305 0.000000
1.000000 0.031250 0.000000
0.000000 0.059424 0.000000
0.029712 0.059424 0.000000
0.059424 0.059424 0.000000
0.089608 0.059739 0.000000
0.120078 0.060039 0.000000
0.150812 0.060325 0.000000
0.181787 0.060596 0.000000
0.212982 0.060852 0.000000
0.244375 0.061094 0.000000
0.275944 0.061321 0.000000
0.307666 0.061533 0.000000
0.339520 0.061731 0.000000
0.371484 0.061914 0.000000
0.403536 0.062083 0.000000
0.435654 0.062236 0.000000
0.467816 0.062375 0.000000
0.500000 0.062500 0.000000
0.532184 0.062610 0.000000
0.564346 0.062705 0.000000
0.596464 0.062786 0.000000
0.628516 0.062852 0.000000
0.660480 0.062903 0.000000
0.692334 0.062939 0.000000
0.724056 0.062961 0.000000
0.755625 0.062969 0.000000
0.787018 0.062961 0.000000
0.818213 0.062939 0.000000
0.849188 0.062903 0.000000
0.879922 0.062852 0.000000
0.910392 0.062786 0.000000
0.940576 0.062705 0.000000
0.970453 0.062610 0.000000
1.000000 0.062500 0.000000
0.000000 0.089608 0.000000
0.029869 0.089608 0.000000
0.059739 0.089608 0.000000
0.089608 0.089608 0.000000
0.120078 0.090059 0.000000
0.150812 0.090487 0.000000
0.181787 0.090894 0.000000
0.212982 0.091278 0.000000
0.244375 0.091641 0.000000
0.275944 0.091981 0.000000
0.307666 0.092300 0.000000
0.339520 0.092596 0.000000
0.371484 0.092871 0.000000
0.403536 0.093124 0.000000
0.435654 0.093354 0.000000
0.467816 0.093563 0.000000
0.500000 0.093750 0.000000
0.532184 0.093915 0.000000
0.564346 0.094058 0.000000
0.596464 0.094178 0.000000
0.628516 0.094277 0.000000
0.660480 0.094354 0.000000
0.692334 0.094409 0.000000
0.724056 0.094442 0.000000
0.755625 0.094453 0.000000
0.787018 0.094442 0.000000
0.818213 0.094409 0.000000
0.849188 0.094354 0.000000
0.879922 0.094277 0.000000
0.910392 0.094178 0.000000
0.940576 0.094058 0.000000
0.970453 0.093915 0.000000
1.000000 0.093750 0.000000
0.000000 0.120078 0.000000
0.030020 0.120078 0.000000
0.060039 0.120078 0.000000
0.090059 0.120078 0.000000
0.120078 0.120078 0.000000
0.150812 0.120649 0.000000
0.181787 0.121191 0.000000
0.212982 0.121704 0.000000
0.244375 0.122188 0.000000
0.275944 0.122642 0.000000
0.307666 0.123066 0.000000
0.339520 0.123462 0.000000
0.371484 0.123828 0.000000
0.403536 0.124165 0.000000
0.435654 0.124473 0.000000
0.467816 0.124751 0.000000
0.500000 0.125000 0.000000
0.532184 0.125220 0.000000
0.564346 0.125410 0.000000
0.596464 0.125571 0.000000
0.628516 0.125703 0.000000
0.660480 0.125806 0.000000
0.692334 0.125879 0.000000
0.724056 0.125923 0.000000
0.755625 0.125937 0.000000
0.787018 0.125923 0.000000
0.818213 0.125879 0.000000
0.849188 0.125806 0.000000
0.879922 0.125703 0.000000
0.910392 0.125571 0.000000
0.940576 0.125410 0.000000
0.970453 0.125220 0.000000
1.000000 0.125000 0.000000
0.000000 0.150812 0.000000
0.030162 0.150812 0.000000
0.060325 0.150812 0.000000
0.090487 0.150812 0.000000
0.120649 0.150812 0.000000
0.150812 0.150812 0.000000
0.181787 0.151489 0.000000
0.212982 0.152130 0.000000
0.244375 0.152734 0.000000
0.275944 0.153302 0.000000
0.307666 0.153833 0.000000
0.339520 0.154327 0.000000
0.371484 0.154785 0.000000
0.403536 0.155206 0.000000
0.435654 0.155591 0.000000
0.467816 0.155939 0.000000
0.500000 0.156250 0.000000
0.532184 0.156525 0.000000
0.564346 0.156763 0.000000
0.596464 0.156964 0.000000
0.628516 0.157129 0.000000
0.660480 0.157257 0.000000
0.692334 0.157349 0.000000
0.724056 0.157404 0.000000
0.755625 0.157422 0.000000
0.787018 0.157404 0.000000
0.818213 0.157349 0.000000
0.849188 0.157257 0.000000
0.879922 0.157129 0.000000
0.910392 0.156964 0.000000
0.940576 0.156763 0.000000
0.970453 0.156525 0.000000
1.000000 0.156250 0.000000
0.000000 0.181787 0.000000
0.030298 0.181787 0.000000
0.060596 0.181787 0.000000
0.090894 0.181787 0.000000
0.121191 0.181787 0.000000
0.151489 0.181787 0.000000
0.181787 0.181787 0.000000
0.212982 0.182556 0.000000
0.244375 0.183281 0.000000
0.275944 0.183962 0.000000
0.307666 0.184600 0.000000
0.339520 0.185193 0.000000
0.371484 0.185742 0.000000
0.403536 0.186248 0.000000
0.435654 0.186709 0.000000
0.467816 0.187126 0.000000
0.500000 0.187500 0.000000
0.532184 0.187830 0.000000
0.564346 0.188115 0.000000
0.596464 0.188357 0.000000
0.628516 0.188555 0.000000
0.660480 0.188708 0.000000
0.692334 0.188818 0.000000
0.724056 0.188884 0.000000
0.755625 0.188906 0.000000
0.787018 0.188884 0.000000
0.818213 0.188818 0.000000
0.849188 0.188708 0.000000
0.879922 0.188555 0.000000
0.910392 0.188357 0.000000
0.940576 0.188115 0.000000
0.970453 0.187830 0.000000
1.000000 0.187500 0.000000
0.000000 0.212982 0.000000
0.030426 0.212982 0.000000
0.060852 0.212982 0.000000
0.091278 0.212982 0.000000
0.121704 0.212982 0.000000
0.152130 0.212982 0.000000
0.182556 0.212982 0.000000
0.212982 0.212982 0.000000
0.244375 0.213828 0.000000
0.275944 0.214623 0.000000
0.307666 0.215366 0.000000
0.339520 0.216058 0.000000
0.371484 0.216699 0.000000
0.403536 0.217289 0.000000
0.435654 0.217827 0.000000
0.467816 0.218314 0.000000
0.500000 0.218750 0.000000
0.532184 0.219135 0.000000
0.564346 0.219468 0.000000
0.596464 0.219750 0.000000
0.628516 0.219980 0.000000
0.660480 0.220160 0.000000
0.692334 0.220288 0.000000
0.724056 0.220365 0.000000
0.755625 0.220391 0.000000
0.787018 0.220365 0.000000
0.818213 0.220288 0.000000
0.849188 0.220160 0.000000
0.879922 0.219980 0.000000
0.910392 0.219750 0.000000
0.940576 0.219468 0.000000
0.970453 0.219135 0.000000
1.000000 0.218750 0.000000
0.000000 0.244375 0.000000
0.030547 0.244375 0.000000
0.061094 0.244375 0.000000
0.091641 0.244375 0.000000
0.122188 0.244375 0.000000
0.152734 0.244375 0.000000
0.183281 0.244375 0.000000
0.213828 0.244375 0.000000
0.244375 0.244375 0.000000
0.275944 0.245283 0.000000
0.307666 0.246133 0.000000
0.339520 0.246924 0.000000
0.371484 0.247656 0.000000
0.403536 0.248330 0.000000
0.435654 0.248945 0.000000
0.467816 0.249502 0.000000
0.500000 0.250000 0.000000
0.532184 0.250439 0.000000
0.564346 0.250820 0.000000
0.596464 0.251143 0.000000
0.628516 0.251406 0.000000
0.660480 0.251611 0.000000
0.692334 0.251758 0.000000
0.724056 0.251846 0.000000
0.755625 0.251875 0.000000
0.787018 0.251846 0.000000
0.818213 0.251758 0.000000
0.849188 0.251611 0.000000
0.879922 0.251406 0.000000
0.910392 0.251143 0.000000
0.940576 0.250820 0.000000
0.970453 0.250439 0.000000
1.000000 0.250000 0.000000
0.000000 0.275944 0.000000
0.030660 0.275944 0.000000
0.061321 0.275944 0.000000
0.091981 0.275944 0.000000
0.122642 0.275944 0.000000
0.153302 0.275944 0.000000
0.183962 0.275944 0.000000
0.214623 0.275944 0.000000
0.245283 0.275944 0.000000
0.275944 0.275944 0.000000
0.307666 0.276899 0.000000
0.339520 0.277789 0.000000
0.371484 0.278613 0.000000
0.403536 0.279371 0.000000
0.435654 0.280063 0.000000
0.467816 0.280690 0.000000
0.500000 0.281250 0.000000
0.532184 0.281744 0.000000
0.564346 0.282173 0.000000
0.596464 0.282535 0.000000
0.628516 0.282832 0.000000
0.660480 0.283063 0.000000
0.692334 0.283228 0.000000
0.724056 0.283326 0.000000
0.755625 0.283359 0.000000
0.787018 0.283326 0.000000
0.818213 0.283228 0.000000
0.849188 0.283063 0.000000
0.879922 0.282832 0.000000
0.910392 0.282535 0.000000
0.940576 0.282173 0.000000
0.970453 0.281744 0.000000
1.000000 0.281250 0.000000
0.000000 0.307666 0.000000
0.030767 0.307666 0.000000
0.061533 0.307666 0.000000
0.092300 0.307666 0.000000
0.123066 0.307666 0.000000
0.153833 0.307666 0.000000
0.184600 0.307666 0.000000
0.215366 0.307666 0.000000
0.246133 0.307666 0.000000
0.276899 0.307666 0.000000
0.307666 0.307666 0.000000
0.339520 0.308655 0.000000
0.371484 0.309570 0.000000
0.403536 0.310413 0.000000
0.435654 0.311182 0.000000
0.467816 0.311877 0.000000
0.500000 0.312500 0.000000
0.532184 0.313049 0.000000
0.564346 0.313525 0.000000
0.596464 0.313928 0.000000
0.628516 0.314258 0.000000
0.660480 0.314514 0.000000
0.692334 0.314697 0.000000
0.724056 0.314807 0.000000
0.755625 0.314844 0.000000
0.787018 0.314807 0.000000
0.818213 0.314697 0.000000
0.849188 0.314514 0.000000
0.879922 0.314258 0.000000
0.910392 0.313928 0.000000
0.940576 0.313525 0.000000
0.970453 0.313049 0.000000
1.000000 0.312500 0.000000
0.000000 0.339520 0.000000
0.030865 0.339520 0.000000
0.061731 0.339520 0.000000
0.092596 0.339520 0.000000
0.123462 0.339520 0.000000
0.154327 0.339520 0.000000
0.185193 0.339520 0.000000
0.216058 0.339520 0.000000
0.246924 0.339520 0.000000
0.277789 0.339520 0.000000
0.308655 0.339520 0.000000
0.339520 0.339520 0.000000
0.371484 0.340527 0.000000
0.403536 0.341454 0.000000
0.435654 0.342300 0.000000
0.467816 0.343065 0.000000
0.500000 0.343750 0.000000
0.532184 0.344354 0.000000
0.564346 0.344878 0.000000
0.596464 0.345321 0.000000
0.628516 0.345684 0.000000
0.660480 0.345966 0.000000
0.692334 0.346167 0.000000
0.724056 0.346288 0.000000
0.755625 0.346328 0.000000
0.787018 0.346288 0.000000
0.818213 0.346167 0.000000
0.849188 0.345966 0.000000
0.879922 0.345684 0.000000
0.910392 0.345321 0.000000
0.940576 0.344878 0.000000
0.970453 0.344354 0.000000
1.000000 0.343750 0.000000
0.000000 0.371484 0.000000
0.030957 0.371484 0.000000
0.061914 0.371484 0.000000
0.092871 0.371484 0.000000
0.123828 0.371484 0.000000
0.154785 0.371484 0.000000
0.185742 0.371484 0.000000
0.216699 0.371484 0.000000
0.247656 0.371484 0.000000
0.278613 0.371484 0.000000
0.309570 0.371484 0.000000
0.340527 0.371484 0.000000
0.371484 0.371484 0.000000
0.403536 0.372495 0.000000
0.435654 0.373418 0.000000
0.467816 0.374253 0.000000
0.500000 0.375000 0.000000
0.532184 0.375659 0.000000
0.564346 0.376230 0.000000
0.596464 0.376714 0.000000
0.628516 0.377109 0.000000
0.660480 0.377417 0.000000
0.692334 0.377637 0.000000
0.724056 0.377769 0.000000
0.755625 0.377812 0.000000
0.787018 0.377769 0.000000
0.818213 0.377637 0.000000
0.849188 0.377417 0.000000
0.879922 0.377109 0.000000
0.910392 0.376714 0.000000
0.940576 0.376230 0.000000
0.970453 0.375659 0.000000
1.000000 0.375000 0.000000
0.000000 0.403536 0.000000
0.031041 0.403536 0.000000
0.062083 0.403536 0.000000
0.093124 0.403536 0.000000
0.124165 0.403536 0.000000
0.155206 0.403536 0.000000
0.186248 0.403536 0.000000
0.217289 0.403536 0.000000
0.248330 0.403536 0.000000
0.279371 0.403536 0.000000
0.310413 0.403536 0.000000
0.341454 0.403536 0.000000
0.372495 0.403536 0.000000
0.403536 0.403536 0.000000
0.435654 0.404536 0.000000
0.467816 0.405441 0.000000
0.500000 0.406250 0.000000
0.532184 0.406964 0.000000
0.564346 0.407583 0.000000
0.596464 0.408107 0.000000
0.628516 0.408535 0.000000
0.660480 0.408868 0.000000
0.692334 0.409106 0.000000
0.724056 0.409249 0.000000
0.755625 0.409297 0.000000
0.787018 0.409249 0.000000
0.818213 0.409106 0.000000
0.849188 0.408868 0.000000
0.879922 0.408535 0.000000
0.910392 0.408107 0.000000
0.940576 0.407583 0.000000
0.970453 0.406964 0.000000
1.000000 0.406250 0.000000
0.000000 0.435654 0.000000
0.031118 0.435654 0.000000
0.062236 0.435654 0.000000
0.093354 0.435654 0.000000
0.124473 0.435654 0.000000
0.155591 0.435654 0.000000
0.186709 0.435654 0.000000
0.217827 0.435654 0.000000
0.248945 0.435654 0.000000
0.280063 0.435654 0.000000
0.311182 0.435654 0.000000
0.342300 0.435654 0.000000
0.373418 0.435654 0.000000
0.404536 0.435654 0.000000
0.435654 0.435654 0.000000
0.467816 0.436628 0.000000
0.500000 0.437500 0.000000
0.532184 0.438269 0.000000
0.564346 0.438936 0.000000
0.596464 0.439500 0.000000
0.628516 0.439961 0.000000
0.660480 0.440320 0.000000
0.692334 0.440576 0.000000
0.724056 0.440730 0.000000
0.755625 0.440781 0.000000
0.787018 0.440730 0.000000
0.818213 0.440576 0.000000
0.849188 0.440320 0.000000
0.879922 0.439961 0.000000
0.910392 0.439500 0.000000
0.940576 0.438936 0.000000
0.970453 0.438269 0.000000
1.000000 0.437500 0.000000
0.000000 0.467816 0.000000
0.031188 0.467816 0.000000
0.062375 0.467816 0.000000
0.093563 0.467816 0.000000
0.124751 0.467816 0.000000
0.155939 0.467816 0.000000
0.187126 0.467816 0.000000
0.218314 0.467816 0.000000
0.249502 0.467816 0.000000
0.280690 0.467816 0.000000
0.311877 0.467816 0.000000
0.343065 0.467816 0.000000
0.374253 0.467816 0.000000
0.405441 0.467816 0.000000
0.436628 0.467816 0.000000
0.467816 0.467816 0.000000
0.500000 0.468750 0.000000
0.532184 0.469574 0.000000
0.564346 0.470288 0.000000
0.596464 0.470892 0.000000
0.628516 0.471387 0.000000
0.660480 0.471771 0.000000
0.692334 0.472046 0.000000
0.724056 0.472211 0.000000
0.755625 0.472266 0.000000
0.787018 0.472211 0.000000
0.818213 0.472046 0.000000
0.849188 0.471771 0.000000
0.879922 0.471387 0.000000
0.910392 0.470892 0.000000
0.940576 0.470288 0.000000
0.970453 0.469574 0.000000
1.000000 0.468750 0.000000
0.000000 0.500000 0.000000
0.031250 0.500000 0.000000
0.062500 0.500000 0.000000
0.093750 0.500000 0.000000
0.125000 0.500000 0.000000
0.156250 0.500000 0.000000
0.187500 0.500000 0.000000
0.218750 0.500000 0.000000
0.250000 0.500000 0.000000
0.281250 0.500000 0.000000
0.312500 0.500000 0.000000
0.343750 0.500000 0.000000
0.375000 0.500000 0.000000
0.406250 0.500000 0.000000
0.437500 0.500000 0.000000
0.468750 0.500000 0.000000
0.500000 0.500000 0.000000
0.532184 0.500879 0.000000
0.564346 0.501641 0.000000
0.596464 0.502285 0.000000
0.628516 0.502812 0.000000
0.660480 0.503223 0.000000
0.692334 0.503516 0.000000
0.724056 0.503691 0.000000
0.755625 0.503750 0.000000
0.787018 0.503691 0.000000
0.818213 0.503516 0.000000
0.849188 0.503223 0.000000
0.879922 0.502812 0.000000
0.910392 0.502285 0.000000
0.940576 0.501641 0.000000
0.970453 0.500879 0.000000
1.000000 0.500000 0.000000
0.000000 0.532184 0.000000
0.031305 0.532184 0.000000
0.062610 0.532184 0.000000
0.093915 0.532184 0.000000
0.125220 0.532184 0.000000
0.156525 0.532184 0.000000
0.187830 0.532184 0.000000
0.219135 0.532184 0.000000
0.250439 0.532184 0.000000
0.281744 0.532184 0.000000
0.313049 0.532184 0.000000
0.344354 0.532184 0.000000
0.375659 0.532184 0.000000
0.406964 0.532184 0.000000
0.438269 0.532184 0.000000
0.469574 0.532184 0.000000
0.500879 0.532184 0.000000
0.532184 0.532184 0.000000
0.564346 0.532993 0.000000
0.596464 0.533678 0.000000
0.628516 0.534238 0.000000
0.660480 0.534674 0.000000
0.692334 0.534985 0.000000
0.724056 0.535172 0.000000
0.755625 0.535234 0.000000
0.787018 0.535172 0.000000
0.818213 0.534985 0.000000
0.849188 0.534674 0.000000
0.879922 0.534238 0.000000
0.910392 0.533678 0.000000
0.940576 0.532993 0.000000
0.970453 0.532184 0.000000
1.000000 0.531250 0.000000
0.000000 0.564346 0.000000
0.031353 0.564346 0.000000
0.062705 0.564346 0.000000
0.094058 0.564346 0.000000
0.125410 0.564346 0.000000
0.156763 0.564346 0.000000
0.188115 0.564346 0.000000
0.219468 0.564346 0.000000
0.250820 0.564346 0.000000
0.282173 0.564346 0.000000
0.313525 0.564346 0.000000
0.344878 0.564346 0.000000
0.376230 0.564346 0.000000
0.407583 0.564346 0.000000
0.438936 0.564346 0.000000
0.470288 0.564346 0.000000
0.501641 0.564346 0.000000
0.532993 0.564346 0.000000
0.564346 0.564346 0.000000
0.596464 0.565071 0.000000
0.628516 0.565664 0.000000
0.660480 0.566125 0.000000
0.692334 0.566455 0.000000
0.724056 0.566653 0.000000
0.755625 0.566719 0.000000
0.787018 0.566653 0.000000
0.818213 0.566455 0.000000
0.849188 0.566125 0.000000
0.879922 0.565664 0.000000
0.910392 0.565071 0.000000
0.940576 0.564346 0.000000
0.970453 0.563489 0.000000
1.000000 0.562500 0.000000
0.000000 0.596464 0.000000
0.031393 0.596464 0.000000
0.062786 0.596464 0.000000
0.094178 0.596464 0.000000
0.125571 0.596464 0.000000
0.156964 0.596464 0.000000
0.188357 0.596464 0.000000
0.219750 0.596464 0.000000
0.251143 0.596464 0.000000
0.282535 0.596464 0.000000
0.313928 0.596464 0.000000
0.345321 0.596464 0.000000
0.376714 0.596464 0.000000
0.408107 0.596464 0.000000
0.439500 0.596464 0.000000
0.470892 0.596464 0.000000
0.502285 0.596464 0.000000
0.533678 0.596464 0.000000
0.565071 0.596464 0.000000
0.596464 0.596464 0.000000
0.628516 0.597090 0.000000
0.660480 0.597577 0.000000
0.692334 0.597925 0.000000
0.724056 0.598134 0.000000
0.755625 0.598203 0.000000
0.787018 0.598134 0.000000
0.818213 0.597925 0.000000
0.849188 0.597577 0.000000
0.879922 0.597090 0.000000
0.910392 0.596464 0.000000
0.940576 0.595698 0.000000
0.970453 0.594794 0.000000
1.000000 0.593750 0.000000
0.000000 0.628516 0.000000
0.031426 0.628516 0.000000
0.062852 0.628516 0.000000
0.094277 0.628516 0.000000
0.125703 0.628516 0.000000
0.157129 0.628516 0.000000
0.188555 0.628516 0.000000
0.219980 0.628516 0.000000
0.251406 0.628516 0.000000
0.282832 0.628516 0.000000
0.314258 0.628516 0.000000
0.345684 0.628516 0.000000
0.377109 0.628516 0.000000
0.408535 0.628516 0.000000
0.439961 0.628516 0.000000
0.471387 0.628516 0.000000
0.502812 0.628516 0.000000
0.534238 0.628516 0.000000
0.565664 0.628516 0.000000
0.597090 0.628516 0.000000
0.628516 0.628516 0.000000
0.660480 0.629028 0.000000
0.692334 0.629395 0.000000
0.724056 0.629614 0.000000
0.755625 0.629688 0.000000
0.787018 0.629614 0.000000
0.818213 0.629395 0.000000
0.849188 0.629028 0.000000
0.879922 0.628516 0.000000
0.910392 0.627856 0.000000
0.940576 0.627051 0.000000
0.970453 0.626099 0.000000
1.000000 0.625000 0.000000
0.000000 0.660480 0.000000
0.031451 0.660480 0.000000
0.062903 0.660480 0.000000
0.094354 0.660480 0.000000
0.125806 0.660480 0.000000
0.157257 0.660480 0.000000
0.188708 0.660480 0.000000
0.220160 0.660480 0.000000
0.251611 0.660480 0.000000
0.283063 0.660480 0.000000
0.314514 0.660480 0.000000
0.345966 0.660480 0.000000
0.377417 0.660480 0.000000
0.408868 0.660480 0.000000
0.440320 0.660480 0.000000
0.471771 0.660480 0.000000
0.503223 0.660480 0.000000
0.534674 0.660480 0.000000
0.566125 0.660480 0.000000
0.597577 0.660480 0.000000
0.629028 0.660480 0.000000
0.660480 0.660480 0.000000
0.692334 0.660864 0.000000
0.724056 0.661095 0.000000
0.755625 0.661172 0.000000
0.787018 0.661095 0.000000
0.818213 0.660864 0.000000
0.849188 0.660480 0.000000
0.879922 0.659941 0.000000
0.910392 0.659249 0.000000
0.940576 0.658403 0.000000
0.970453 0.657404 0.000000
1.000000 0.656250 0.000000
0.000000 0.692334 0.000000
0.031470 0.692334 0.000000
0.062939 0.692334 0.000000
0.094409 0.692334 0.000000
0.125879 0.692334 0.000000
0.157349 0.692334 0.000000
0.188818 0.692334 0.000000
0.220288 0.692334 0.000000
0.251758 0.692334 0.000000
0.283228 0.692334 0.000000
0.314697 0.692334 0.000000
0.346167 0.692334 0.000000
0.377637 0.692334 0.000000
0.409106 0.692334 0.000000
0.440576 0.692334 0.000000
0.472046 0.692334 0.000000
0.503516 0.692334 0.000000
0.534985 0.692334 0.000000
0.566455 0.692334 0.000000
0.597925 0.692334 0.000000
0.629395 0.692334 0.000000
0.660864 0.692334 0.000000
0.692334 0.692334 0.000000
0.724056 0.692576 0.000000
0.755625 0.692656 0.000000
0.787018 0.692576 0.000000
0.818213 0.692334 0.000000
0.849188 0.691931 0.000000
0.879922 0.691367 0.000000
0.910392 0.690642 0.000000
0.940576 0.689756 0.000000
0.970453 0.688708 0.000000
1.000000 0.687500 0.000000
0.000000 0.724056 0.000000
0.031481 0.724056 0.000000
0.062961 0.724056 0.000000
0.094442 0.724056 0.000000
0.125923 0.724056 0.000000
0.157404 0.724056 0.000000
0.188884 0.724056 0.000000
0.220365 0.724056 0.000000
0.251846 0.724056 0.000000
0.283326 0.724056 0.000000
0.314807 0.724056 0.000000
0.346288 0.724056 0.000000
0.377769 0.724056 0.000000
0.409249 0.724056 0.000000
0.440730 0.724056 0.000000
0.472211 0.724056 0.000000
0.503691 0.724056 0.000000
0.535172 0.724056 0.000000
0.566653 0.724056 0.000000
0.598134 0.724056 0.000000
0.629614 0.724056 0.000000
0.661095 0.724056 0.000000
0.692576 0.724056 0.000000
0.724056 0.724056 0.000000
0.755625 0.724141 0.000000
0.787018 0.724056 0.000000
0.818213 0.723804 0.000000
0.849188 0.723383 0.000000
0.879922 0.722793 0.000000
0.910392 0.722035 0.000000
0.940576 0.721108 0.000000
0.970453 0.720013 0.000000
1.000000 0.718750 0.000000
0.000000 0.755625 0.000000
0.031484 0.755625 0.000000
0.062969 0.755625 0.000000
0.094453 0.755625 0.000000
0.125937 0.755625 0.000000
0.157422 0.755625 0.000000
0.188906 0.755625 0.000000
0.220391 0.755625 0.000000
0.251875 0.755625 0.000000
0.283359 0.755625 0.000000
0.314844 0.755625 0.000000
0.346328 0.755625 0.000000
0.377812 0.755625 0.000000
0.409297 0.755625 0.000000
0.440781 0.755625 0.000000
0.472266 0.755625 0.000000
0.503750 0.755625 0.000000
0.535234 0.755625 0.000000
0.566719 0.755625 0.000000
0.598203 0.755625 0.000000
0.629688 0.755625 0.000000
0.661172 0.755625 0.000000
0.692656 0.755625 0.000000
0.724141 0.755625 0.000000
0.755625 0.755625 0.000000
0.787018 0.755537 0.000000
0.818213 0.755273 0.000000
0.849188 0.754834 0.000000
0.879922 0.754219 0.000000
0.910392 0.753428 0.000000
0.940576 0.752461 0.000000
0.970453 0.751318 0.000000
1.000000 0.750000 0.000000
0.000000 0.787018 0.000000
0.031481 0.787018 0.000000
0.062961 0.787018 0.000000
0.094442 0.787018 0.000000
0.125923 0.787018 0.000000
0.157404 0.787018 0.000000
0.188884 0.787018 0.000000
0.220365 0.787018 0.000000
0.251846 0.787018 0.000000
0.283326 0.787018 0.000000
0.314807 0.787018 0.000000
0.346288 0.787018 0.000000
0.377769 0.787018 0.000000
0.409249 0.787018 0.000000
0.440730 0.787018 0.000000
0.472211 0.787018 0.000000
0.503691 0.787018 0.000000
0.535172 0.787018 0.000000
0.566653 0.787018 0.000000
0.598134 0.787018 0.000000
0.629614 0.787018 0.000000
0.661095 0.787018 0.000000
0.692576 0.787018 0.000000
0.724056 0.787018 0.000000
0.755537 0.787018 0.000000
0.787018 0.787018 0.000000
0.818213 0.786743 0.000000
0.849188 0.786285 0.000000
0.879922 0.785645 0.000000
0.910392 0.784821 0.000000
0.940576 0.783813 0.000000
0.970453 0.782623 0.000000
1.000000 0.781250 0.000000
0.000000 0.818213 0.000000
0.031470 0.818213 0.000000
0.062939 0.818213 0.000000
0.094409 0.818213 0.000000
0.125879 0.818213 0.000000
0.157349 0.818213 0.000000
0.188818 0.818213 0.000000
0.220288 0.818213 0.000000
0.251758 0.818213 0.000000
0.283228 0.818213 0.000000
0.314697 0.818213 0.000000
0.346167 0.818213 0.000000
0.377637 0.818213 0.000000
0.409106 0.818213 0.000000
0.440576 0.818213 0.000000
0.472046 0.818213 0.000000
0.503516 0.818213 0.000000
0.534985 0.818213 0.000000
