assets/LUTs/skintone_forced_tan_turbo_33.cube
TITLE "SkinTone Forced Tan TURBO"
# Overpowered pale rescue: heavy saturation floor, strong pull to tan, big density in bright mids. Instant beach trip.
# Skin-tone selective LUT. Apply to display-referred Rec.709/sRGB (SDR) footage.
# Generated 2026-07-10 with Claude Code.
LUT_3D_SIZE 9
DOMAIN_MIN 0.0 0.0 0.0
DOMAIN_MAX 1.0 1.0 1.0
0.000000 0.000000 0.000000
0.120078 0.000000 0.000000
0.244375 0.000000 0.000000
0.371484 0.000000 0.000000
0.500000 0.000000 0.000000
0.628516 0.000000 0.000000
0.755625 0.000000 0.000000
0.879922 0.000000 0.000000
1.000000 0.000000 0.000000
0.000000 0.120078 0.000000
0.120078 0.120078 0.000000
0.244375 0.122188 0.000000
0.371484 0.123828 0.000000
0.500000 0.125000 0.000000
0.628516 0.125703 0.000000
0.755625 0.125937 0.000000
0.879922 0.125703 0.000000
1.000000 0.125000 0.000000
0.000000 0.244375 0.000000
0.122188 0.244375 0.000000
0.244375 0.244375 0.000000
0.371484 0.247656 0.000000
0.500000 0.250000 0.000000
0.628516 0.251406 0.000000
0.755625 0.251875 0.000000
0.879922 0.251406 0.000000
1.000000 0.250000 0.000000
0.000000 0.371484 0.000000
0.123828 0.371484 0.000000
0.247656 0.371484 0.000000
0.371484 0.371484 0.000000
0.500000 0.375000 0.000000
0.628516 0.377109 0.000000
0.755625 0.377812 0.000000
0.879922 0.377109 0.000000
1.000000 0.375000 0.000000
0.000000 0.500000 0.000000
0.125000 0.500000 0.000000
0.250000 0.500000 0.000000
0.375000 0.500000 0.000000
0.500000 0.500000 0.000000
0.628516 0.502812 0.000000
0.755625 0.503750 0.000000
0.879922 0.502812 0.000000
1.000000 0.500000 0.000000
0.000000 0.628516 0.000000
0.125703 0.628516 0.000000
0.251406 0.628516 0.000000
0.377109 0.628516 0.000000
0.502812 0.628516 0.000000
0.628516 0.628516 0.000000
0.755625 0.629688 0.000000
0.879922 0.628516 0.000000
1.000000 0.625000 0.000000
0.000000 0.755625 0.000000
0.125937 0.755625 0.000000
0.251875 0.755625 0.000000
0.377812 0.755625 0.000000
0.503750 0.755625 0.000000
0.629688 0.755625 0.000000
0.755625 0.755625 0.000000
0.879922 0.754219 0.000000
1.000000 0.750000 0.000000
0.000000 0.879922 0.000000
0.125703 0.879922 0.000000
0.251406 0.879922 0.000000
0.377109 0.879922 0.000000
0.502813 0.879922 0.000000
0.628516 0.879922 0.000000
0.754219 0.879922 0.000000
0.879922 0.879922 0.000000
1.000000 0.875000 0.000000
0.000000 1.000000 0.000000
0.125000 1.000000 0.000000
0.250000 1.000000 0.000000
0.375000 1.000000 0.000000
0.500000 1.000000 0.000000
0.625000 1.000000 0.000000
0.750000 1.000000 0.000000
0.875000 1.000000 0.000000
1.000000 1.000000 0.000000
0.000000 0.000000 0.120078
0.120078 0.000000 0.120078
0.244375 0.000000 0.122188
0.371484 0.000000 0.123828
0.500000 0.000000 0.125000
0.628516 0.000000 0.125703
0.755625 0.000000 0.125938
0.879922 0.000000 0.125703
1.000000 0.000000 0.125000
0.000000 0.120078 0.120078
0.120078 0.120078 0.120078
0.170250 0.092739 0.072669
0.288064 0.120327 0.077492
0.441183 0.142924 0.093589
0.597428 0.149813 0.107820
0.742332 0.147669 0.116391
0.876089 0.141548 0.121002
1.000000 0.125000 0.125000
0.000000 0.244375 0.122188
0.122188 0.244375 0.122188
0.172946 0.140194 0.074371
0.286234 0.168078 0.076538
0.439798 0.215101 0.092878
0.596667 0.244672 0.107390
0.742001 0.256657 0.116156
0.875993 0.258640 0.120885
1.000000 0.250000 0.125000
0.000000 0.371484 0.123828
0.123828 0.371484 0.123828
0.247656 0.371484 0.123828
0.291272 0.221313 0.079172
0.439798 0.286850 0.092878
0.596667 0.338937 0.107390
0.742001 0.365100 0.116156
0.875993 0.375335 0.120885
1.000000 0.375000 0.125000
0.000000 0.500000 0.125000
0.125000 0.500000 0.125000
0.250000 0.500000 0.125000
0.383827 0.495727 0.122643
0.443598 0.352323 0.094834
0.596667 0.430990 0.107390
0.742001 0.473544 0.116156
0.875993 0.492029 0.120885
1.000000 0.500000 0.125000
0.000000 0.628516 0.125703
0.125703 0.628516 0.125703
0.251406 0.628516 0.125703
0.377109 0.628516 0.125703
0.530782 0.620408 0.120977
0.598753 0.510772 0.108568
0.742001 0.575060 0.116156
0.875993 0.608178 0.120885
1.000000 0.625000 0.125000
0.000000 0.755625 0.125937
0.125937 0.755625 0.125937
0.251875 0.755625 0.125937
0.377812 0.755625 0.125937
0.504035 0.755587 0.125910
0.663806 0.750204 0.122026
0.742907 0.672791 0.116801
0.875993 0.717516 0.120885
1.000000 0.750000 0.125000
0.000000 0.879922 0.125703
0.125703 0.879922 0.125703
0.251406 0.879922 0.125703
0.377109 0.879922 0.125703
0.502812 0.879922 0.125703
0.633061 0.879658 0.125379
0.783668 0.877956 0.123289
0.876256 0.828562 0.121206
1.000000 0.875000 0.125000
0.000000 1.000000 0.125000
0.125000 1.000000 0.125000
0.250000 1.000000 0.125000
0.375000 1.000000 0.125000
0.500000 1.000000 0.125000
0.625000 1.000000 0.125000
0.750000 1.000000 0.125000
0.875000 1.000000 0.125000
1.000000 1.000000 0.125000
0.000000 0.000000 0.244375
0.122188 0.000000 0.244375
0.244375 0.000000 0.244375
0.371484 0.000000 0.247656
0.500000 0.000000 0.250000
0.628516 0.000000 0.251406
0.755625 0.000000 0.251875
0.879922 0.000000 0.251406
1.000000 0.000000 0.250000
0.000000 0.122188 0.244375
0.122188 0.122188 0.244375
0.244375 0.122188 0.244375
0.371484 0.123828 0.247656
0.500000 0.125000 0.250000
0.626740 0.124664 0.246209
0.752799 0.123896 0.239573
0.878563 0.124034 0.239356
1.000000 0.125000 0.250000
0.000000 0.244375 0.244375
0.122188 0.244375 0.244375
0.244375 0.244375 0.244375
0.287254 0.188278 0.162650
0.417034 0.227167 0.178005
0.556386 0.260173 0.183475
0.702787 0.293560 0.189057
0.856222 0.313410 0.202428
1.000000 0.250000 0.250000
0.000000 0.371484 0.247656
0.123828 0.371484 0.247656
0.247656 0.371484 0.247656
0.290489 0.248921 0.165378
0.415138 0.280469 0.176433
0.554682 0.316435 0.181936
0.701504 0.353336 0.187580
0.855634 0.386572 0.201231
1.000000 0.375000 0.250000
0.000000 0.500000 0.250000
0.125000 0.500000 0.250000
0.250000 0.500000 0.250000
0.375000 0.500000 0.250000
0.420349 0.340746 0.180760
0.554682 0.372347 0.181936
0.701504 0.411927 0.187580
0.855634 0.458042 0.201231
1.000000 0.500000 0.250000
0.000000 0.628516 0.251406
0.125703 0.628516 0.251406
0.251406 0.628516 0.251406
0.377109 0.628516 0.251406
0.515879 0.623295 0.246312
0.559359 0.435366 0.186168
0.701504 0.470518 0.187580
0.855634 0.529511 0.201231
1.000000 0.625000 0.250000
0.000000 0.755625 0.251875
0.125937 0.755625 0.251875
0.251875 0.755625 0.251875
0.377812 0.755625 0.251875
0.503750 0.755625 0.251875
0.699861 0.741762 0.235027
0.705019 0.535686 0.191634
0.855634 0.600808 0.201231
1.000000 0.750000 0.250000
0.000000 0.879922 0.251406
0.125703 0.879922 0.251406
0.251406 0.879922 0.251406
0.377109 0.879922 0.251406
0.502812 0.879922 0.251406
0.629498 0.879855 0.251265
0.870239 0.862551 0.231224
0.857245 0.665372 0.204512
1.000000 0.875000 0.250000
0.000000 1.000000 0.250000
0.125000 1.000000 0.250000
0.250000 1.000000 0.250000
0.375000 1.000000 0.250000
0.500000 1.000000 0.250000
0.625000 1.000000 0.250000
0.750000 1.000000 0.250000
0.875000 1.000000 0.250000
1.000000 1.000000 0.250000
0.000000 0.000000 0.371484
0.123828 0.000000 0.371484
0.247656 0.000000 0.371484
0.371484 0.000000 0.371484
0.500000 0.000000 0.375000
0.628516 0.000000 0.377109
0.755625 0.000000 0.377812
0.879922 0.000000 0.377109
1.000000 0.000000 0.375000
0.000000 0.123828 0.371484
0.123828 0.123828 0.371484
0.247656 0.123828 0.371484
0.371484 0.123828 0.371484
0.500000 0.125000 0.375000
0.628516 0.125703 0.377109
0.755625 0.125937 0.377813
0.879922 0.125703 0.377109
1.000000 0.125000 0.375000
0.000000 0.247656 0.371484
0.123828 0.247656 0.371484
0.247656 0.247656 0.371484
0.371484 0.247656 0.371484
0.500000 0.250000 0.375000
0.628516 0.251406 0.377109
0.752584 0.248157 0.364793
0.874872 0.240852 0.333054
1.000000 0.250000 0.375000
0.000000 0.371484 0.371484
0.123828 0.371484 0.371484
0.247656 0.371484 0.371484
0.371484 0.371484 0.371484
0.417034 0.261120 0.220750
0.556386 0.348564 0.294752
0.702220 0.382513 0.299732
0.852315 0.414576 0.306444
1.000000 0.375000 0.375000
0.000000 0.500000 0.375000
0.125000 0.500000 0.375000
0.250000 0.500000 0.375000
0.375000 0.500000 0.375000
0.420349 0.356463 0.228065
0.554682 0.406977 0.292872
0.700924 0.443320 0.297893
0.851632 0.480078 0.304723
1.000000 0.500000 0.375000
0.000000 0.628516 0.377109
0.125703 0.628516 0.377109
0.251406 0.628516 0.377109
0.377109 0.628516 0.377109
0.502812 0.628516 0.377109
0.559359 0.472536 0.298040
0.700924 0.503775 0.297893
0.851632 0.544378 0.304723
1.000000 0.625000 0.375000
0.000000 0.755625 0.377812
0.125937 0.755625 0.377812
0.251875 0.755625 0.377812
0.377812 0.755625 0.377812
0.503750 0.755625 0.377812
0.643657 0.751847 0.372146
0.704476 0.571066 0.302942
0.851632 0.608678 0.304723
1.000000 0.750000 0.375000
0.000000 0.879922 0.377109
0.125703 0.879922 0.377109
0.251406 0.879922 0.377109
0.377109 0.879922 0.377109
0.502812 0.879922 0.377109
0.628516 0.879922 0.377109
0.828012 0.872781 0.358609
0.853504 0.677132 0.309439
1.000000 0.875000 0.375000
0.000000 1.000000 0.375000
0.125000 1.000000 0.375000
0.250000 1.000000 0.375000
0.375000 1.000000 0.375000
0.500000 1.000000 0.375000
0.625000 1.000000 0.375000
0.750000 1.000000 0.375000
0.875000 1.000000 0.375000
1.000000 1.000000 0.375000
0.000000 0.000000 0.500000
0.125000 0.000000 0.500000
0.250000 0.000000 0.500000
0.375000 0.000000 0.500000
0.500000 0.000000 0.500000
0.628516 0.000000 0.502812
0.755625 0.000000 0.503750
0.879922 0.000000 0.502812
1.000000 0.000000 0.500000
0.000000 0.125000 0.500000
0.125000 0.125000 0.500000
0.250000 0.125000 0.500000
0.375000 0.125000 0.500000
0.500000 0.125000 0.500000
0.628516 0.125703 0.502812
0.755625 0.125937 0.503750
0.879922 0.125703 0.502812
1.000000 0.125000 0.500000
0.000000 0.250000 0.500000
0.125000 0.250000 0.500000
0.250000 0.250000 0.500000
0.375000 0.250000 0.500000
0.500000 0.250000 0.500000
0.628516 0.251406 0.502813
0.755625 0.251875 0.503750
0.879922 0.251406 0.502813
1.000000 0.250000 0.500000
0.000000 0.375000 0.500000
0.125000 0.375000 0.500000
0.250000 0.375000 0.500000
0.375000 0.375000 0.500000
0.500000 0.375000 0.500000
0.628516 0.377109 0.502812
0.755625 0.377812 0.503750
0.878361 0.373053 0.490142
1.000000 0.375000 0.500000
0.000000 0.500000 0.500000
0.125000 0.500000 0.500000
0.250000 0.500000 0.500000
0.375000 0.500000 0.500000
0.500000 0.500000 0.500000
0.556386 0.339256 0.283034
0.702220 0.460263 0.397614
0.852315 0.512216 0.428203
1.000000 0.500000 0.500000
0.000000 0.628516 0.502812
0.125703 0.628516 0.502812
0.251406 0.628516 0.502812
0.377109 0.628516 0.502812
0.502812 0.628516 0.502812
0.559359 0.471925 0.296200
0.700924 0.528742 0.395726
0.851632 0.579397 0.426385
1.000000 0.625000 0.500000
0.000000 0.755625 0.503750
0.125937 0.755625 0.503750
0.251875 0.755625 0.503750
0.377812 0.755625 0.503750
0.503750 0.755625 0.503750
0.629688 0.755625 0.503750
0.704476 0.603668 0.401065
0.851632 0.646058 0.426385
1.000000 0.750000 0.500000
0.000000 0.879922 0.502813
0.125703 0.879922 0.502812
0.251406 0.879922 0.502812
0.377109 0.879922 0.502812
0.502812 0.879922 0.502812
0.628516 0.879922 0.502812
0.768914 0.878004 0.497527
0.853504 0.716658 0.431368
1.000000 0.875000 0.500000
0.000000 1.000000 0.500000
0.125000 1.000000 0.500000
0.250000 1.000000 0.500000
0.375000 1.000000 0.500000
0.500000 1.000000 0.500000
0.625000 1.000000 0.500000
0.750000 1.000000 0.500000
0.875000 1.000000 0.500000
1.000000 1.000000 0.500000
0.000000 0.000000 0.628516
0.125703 0.000000 0.628516
0.251406 0.000000 0.628516
0.377109 0.000000 0.628516
0.502812 0.000000 0.628516
0.628516 0.000000 0.628516
0.755625 0.000000 0.629687
0.879922 0.000000 0.628516
1.000000 0.000000 0.625000
0.000000 0.125703 0.628516
0.125703 0.125703 0.628516
0.251406 0.125703 0.628516
0.377109 0.125703 0.628516
0.502812 0.125703 0.628516
0.628516 0.125703 0.628516
0.755625 0.125937 0.629687
0.879922 0.125703 0.628516
1.000000 0.125000 0.625000
0.000000 0.251406 0.628516
0.125703 0.251406 0.628516
0.251406 0.251406 0.628516
0.377109 0.251406 0.628516
0.502813 0.251406 0.628516
0.628516 0.251406 0.628516
0.755625 0.251875 0.629688
0.879922 0.251406 0.628516
1.000000 0.250000 0.625000
0.000000 0.377109 0.628516
0.125703 0.377109 0.628516
0.251406 0.377109 0.628516
0.377109 0.377109 0.628516
0.502812 0.377109 0.628516
0.628516 0.377109 0.628516
0.755625 0.377812 0.629688
0.879922 0.377109 0.628516
1.000000 0.375000 0.625000
0.000000 0.502812 0.628516
0.125703 0.502812 0.628516
0.251406 0.502813 0.628516
0.377109 0.502812 0.628516
0.502812 0.502812 0.628516
0.628516 0.502812 0.628516
0.755625 0.503750 0.629688
0.879922 0.502812 0.628516
1.000000 0.500000 0.625000
0.000000 0.628516 0.628516
0.125703 0.628516 0.628516
0.251406 0.628516 0.628516
0.377109 0.628516 0.628516
0.502812 0.628516 0.628516
0.628516 0.628516 0.628516
0.702220 0.431585 0.361510
0.852315 0.549542 0.474750
1.000000 0.625000 0.625000
0.000000 0.755625 0.629688
0.125937 0.755625 0.629687
0.251875 0.755625 0.629688
0.377812 0.755625 0.629687
0.503750 0.755625 0.629688
0.629688 0.755625 0.629688
0.704476 0.596673 0.380013
0.851632 0.637569 0.470603
1.000000 0.750000 0.625000
0.000000 0.879922 0.628516
0.125703 0.879922 0.628516
0.251406 0.879922 0.628516
0.377109 0.879922 0.628516
0.502812 0.879922 0.628516
0.628516 0.879922 0.628516
0.754219 0.879922 0.628516
0.853504 0.733105 0.482102
1.000000 0.875000 0.625000
0.000000 1.000000 0.625000
0.125000 1.000000 0.625000
0.250000 1.000000 0.625000
0.375000 1.000000 0.625000
0.500000 1.000000 0.625000
0.625000 1.000000 0.625000
0.750000 1.000000 0.625000
0.875000 1.000000 0.625000
1.000000 1.000000 0.625000
0.000000 0.000000 0.755625
0.125938 0.000000 0.755625
0.251875 0.000000 0.755625
0.377812 0.000000 0.755625
0.503750 0.000000 0.755625
0.629687 0.000000 0.755625
0.755625 0.000000 0.755625
0.879922 0.000000 0.754219
1.000000 0.000000 0.750000
0.000000 0.125938 0.755625
0.125937 0.125937 0.755625
0.251875 0.125937 0.755625
0.377813 0.125937 0.755625
0.503750 0.125937 0.755625
0.629687 0.125937 0.755625
0.755625 0.125937 0.755625
0.879922 0.125703 0.754219
1.000000 0.125000 0.750000
0.000000 0.251875 0.755625
0.125937 0.251875 0.755625
0.251875 0.251875 0.755625
0.377812 0.251875 0.755625
0.503750 0.251875 0.755625
0.629688 0.251875 0.755625
0.755625 0.251875 0.755625
0.879922 0.251406 0.754219
1.000000 0.250000 0.750000
0.000000 0.377812 0.755625
0.125937 0.377813 0.755625
0.251875 0.377812 0.755625
0.377812 0.377812 0.755625
0.503750 0.377812 0.755625
0.629688 0.377812 0.755625
0.755625 0.377812 0.755625
0.879922 0.377109 0.754219
1.000000 0.375000 0.750000
0.000000 0.503750 0.755625
0.125937 0.503750 0.755625
0.251875 0.503750 0.755625
0.377812 0.503750 0.755625
0.503750 0.503750 0.755625
0.629688 0.503750 0.755625
0.755625 0.503750 0.755625
0.879922 0.502812 0.754219
1.000000 0.500000 0.750000
0.000000 0.629687 0.755625
0.125937 0.629687 0.755625
0.251875 0.629688 0.755625
0.377812 0.629688 0.755625
0.503750 0.629688 0.755625
0.629688 0.629688 0.755625
0.755625 0.629688 0.755625
0.879922 0.628516 0.754219
1.000000 0.625000 0.750000
0.000000 0.755625 0.755625
0.125937 0.755625 0.755625
0.251875 0.755625 0.755625
0.377812 0.755625 0.755625
0.503750 0.755625 0.755625
0.629688 0.755625 0.755625
0.755625 0.755625 0.755625
0.852315 0.550078 0.475418
1.000000 0.750000 0.750000
0.000000 0.879922 0.754219
0.125703 0.879922 0.754219
0.251406 0.879922 0.754219
0.377109 0.879922 0.754219
0.502812 0.879922 0.754219
0.628516 0.879922 0.754219
0.754219 0.879922 0.754219
0.853504 0.737817 0.496637
1.000000 0.875000 0.750000
0.000000 1.000000 0.750000
0.125000 1.000000 0.750000
0.250000 1.000000 0.750000
0.375000 1.000000 0.750000
0.500000 1.000000 0.750000
0.625000 1.000000 0.750000
0.750000 1.000000 0.750000
0.875000 1.000000 0.750000
1.000000 1.000000 0.750000
0.000000 0.000000 0.879922
0.125703 0.000000 0.879922
0.251406 0.000000 0.879922
0.377109 0.000000 0.879922
0.502812 0.000000 0.879922
0.628516 0.000000 0.879922
0.754219 0.000000 0.879922
0.879922 0.000000 0.879922
1.000000 0.000000 0.875000
0.000000 0.125703 0.879922
0.125703 0.125703 0.879922
0.251406 0.125703 0.879922
0.377109 0.125703 0.879922
0.502812 0.125703 0.879922
0.628516 0.125703 0.879922
0.754219 0.125703 0.879922
0.879922 0.125703 0.879922
1.000000 0.125000 0.875000
0.000000 0.251406 0.879922
0.125703 0.251406 0.879922
0.251406 0.251406 0.879922
0.377109 0.251406 0.879922
0.502813 0.251406 0.879922
0.628516 0.251406 0.879922
0.754219 0.251406 0.879922
0.879922 0.251406 0.879922
1.000000 0.250000 0.875000
0.000000 0.377109 0.879922
0.125703 0.377109 0.879922
0.251406 0.377109 0.879922
0.377109 0.377109 0.879922
0.502812 0.377109 0.879922
0.628516 0.377109 0.879922
0.754219 0.377109 0.879922
0.879922 0.377109 0.879922
1.000000 0.375000 0.875000
0.000000 0.502812 0.879922
0.125703 0.502812 0.879922
0.251406 0.502813 0.879922
0.377109 0.502812 0.879922
0.502812 0.502812 0.879922
0.628516 0.502812 0.879922
0.754219 0.502812 0.879922
0.879922 0.502812 0.879922
1.000000 0.500000 0.875000
0.000000 0.628516 0.879922
0.125703 0.628516 0.879922
0.251406 0.628516 0.879922
0.377109 0.628516 0.879922
0.502812 0.628516 0.879922
0.628516 0.628516 0.879922
0.754219 0.628516 0.879922
0.879922 0.628516 0.879922
1.000000 0.625000 0.875000
0.000000 0.754219 0.879922
0.125703 0.754219 0.879922
0.251406 0.754219 0.879922
0.377109 0.754219 0.879922
0.502812 0.754219 0.879922
0.628516 0.754219 0.879922
0.754219 0.754219 0.879922
0.879922 0.754219 0.879922
1.000000 0.750000 0.875000
0.000000 0.879922 0.879922
0.125703 0.879922 0.879922
0.251406 0.879922 0.879922
0.377109 0.879922 0.879922
0.502812 0.879922 0.879922
0.628516 0.879922 0.879922
0.754219 0.879922 0.879922
0.879922 0.879922 0.879922
1.000000 0.875000 0.875000
0.000000 1.000000 0.875000
0.125000 1.000000 0.875000
0.250000 1.000000 0.875000
0.375000 1.000000 0.875000
0.500000 1.000000 0.875000
0.625000 1.000000 0.875000
0.750000 1.000000 0.875000
0.875000 1.000000 0.875000
1.000000 1.000000 0.875000
0.000000 0.000000 1.000000
0.125000 0.000000 1.000000
0.250000 0.000000 1.000000
0.375000 0.000000 1.000000
0.500000 0.000000 1.000000
0.625000 0.000000 1.000000
0.750000 0.000000 1.000000
0.875000 0.000000 1.000000
1.000000 0.000000 1.000000
0.000000 0.125000 1.000000
0.125000 0.125000 1.000000
0.250000 0.125000 1.000000
0.375000 0.125000 1.000000
0.500000 0.125000 1.000000
0.625000 0.125000 1.000000
0.750000 0.125000 1.000000
0.875000 0.125000 1.000000
1.000000 0.125000 1.000000
0.000000 0.250000 1.000000
0.125000 0.250000 1.000000
0.250000 0.250000 1.000000
0.375000 0.250000 1.000000
0.500000 0.250000 1.000000
0.625000 0.250000 1.000000
0.750000 0.250000 1.000000
0.875000 0.250000 1.000000
1.000000 0.250000 1.000000
0.000000 0.375000 1.000000
0.125000 0.375000 1.000000
0.250000 0.375000 1.000000
0.375000 0.375000 1.000000
0.500000 0.375000 1.000000
0.625000 0.375000 1.000000
0.750000 0.375000 1.000000
0.875000 0.375000 1.000000
1.000000 0.375000 1.000000
0.000000 0.500000 1.000000
0.125000 0.500000 1.000000
0.250000 0.500000 1.000000
0.375000 0.500000 1.000000
0.500000 0.500000 1.000000
0.625000 0.500000 1.000000
0.750000 0.500000 1.000000
0.875000 0.500000 1.000000
1.000000 0.500000 1.000000
0.000000 0.625000 1.000000
0.125000 0.625000 1.000000
0.250000 0.625000 1.000000
0.375000 0.625000 1.000000
0.500000 0.625000 1.000000
0.625000 0.625000 1.000000
0.750000 0.625000 1.000000
0.875000 0.625000 1.000000
1.000000 0.625000 1.000000
0.000000 0.750000 1.000000
0.125000 0.750000 1.000000
0.250000 0.750000 1.000000
0.375000 0.750000 1.000000
0.500000 0.750000 1.000000
0.625000 0.750000 1.000000
0.750000 0.750000 1.000000
0.875000 0.750000 1.000000
1.000000 0.750000 1.000000
0.000000 0.875000 1.000000
0.125000 0.875000 1.000000
0.250000 0.875000 1.000000
0.375000 0.875000 1.000000
0.500000 0.875000 1.000000
0.625000 0.875000 1.000000
0.750000 0.875000 1.000000
0.875000 0.875000 1.000000
1.000000 0.875000 1.000000
0.000000 1.000000 1.000000
0.125000 1.000000 1.000000
0.250000 1.000000 1.000000
0.375000 1.000000 1.000000
0.500000 1.000000 1.000000
0.625000 1.000000 1.000000
0.750000 1.000000 1.000000
0.875000 1.000000 1.000000
1.000000 1.000000 1.000000
