assets/LUTs/skintone_bronze_maximum_33.cube
TITLE "SkinTone Bronze Maximum"
# Maximum bronze: near-total hue convergence to red-orange, big saturation and density. Bodybuilder-stage tan.
# Skin-tone selective LUT. Apply to display-referred Rec.709/sRGB (SDR) footage.
# Generated 2026-07-10 with Claude Code.
LUT_3D_SIZE 33
DOMAIN_MIN 0.0 0.0 0.0
DOMAIN_MAX 1.0 1.0 1.0
0.000000 0.000000 0.000000
0.027560 0.000000 0.000000
0.055835 0.000000 0.000000
0.084776 0.000000 0.000000
0.114336 0.000000 0.000000
0.144467 0.000000 0.000000
0.175122 0.000000 0.000000
0.206253 0.000000 0.000000
0.237813 0.000000 0.000000
0.269753 0.000000 0.000000
0.302026 0.000000 0.000000
0.334586 0.000000 0.000000
0.367383 0.000000 0.000000
0.400370 0.000000 0.000000
0.433501 0.000000 0.000000
0.466727 0.000000 0.000000
0.500000 0.000000 0.000000
0.533273 0.000000 0.000000
0.566499 0.000000 0.000000
0.599630 0.000000 0.000000
0.632617 0.000000 0.000000
0.665414 0.000000 0.000000
0.697974 0.000000 0.000000
0.730247 0.000000 0.000000
0.762188 0.000000 0.000000
0.793747 0.000000 0.000000
0.824878 0.000000 0.000000
0.855533 0.000000 0.000000
0.885664 0.000000 0.000000
0.915224 0.000000 0.000000
0.944165 0.000000 0.000000
0.972440 0.000000 0.000000
1.000000 0.000000 0.000000
0.000000 0.027560 0.000000
0.027560 0.027560 0.000000
0.055835 0.027917 0.000000
0.084776 0.028259 0.000000
0.114336 0.028584 0.000000
0.144467 0.028893 0.000000
0.175122 0.029187 0.000000
0.206253 0.029465 0.000000
0.237813 0.029727 0.000000
0.269753 0.029973 0.000000
0.302026 0.030203 0.000000
0.334586 0.030417 0.000000
0.367383 0.030615 0.000000
0.400370 0.030798 0.000000
0.433501 0.030964 0.000000
0.466727 0.031115 0.000000
0.500000 0.031250 0.000000
0.533273 0.031369 0.000000
0.566499 0.031472 0.000000
0.599630 0.031559 0.000000
0.632617 0.031631 0.000000
0.665414 0.031686 0.000000
0.697974 0.031726 0.000000
0.730247 0.031750 0.000000
0.762188 0.031758 0.000000
0.793747 0.031750 0.000000
0.824878 0.031726 0.000000
0.855533 0.031686 0.000000
0.885664 0.031631 0.000000
0.915224 0.031559 0.000000
0.944165 0.031472 0.000000
0.972440 0.031369 0.000000
1.000000 0.031250 0.000000
0.000000 0.055835 0.000000
0.027917 0.055835 0.000000
0.055835 0.055835 0.000000
0.084776 0.056517 0.000000
0.114336 0.057168 0.000000
0.144467 0.057787 0.000000
0.175122 0.058374 0.000000
0.206253 0.058929 0.000000
0.237813 0.059453 0.000000
0.269753 0.059945 0.000000
0.302026 0.060405 0.000000
0.334586 0.060834 0.000000
0.367383 0.061230 0.000000
0.400370 0.061595 0.000000
0.433501 0.061929 0.000000
0.466727 0.062230 0.000000
0.500000 0.062500 0.000000
0.533273 0.062738 0.000000
0.566499 0.062944 0.000000
0.599630 0.063119 0.000000
0.632617 0.063262 0.000000
0.665414 0.063373 0.000000
0.697974 0.063452 0.000000
0.730247 0.063500 0.000000
0.762188 0.063516 0.000000
0.793747 0.063500 0.000000
0.824878 0.063452 0.000000
0.855533 0.063373 0.000000
0.885664 0.063262 0.000000
0.915224 0.063119 0.000000
0.944165 0.062944 0.000000
0.972440 0.062738 0.000000
1.000000 0.062500 0.000000
0.000000 0.084776 0.000000
0.028259 0.084776 0.000000
0.056517 0.084776 0.000000
0.084776 0.084776 0.000000
0.114336 0.085752 0.000000
0.144467 0.086680 0.000000
0.175122 0.087561 0.000000
0.206253 0.088394 0.000000
0.237813 0.089180 0.000000
0.269753 0.089918 0.000000
0.302026 0.090608 0.000000
0.334586 0.091251 0.000000
0.367383 0.091846 0.000000
0.400370 0.092393 0.000000
0.433501 0.092893 0.000000
0.466727 0.093345 0.000000
0.500000 0.093750 0.000000
0.533273 0.094107 0.000000
0.566499 0.094417 0.000000
0.599630 0.094678 0.000000
0.632617 0.094893 0.000000
0.665414 0.095059 0.000000
0.697974 0.095178 0.000000
0.730247 0.095250 0.000000
0.762188 0.095273 0.000000
0.793747 0.095250 0.000000
0.824878 0.095178 0.000000
0.855533 0.095059 0.000000
0.885664 0.094893 0.000000
0.915224 0.094678 0.000000
0.944165 0.094417 0.000000
0.972440 0.094107 0.000000
1.000000 0.093750 0.000000
0.000000 0.114336 0.000000
0.028584 0.114336 0.000000
0.057168 0.114336 0.000000
0.085752 0.114336 0.000000
0.114336 0.114336 0.000000
0.144467 0.115574 0.000000
0.175122 0.116748 0.000000
0.206253 0.117859 0.000000
0.237813 0.118906 0.000000
0.269753 0.119890 0.000000
0.302026 0.120811 0.000000
0.334586 0.121667 0.000000
0.367383 0.122461 0.000000
0.400370 0.123191 0.000000
0.433501 0.123857 0.000000
0.466727 0.124460 0.000000
0.500000 0.125000 0.000000
0.533273 0.125476 0.000000
0.566499 0.125889 0.000000
0.599630 0.126238 0.000000
0.632617 0.126523 0.000000
0.665414 0.126746 0.000000
0.697974 0.126904 0.000000
0.730247 0.127000 0.000000
0.762188 0.127031 0.000000
0.793747 0.127000 0.000000
0.824878 0.126904 0.000000
0.855533 0.126746 0.000000
0.885664 0.126523 0.000000
0.915224 0.126238 0.000000
0.944165 0.125889 0.000000
0.972440 0.125476 0.000000
1.000000 0.125000 0.000000
0.000000 0.144467 0.000000
0.028893 0.144467 0.000000
0.057787 0.144467 0.000000
0.086680 0.144467 0.000000
0.115574 0.144467 0.000000
0.144467 0.144467 0.000000
0.175122 0.145935 0.000000
0.206253 0.147324 0.000000
0.237813 0.148633 0.000000
0.269753 0.149863 0.000000
0.302026 0.151013 0.000000
0.334586 0.152084 0.000000
0.367383 0.153076 0.000000
0.400370 0.153989 0.000000
0.433501 0.154822 0.000000
0.466727 0.155576 0.000000
0.500000 0.156250 0.000000
0.533273 0.156845 0.000000
0.566499 0.157361 0.000000
0.599630 0.157797 0.000000
0.632617 0.158154 0.000000
0.665414 0.158432 0.000000
0.697974 0.158630 0.000000
0.730247 0.158749 0.000000
0.762188 0.158789 0.000000
0.793747 0.158749 0.000000
0.824878 0.158630 0.000000
0.855533 0.158432 0.000000
0.885664 0.158154 0.000000
0.915224 0.157797 0.000000
0.944165 0.157361 0.000000
0.972440 0.156845 0.000000
1.000000 0.156250 0.000000
0.000000 0.175122 0.000000
0.029187 0.175122 0.000000
0.058374 0.175122 0.000000
0.087561 0.175122 0.000000
0.116748 0.175122 0.000000
0.145935 0.175122 0.000000
0.175122 0.175122 0.000000
0.206253 0.176788 0.000000
0.237813 0.178359 0.000000
0.269753 0.179835 0.000000
0.302026 0.181216 0.000000
0.334586 0.182501 0.000000
0.367383 0.183691 0.000000
0.400370 0.184786 0.000000
0.433501 0.185786 0.000000
0.466727 0.186691 0.000000
0.500000 0.187500 0.000000
0.533273 0.188214 0.000000
0.566499 0.188833 0.000000
0.599630 0.189357 0.000000
0.632617 0.189785 0.000000
0.665414 0.190118 0.000000
0.697974 0.190356 0.000000
0.730247 0.190499 0.000000
0.762188 0.190547 0.000000
0.793747 0.190499 0.000000
0.824878 0.190356 0.000000
0.855533 0.190118 0.000000
0.885664 0.189785 0.000000
0.915224 0.189357 0.000000
0.944165 0.188833 0.000000
0.972440 0.188214 0.000000
1.000000 0.187500 0.000000
0.000000 0.206253 0.000000
0.029465 0.206253 0.000000
0.058929 0.206253 0.000000
0.088394 0.206253 0.000000
0.117859 0.206253 0.000000
0.147324 0.206253 0.000000
0.176788 0.206253 0.000000
0.206253 0.206253 0.000000
0.237813 0.208086 0.000000
0.269753 0.209808 0.000000
0.302026 0.211418 0.000000
0.334586 0.212918 0.000000
0.367383 0.214307 0.000000
0.400370 0.215584 0.000000
0.433501 0.216750 0.000000
0.466727 0.217806 0.000000
0.500000 0.218750 0.000000
0.533273 0.219583 0.000000
0.566499 0.220305 0.000000
0.599630 0.220916 0.000000
0.632617 0.221416 0.000000
0.665414 0.221805 0.000000
0.697974 0.222083 0.000000
0.730247 0.222249 0.000000
0.762188 0.222305 0.000000
0.793747 0.222249 0.000000
0.824878 0.222083 0.000000
0.855533 0.221805 0.000000
0.885664 0.221416 0.000000
0.915224 0.220916 0.000000
0.944165 0.220305 0.000000
0.972440 0.219583 0.000000
1.000000 0.218750 0.000000
0.000000 0.237813 0.000000
0.029727 0.237813 0.000000
0.059453 0.237813 0.000000
0.089180 0.237813 0.000000
0.118906 0.237813 0.000000
0.148633 0.237813 0.000000
0.178359 0.237813 0.000000
0.208086 0.237813 0.000000
0.237813 0.237813 0.000000
0.269753 0.239780 0.000000
0.302026 0.241621 0.000000
0.334586 0.243335 0.000000
0.367383 0.244922 0.000000
0.400370 0.246382 0.000000
0.433501 0.247715 0.000000
0.466727 0.248921 0.000000
0.500000 0.250000 0.000000
0.533273 0.250952 0.000000
0.566499 0.251777 0.000000
0.599630 0.252476 0.000000
0.632617 0.253047 0.000000
0.665414 0.253491 0.000000
0.697974 0.253809 0.000000
0.730247 0.253999 0.000000
0.762188 0.254063 0.000000
0.793747 0.253999 0.000000
0.824878 0.253809 0.000000
0.855533 0.253491 0.000000
0.885664 0.253047 0.000000
0.915224 0.252476 0.000000
0.944165 0.251777 0.000000
0.972440 0.250952 0.000000
1.000000 0.250000 0.000000
0.000000 0.269753 0.000000
0.029973 0.269753 0.000000
0.059945 0.269753 0.000000
0.089918 0.269753 0.000000
0.119890 0.269753 0.000000
0.149863 0.269753 0.000000
0.179835 0.269753 0.000000
0.209808 0.269753 0.000000
0.239780 0.269753 0.000000
0.269753 0.269753 0.000000
0.302026 0.271824 0.000000
0.334586 0.273752 0.000000
0.367383 0.275537 0.000000
0.400370 0.277180 0.000000
0.433501 0.278679 0.000000
0.466727 0.280036 0.000000
0.500000 0.281250 0.000000
0.533273 0.282321 0.000000
0.566499 0.283250 0.000000
0.599630 0.284035 0.000000
0.632617 0.284678 0.000000
0.665414 0.285178 0.000000
0.697974 0.285535 0.000000
0.730247 0.285749 0.000000
0.762188 0.285820 0.000000
0.793747 0.285749 0.000000
0.824878 0.285535 0.000000
0.855533 0.285178 0.000000
0.885664 0.284678 0.000000
0.915224 0.284035 0.000000
0.944165 0.283250 0.000000
0.972440 0.282321 0.000000
1.000000 0.281250 0.000000
0.000000 0.302026 0.000000
0.030203 0.302026 0.000000
0.060405 0.302026 0.000000
0.090608 0.302026 0.000000
0.120811 0.302026 0.000000
0.151013 0.302026 0.000000
0.181216 0.302026 0.000000
0.211418 0.302026 0.000000
0.241621 0.302026 0.000000
0.271824 0.302026 0.000000
0.302026 0.302026 0.000000
0.334586 0.304169 0.000000
0.367383 0.306152 0.000000
0.400370 0.307977 0.000000
0.433501 0.309644 0.000000
0.466727 0.311151 0.000000
0.500000 0.312500 0.000000
0.533273 0.313690 0.000000
0.566499 0.314722 0.000000
0.599630 0.315594 0.000000
0.632617 0.316309 0.000000
0.665414 0.316864 0.000000
0.697974 0.317261 0.000000
0.730247 0.317499 0.000000
0.762188 0.317578 0.000000
0.793747 0.317499 0.000000
0.824878 0.317261 0.000000
0.855533 0.316864 0.000000
0.885664 0.316309 0.000000
0.915224 0.315594 0.000000
0.944165 0.314722 0.000000
0.972440 0.313690 0.000000
1.000000 0.312500 0.000000
0.000000 0.334586 0.000000
0.030417 0.334586 0.000000
0.060834 0.334586 0.000000
0.091251 0.334586 0.000000
0.121667 0.334586 0.000000
0.152084 0.334586 0.000000
0.182501 0.334586 0.000000
0.212918 0.334586 0.000000
0.243335 0.334586 0.000000
0.273752 0.334586 0.000000
0.304169 0.334586 0.000000
0.334586 0.334586 0.000000
0.367383 0.336768 0.000000
0.400370 0.338775 0.000000
0.433501 0.340608 0.000000
0.466727 0.342266 0.000000
0.500000 0.343750 0.000000
0.533273 0.345059 0.000000
0.566499 0.346194 0.000000
0.599630 0.347154 0.000000
0.632617 0.347939 0.000000
0.665414 0.348550 0.000000
0.697974 0.348987 0.000000
0.730247 0.349249 0.000000
0.762188 0.349336 0.000000
0.793747 0.349249 0.000000
0.824878 0.348987 0.000000
0.855533 0.348550 0.000000
0.885664 0.347939 0.000000
0.915224 0.347154 0.000000
0.944165 0.346194 0.000000
0.972440 0.345059 0.000000
1.000000 0.343750 0.000000
0.000000 0.367383 0.000000
0.030615 0.367383 0.000000
0.061230 0.367383 0.000000
0.091846 0.367383 0.000000
0.122461 0.367383 0.000000
0.153076 0.367383 0.000000
0.183691 0.367383 0.000000
0.214307 0.367383 0.000000
0.244922 0.367383 0.000000
0.275537 0.367383 0.000000
0.306152 0.367383 0.000000
0.336768 0.367383 0.000000
0.367383 0.367383 0.000000
0.400370 0.369573 0.000000
0.433501 0.371572 0.000000
0.466727 0.373381 0.000000
0.500000 0.375000 0.000000
0.533273 0.376428 0.000000
0.566499 0.377666 0.000000
0.599630 0.378713 0.000000
0.632617 0.379570 0.000000
0.665414 0.380237 0.000000
0.697974 0.380713 0.000000
0.730247 0.380999 0.000000
0.762188 0.381094 0.000000
0.793747 0.380999 0.000000
0.824878 0.380713 0.000000
0.855533 0.380237 0.000000
0.885664 0.379570 0.000000
0.915224 0.378713 0.000000
0.944165 0.377666 0.000000
0.972440 0.376428 0.000000
1.000000 0.375000 0.000000
0.000000 0.400370 0.000000
0.030798 0.400370 0.000000
0.061595 0.400370 0.000000
0.092393 0.400370 0.000000
0.123191 0.400370 0.000000
0.153989 0.400370 0.000000
0.184786 0.400370 0.000000
0.215584 0.400370 0.000000
0.246382 0.400370 0.000000
0.277180 0.400370 0.000000
0.307977 0.400370 0.000000
0.338775 0.400370 0.000000
0.369573 0.400370 0.000000
0.400370 0.400370 0.000000
0.433501 0.402537 0.000000
0.466727 0.404496 0.000000
0.500000 0.406250 0.000000
0.533273 0.407797 0.000000
0.566499 0.409138 0.000000
0.599630 0.410273 0.000000
0.632617 0.411201 0.000000
0.665414 0.411923 0.000000
0.697974 0.412439 0.000000
0.730247 0.412748 0.000000
0.762188 0.412852 0.000000
0.793747 0.412748 0.000000
0.824878 0.412439 0.000000
0.855533 0.411923 0.000000
0.885664 0.411201 0.000000
0.915224 0.410273 0.000000
0.944165 0.409138 0.000000
0.972440 0.407797 0.000000
1.000000 0.406250 0.000000
0.000000 0.433501 0.000000
0.030964 0.433501 0.000000
0.061929 0.433501 0.000000
0.092893 0.433501 0.000000
0.123857 0.433501 0.000000
0.154822 0.433501 0.000000
0.185786 0.433501 0.000000
0.216750 0.433501 0.000000
0.247715 0.433501 0.000000
0.278679 0.433501 0.000000
0.309644 0.433501 0.000000
0.340608 0.433501 0.000000
0.371572 0.433501 0.000000
0.402537 0.433501 0.000000
0.433501 0.433501 0.000000
0.466727 0.435612 0.000000
0.500000 0.437500 0.000000
0.533273 0.439166 0.000000
0.566499 0.440610 0.000000
0.599630 0.441832 0.000000
0.632617 0.442832 0.000000
0.665414 0.443610 0.000000
0.697974 0.444165 0.000000
0.730247 0.444498 0.000000
0.762188 0.444609 0.000000
0.793747 0.444498 0.000000
0.824878 0.444165 0.000000
0.855533 0.443610 0.000000
0.885664 0.442832 0.000000
0.915224 0.441832 0.000000
0.944165 0.440610 0.000000
0.972440 0.439166 0.000000
1.000000 0.437500 0.000000
0.000000 0.466727 0.000000
0.031115 0.466727 0.000000
0.062230 0.466727 0.000000
0.093345 0.466727 0.000000
0.124460 0.466727 0.000000
0.155576 0.466727 0.000000
0.186691 0.466727 0.000000
0.217806 0.466727 0.000000
0.248921 0.466727 0.000000
0.280036 0.466727 0.000000
0.311151 0.466727 0.000000
0.342266 0.466727 0.000000
0.373381 0.466727 0.000000
0.404496 0.466727 0.000000
0.435612 0.466727 0.000000
0.466727 0.466727 0.000000
0.500000 0.468750 0.000000
0.533273 0.470535 0.000000
0.566499 0.472083 0.000000
0.599630 0.473392 0.000000
0.632617 0.474463 0.000000
0.665414 0.475296 0.000000
0.697974 0.475891 0.000000
0.730247 0.476248 0.000000
0.762188 0.476367 0.000000
0.793747 0.476248 0.000000
0.824878 0.475891 0.000000
0.855533 0.475296 0.000000
0.885664 0.474463 0.000000
0.915224 0.473392 0.000000
0.944165 0.472083 0.000000
0.972440 0.470535 0.000000
1.000000 0.468750 0.000000
0.000000 0.500000 0.000000
0.031250 0.500000 0.000000
0.062500 0.500000 0.000000
0.093750 0.500000 0.000000
0.125000 0.500000 0.000000
0.156250 0.500000 0.000000
0.187500 0.500000 0.000000
0.218750 0.500000 0.000000
0.250000 0.500000 0.000000
0.281250 0.500000 0.000000
0.312500 0.500000 0.000000
0.343750 0.500000 0.000000
0.375000 0.500000 0.000000
0.406250 0.500000 0.000000
0.437500 0.500000 0.000000
0.468750 0.500000 0.000000
0.500000 0.500000 0.000000
0.533273 0.501904 0.000000
0.566499 0.503555 0.000000
0.599630 0.504951 0.000000
0.632617 0.506094 0.000000
0.665414 0.506982 0.000000
0.697974 0.507617 0.000000
0.730247 0.507998 0.000000
0.762188 0.508125 0.000000
0.793747 0.507998 0.000000
0.824878 0.507617 0.000000
0.855533 0.506982 0.000000
0.885664 0.506094 0.000000
0.915224 0.504951 0.000000
0.944165 0.503555 0.000000
0.972440 0.501904 0.000000
1.000000 0.500000 0.000000
0.000000 0.533273 0.000000
0.031369 0.533273 0.000000
0.062738 0.533273 0.000000
0.094107 0.533273 0.000000
0.125476 0.533273 0.000000
0.156845 0.533273 0.000000
0.188214 0.533273 0.000000
0.219583 0.533273 0.000000
0.250952 0.533273 0.000000
0.282321 0.533273 0.000000
0.313690 0.533273 0.000000
0.345059 0.533273 0.000000
0.376428 0.533273 0.000000
0.407797 0.533273 0.000000
0.439166 0.533273 0.000000
0.470535 0.533273 0.000000
0.501904 0.533273 0.000000
0.533273 0.533273 0.000000
0.566499 0.535027 0.000000
0.599630 0.536511 0.000000
0.632617 0.537725 0.000000
0.665414 0.538669 0.000000
0.697974 0.539343 0.000000
0.730247 0.539748 0.000000
0.762188 0.539883 0.000000
0.793747 0.539748 0.000000
0.824878 0.539343 0.000000
0.855533 0.538669 0.000000
0.885664 0.537725 0.000000
0.915224 0.536511 0.000000
0.944165 0.535027 0.000000
0.972440 0.533273 0.000000
1.000000 0.531250 0.000000
0.000000 0.566499 0.000000
0.031472 0.566499 0.000000
0.062944 0.566499 0.000000
0.094417 0.566499 0.000000
0.125889 0.566499 0.000000
0.157361 0.566499 0.000000
0.188833 0.566499 0.000000
0.220305 0.566499 0.000000
0.251777 0.566499 0.000000
0.283250 0.566499 0.000000
0.314722 0.566499 0.000000
0.346194 0.566499 0.000000
0.377666 0.566499 0.000000
0.409138 0.566499 0.000000
0.440610 0.566499 0.000000
0.472083 0.566499 0.000000
0.503555 0.566499 0.000000
0.535027 0.566499 0.000000
0.566499 0.566499 0.000000
0.599630 0.568070 0.000000
0.632617 0.569355 0.000000
0.665414 0.570355 0.000000
0.697974 0.571069 0.000000
0.730247 0.571498 0.000000
0.762188 0.571641 0.000000
0.793747 0.571498 0.000000
0.824878 0.571069 0.000000
0.855533 0.570355 0.000000
0.885664 0.569355 0.000000
0.915224 0.568070 0.000000
0.944165 0.566499 0.000000
0.972440 0.564642 0.000000
1.000000 0.562500 0.000000
0.000000 0.599630 0.000000
0.031559 0.599630 0.000000
0.063119 0.599630 0.000000
0.094678 0.599630 0.000000
0.126238 0.599630 0.000000
0.157797 0.599630 0.000000
0.189357 0.599630 0.000000
0.220916 0.599630 0.000000
0.252476 0.599630 0.000000
0.284035 0.599630 0.000000
0.315594 0.599630 0.000000
0.347154 0.599630 0.000000
0.378713 0.599630 0.000000
0.410273 0.599630 0.000000
0.441832 0.599630 0.000000
0.473392 0.599630 0.000000
0.504951 0.599630 0.000000
0.536511 0.599630 0.000000
0.568070 0.599630 0.000000
0.599630 0.599630 0.000000
0.632617 0.600986 0.000000
0.665414 0.602042 0.000000
0.697974 0.602795 0.000000
0.730247 0.603248 0.000000
0.762188 0.603398 0.000000
0.793747 0.603248 0.000000
0.824878 0.602795 0.000000
0.855533 0.602042 0.000000
0.885664 0.600986 0.000000
0.915224 0.599630 0.000000
0.944165 0.597971 0.000000
0.972440 0.596011 0.000000
1.000000 0.593750 0.000000
0.000000 0.632617 0.000000
0.031631 0.632617 0.000000
0.063262 0.632617 0.000000
0.094893 0.632617 0.000000
0.126523 0.632617 0.000000
0.158154 0.632617 0.000000
0.189785 0.632617 0.000000
0.221416 0.632617 0.000000
0.253047 0.632617 0.000000
0.284678 0.632617 0.000000
0.316309 0.632617 0.000000
0.347939 0.632617 0.000000
0.379570 0.632617 0.000000
0.411201 0.632617 0.000000
0.442832 0.632617 0.000000
0.474463 0.632617 0.000000
0.506094 0.632617 0.000000
0.537725 0.632617 0.000000
0.569355 0.632617 0.000000
0.600986 0.632617 0.000000
0.632617 0.632617 0.000000
0.665414 0.633728 0.000000
0.697974 0.634521 0.000000
0.730247 0.634998 0.000000
0.762188 0.635156 0.000000
0.793747 0.634998 0.000000
0.824878 0.634521 0.000000
0.855533 0.633728 0.000000
0.885664 0.632617 0.000000
0.915224 0.631189 0.000000
0.944165 0.629443 0.000000
0.972440 0.627380 0.000000
1.000000 0.625000 0.000000
0.000000 0.665414 0.000000
0.031686 0.665414 0.000000
0.063373 0.665414 0.000000
0.095059 0.665414 0.000000
0.126746 0.665414 0.000000
0.158432 0.665414 0.000000
0.190118 0.665414 0.000000
0.221805 0.665414 0.000000
0.253491 0.665414 0.000000
0.285178 0.665414 0.000000
0.316864 0.665414 0.000000
0.348550 0.665414 0.000000
0.380237 0.665414 0.000000
0.411923 0.665414 0.000000
0.443610 0.665414 0.000000
0.475296 0.665414 0.000000
0.506982 0.665414 0.000000
0.538669 0.665414 0.000000
0.570355 0.665414 0.000000
0.602042 0.665414 0.000000
0.633728 0.665414 0.000000
0.665414 0.665414 0.000000
0.697974 0.666248 0.000000
0.730247 0.666747 0.000000
0.762188 0.666914 0.000000
0.793747 0.666747 0.000000
0.824878 0.666248 0.000000
0.855533 0.665414 0.000000
0.885664 0.664248 0.000000
0.915224 0.662748 0.000000
0.944165 0.660916 0.000000
0.972440 0.658749 0.000000
1.000000 0.656250 0.000000
0.000000 0.697974 0.000000
0.031726 0.697974 0.000000
0.063452 0.697974 0.000000
0.095178 0.697974 0.000000
0.126904 0.697974 0.000000
0.158630 0.697974 0.000000
0.190356 0.697974 0.000000
0.222083 0.697974 0.000000
0.253809 0.697974 0.000000
0.285535 0.697974 0.000000
0.317261 0.697974 0.000000
0.348987 0.697974 0.000000
0.380713 0.697974 0.000000
0.412439 0.697974 0.000000
0.444165 0.697974 0.000000
0.475891 0.697974 0.000000
0.507617 0.697974 0.000000
0.539343 0.697974 0.000000
0.571069 0.697974 0.000000
0.602795 0.697974 0.000000
0.634521 0.697974 0.000000
0.666248 0.697974 0.000000
0.697974 0.697974 0.000000
0.730247 0.698497 0.000000
0.762188 0.698672 0.000000
0.793747 0.698497 0.000000
0.824878 0.697974 0.000000
0.855533 0.697101 0.000000
0.885664 0.695879 0.000000
0.915224 0.694308 0.000000
0.944165 0.692388 0.000000
0.972440 0.690118 0.000000
1.000000 0.687500 0.000000
0.000000 0.730247 0.000000
0.031750 0.730247 0.000000
0.063500 0.730247 0.000000
0.095250 0.730247 0.000000
0.127000 0.730247 0.000000
0.158749 0.730247 0.000000
0.190499 0.730247 0.000000
0.222249 0.730247 0.000000
0.253999 0.730247 0.000000
0.285749 0.730247 0.000000
0.317499 0.730247 0.000000
0.349249 0.730247 0.000000
0.380999 0.730247 0.000000
0.412748 0.730247 0.000000
0.444498 0.730247 0.000000
0.476248 0.730247 0.000000
0.507998 0.730247 0.000000
0.539748 0.730247 0.000000
0.571498 0.730247 0.000000
0.603248 0.730247 0.000000
0.634998 0.730247 0.000000
0.666747 0.730247 0.000000
0.698497 0.730247 0.000000
0.730247 0.730247 0.000000
0.762188 0.730430 0.000000
0.793747 0.730247 0.000000
0.824878 0.729700 0.000000
0.855533 0.728787 0.000000
0.885664 0.727510 0.000000
0.915224 0.725867 0.000000
0.944165 0.723860 0.000000
0.972440 0.721487 0.000000
1.000000 0.718750 0.000000
0.000000 0.762188 0.000000
0.031758 0.762188 0.000000
0.063516 0.762188 0.000000
0.095273 0.762188 0.000000
0.127031 0.762188 0.000000
0.158789 0.762188 0.000000
0.190547 0.762188 0.000000
0.222305 0.762188 0.000000
0.254063 0.762188 0.000000
0.285820 0.762188 0.000000
0.317578 0.762188 0.000000
0.349336 0.762188 0.000000
0.381094 0.762188 0.000000
0.412852 0.762188 0.000000
0.444609 0.762188 0.000000
0.476367 0.762188 0.000000
0.508125 0.762188 0.000000
0.539883 0.762188 0.000000
0.571641 0.762188 0.000000
0.603398 0.762188 0.000000
0.635156 0.762188 0.000000
0.666914 0.762188 0.000000
0.698672 0.762188 0.000000
0.730430 0.762188 0.000000
0.762188 0.762188 0.000000
0.793747 0.761997 0.000000
0.824878 0.761426 0.000000
0.855533 0.760474 0.000000
0.885664 0.759141 0.000000
0.915224 0.757427 0.000000
0.944165 0.755332 0.000000
0.972440 0.752856 0.000000
1.000000 0.750000 0.000000
0.000000 0.793747 0.000000
0.031750 0.793747 0.000000
0.063500 0.793747 0.000000
0.095250 0.793747 0.000000
0.127000 0.793747 0.000000
0.158749 0.793747 0.000000
0.190499 0.793747 0.000000
0.222249 0.793747 0.000000
0.253999 0.793747 0.000000
0.285749 0.793747 0.000000
0.317499 0.793747 0.000000
0.349249 0.793747 0.000000
0.380999 0.793747 0.000000
0.412748 0.793747 0.000000
0.444498 0.793747 0.000000
0.476248 0.793747 0.000000
0.507998 0.793747 0.000000
0.539748 0.793747 0.000000
0.571498 0.793747 0.000000
0.603248 0.793747 0.000000
0.634998 0.793747 0.000000
0.666747 0.793747 0.000000
0.698497 0.793747 0.000000
0.730247 0.793747 0.000000
0.761997 0.793747 0.000000
0.793747 0.793747 0.000000
0.824878 0.793152 0.000000
0.855533 0.792160 0.000000
0.885664 0.790771 0.000000
0.915224 0.788986 0.000000
0.944165 0.786804 0.000000
0.972440 0.784225 0.000000
1.000000 0.781250 0.000000
0.000000 0.824878 0.000000
0.031726 0.824878 0.000000
0.063452 0.824878 0.000000
0.095178 0.824878 0.000000
0.126904 0.824878 0.000000
0.158630 0.824878 0.000000
0.190356 0.824878 0.000000
0.222083 0.824878 0.000000
0.253809 0.824878 0.000000
0.285535 0.824878 0.000000
0.317261 0.824878 0.000000
0.348987 0.824878 0.000000
0.380713 0.824878 0.000000
0.412439 0.824878 0.000000
0.444165 0.824878 0.000000
0.475891 0.824878 0.000000
0.507617 0.824878 0.000000
0.539343 0.824878 0.000000
