assets/LUTs/skintone_bronze_oiled_33.cube
TITLE "Skintone Bronze Oiled"
# Aggressive de-yellow -> deep bronze / tan / oiled skin look
# Target: Rec.709 SDR footage after exposure/WB correction
# Strong look LUT - mix down (50-80%) if it lands too heavy
LUT_3D_SIZE 5
DOMAIN_MIN 0.0 0.0 0.0
DOMAIN_MAX 1.0 1.0 1.0
0.003000 0.002963 0.002962
0.144533 0.002865 0.000000
0.410975 0.008148 0.000000
0.719151 0.014257 0.000000
1.000000 0.362886 0.350000
0.000000 0.144533 0.000000
0.144533 0.068244 0.000000
0.410975 0.178083 0.000000
0.719151 0.239717 0.000000
1.000000 0.524012 0.350000
0.000000 0.410975 0.000000
0.410975 0.394767 0.000000
0.410975 0.194049 0.000000
0.719151 0.347075 0.000000
1.000000 0.631657 0.350000
0.000000 0.719151 0.000000
0.458722 0.719151 0.000000
0.719151 0.456027 0.000000
0.719151 0.339561 0.000000
1.000000 0.667870 0.350000
0.350000 1.000000 0.350000
0.640664 1.000000 0.350000
1.000000 0.974366 0.350000
1.000000 0.706492 0.350000
1.000000 0.656910 0.350000
0.000000 0.000000 0.144533
0.144533 0.000000 0.144533
0.410975 0.000000 0.205488
0.719151 0.000000 0.239717
1.000000 0.350000 0.512500
0.000000 0.144533 0.144533
0.144533 0.142747 0.142711
0.410975 0.171658 0.166817
0.719151 0.163749 0.152515
1.000000 0.436258 0.424856
0.000000 0.410975 0.205488
0.193158 0.410975 0.193158
0.410975 0.226277 0.061057
0.719151 0.311622 0.000000
1.000000 0.566667 0.350000
0.000000 0.719151 0.239717
0.210951 0.719151 0.210951
0.719151 0.696809 0.152601
0.719151 0.339561 0.000000
1.000000 0.663702 0.350000
0.350000 1.000000 0.512500
0.483250 1.000000 0.483250
0.812867 1.000000 0.483250
1.000000 0.762177 0.350000
1.000000 0.656910 0.350000
0.000000 0.000000 0.410975
0.205488 0.000000 0.410975
0.410975 0.000000 0.410975
0.719151 0.000000 0.479434
1.000000 0.350000 0.675000
0.000000 0.205488 0.410975
0.193158 0.193158 0.410975
0.410975 0.193158 0.410975
0.719151 0.210951 0.465051
1.000000 0.483250 0.655500
0.000000 0.410975 0.410975
0.193158 0.410975 0.410975
0.410975 0.405896 0.405793
0.719151 0.437006 0.431300
1.000000 0.621494 0.613839
0.000000 0.719151 0.479434
0.210951 0.719151 0.465051
0.465051 0.719151 0.465051
0.719151 0.495687 0.295787
1.000000 0.686105 0.446082
0.350000 1.000000 0.675000
0.483250 1.000000 0.655500
0.655500 1.000000 0.655500
1.000000 0.984773 0.613899
1.000000 0.707881 0.446569
0.000000 0.000000 0.719151
0.239717 0.000000 0.719151
0.479434 0.000000 0.719151
0.719151 0.000000 0.719151
1.000000 0.350000 0.837500
0.000000 0.239717 0.719151
0.210951 0.210951 0.719151
0.465051 0.210951 0.719151
0.719151 0.210951 0.719151
1.000000 0.483250 0.827750
0.000000 0.479434 0.719151
0.210951 0.465051 0.719151
0.465051 0.465051 0.719151
0.719151 0.465051 0.719151
1.000000 0.655500 0.827750
0.000000 0.719151 0.719151
0.210951 0.719151 0.719151
0.465051 0.719151 0.719151
0.719151 0.710264 0.710084
1.000000 0.806731 0.802821
0.350000 1.000000 0.837500
0.483250 1.000000 0.827750
0.655500 1.000000 0.827750
0.827750 1.000000 0.827750
1.000000 0.843093 0.702734
0.350000 0.350000 1.000000
0.512500 0.350000 1.000000
0.675000 0.350000 1.000000
0.837500 0.350000 1.000000
1.000000 0.350000 1.000000
0.350000 0.512500 1.000000
0.483250 0.483250 1.000000
0.655500 0.483250 1.000000
0.827750 0.483250 1.000000
1.000000 0.483250 1.000000
0.350000 0.675000 1.000000
0.483250 0.655500 1.000000
0.655500 0.655500 1.000000
0.827750 0.655500 1.000000
1.000000 0.655500 1.000000
0.350000 0.837500 1.000000
0.483250 0.827750 1.000000
0.655500 0.827750 1.000000
0.827750 0.827750 1.000000
1.000000 0.827750 1.000000
0.350000 1.000000 1.000000
0.483250 1.000000 1.000000
0.655500 1.000000 1.000000
0.827750 1.000000 1.000000
1.000000 0.991967 0.991804
