assets/LUTs/skintone_caramel_glow_33.cube
TITLE "SkinTone Caramel Glow"
# Warm caramel skin: hue pulled to golden-orange, moderate richness, soft density, gentle contrast.
# Skin-tone selective LUT. Apply to display-referred Rec.709/sRGB (SDR) footage.
# Generated 2026-07-10 with Claude Code.
LUT_3D_SIZE 9
DOMAIN_MIN 0.0 0.0 0.0
DOMAIN_MAX 1.0 1.0 1.0
0.000000 0.000000 0.000000
0.120898 0.000000 0.000000
0.245312 0.000000 0.000000
0.372070 0.000000 0.000000
0.500000 0.000000 0.000000
0.627930 0.000000 0.000000
0.754687 0.000000 0.000000
0.879102 0.000000 0.000000
1.000000 0.000000 0.000000
0.000000 0.120898 0.000000
0.120898 0.120898 0.000000
0.245312 0.122656 0.000000
0.372070 0.124023 0.000000
0.500000 0.125000 0.000000
0.627930 0.125586 0.000000
0.754687 0.125781 0.000000
0.879102 0.125586 0.000000
1.000000 0.125000 0.000000
0.000000 0.245312 0.000000
0.122656 0.245312 0.000000
0.245312 0.245312 0.000000
0.372070 0.248047 0.000000
0.500000 0.250000 0.000000
0.627930 0.251172 0.000000
0.754687 0.251563 0.000000
0.879102 0.251172 0.000000
1.000000 0.250000 0.000000
0.000000 0.372070 0.000000
0.124023 0.372070 0.000000
0.248047 0.372070 0.000000
0.372070 0.372070 0.000000
0.500000 0.375000 0.000000
0.627930 0.376758 0.000000
0.754687 0.377344 0.000000
0.879102 0.376758 0.000000
1.000000 0.375000 0.000000
0.000000 0.500000 0.000000
0.125000 0.500000 0.000000
0.250000 0.500000 0.000000
0.375000 0.500000 0.000000
0.500000 0.500000 0.000000
0.627930 0.502344 0.000000
0.754687 0.503125 0.000000
0.879102 0.502344 0.000000
1.000000 0.500000 0.000000
0.000000 0.627930 0.000000
0.125586 0.627930 0.000000
0.251172 0.627930 0.000000
0.376758 0.627930 0.000000
0.502344 0.627930 0.000000
0.627930 0.627930 0.000000
0.754687 0.628906 0.000000
0.879102 0.627930 0.000000
1.000000 0.625000 0.000000
0.000000 0.754687 0.000000
0.125781 0.754687 0.000000
0.251563 0.754687 0.000000
0.377344 0.754687 0.000000
0.503125 0.754687 0.000000
0.628906 0.754687 0.000000
0.754687 0.754687 0.000000
0.879102 0.753516 0.000000
1.000000 0.750000 0.000000
0.000000 0.879102 0.000000
0.125586 0.879102 0.000000
0.251172 0.879102 0.000000
0.376758 0.879102 0.000000
0.502344 0.879102 0.000000
0.627930 0.879102 0.000000
0.753516 0.879102 0.000000
0.879102 0.879102 0.000000
1.000000 0.875000 0.000000
0.000000 1.000000 0.000000
0.125000 1.000000 0.000000
0.250000 1.000000 0.000000
0.375000 1.000000 0.000000
0.500000 1.000000 0.000000
0.625000 1.000000 0.000000
0.750000 1.000000 0.000000
0.875000 1.000000 0.000000
1.000000 1.000000 0.000000
0.000000 0.000000 0.120898
0.120898 0.000000 0.120898
0.245312 0.000000 0.122656
0.372070 0.000000 0.124023
0.500000 0.000000 0.125000
0.627930 0.000000 0.125586
0.754687 0.000000 0.125781
0.879102 0.000000 0.125586
1.000000 0.000000 0.125000
0.000000 0.120898 0.120898
0.120898 0.120898 0.120898
0.216551 0.114080 0.099721
0.340873 0.130848 0.101786
0.478926 0.141234 0.109939
0.617047 0.142537 0.116904
0.750070 0.139796 0.121012
0.877769 0.135418 0.123149
1.000000 0.125000 0.125000
0.000000 0.245312 0.122656
0.122656 0.245312 0.122656
0.221846 0.198100 0.103858
0.336746 0.209604 0.098927
0.476064 0.236568 0.107928
0.615547 0.251617 0.115717
0.749429 0.256867 0.120353
0.877583 0.256760 0.122810
1.000000 0.250000 0.125000
0.000000 0.372070 0.124023
0.124023 0.372070 0.124023
0.248047 0.372070 0.124023
0.346709 0.298650 0.105862
0.476064 0.329639 0.107928
0.615547 0.358337 0.115717
0.749429 0.371983 0.120353
0.877583 0.376731 0.122810
1.000000 0.375000 0.125000
0.000000 0.500000 0.125000
0.125000 0.500000 0.125000
0.250000 0.500000 0.125000
0.375000 0.500000 0.125000
0.482942 0.428083 0.112775
0.615547 0.461840 0.115717
0.749429 0.487100 0.120353
0.877583 0.496702 0.122810
1.000000 0.500000 0.125000
0.000000 0.627930 0.125586
0.125586 0.627930 0.125586
0.251172 0.627930 0.125586
0.376758 0.627930 0.125586
0.502344 0.627930 0.125586
0.619143 0.572087 0.118566
0.749429 0.596316 0.120353
0.877583 0.616174 0.122810
1.000000 0.625000 0.125000
0.000000 0.754687 0.125781
0.125781 0.754687 0.125781
0.251563 0.754687 0.125781
0.377344 0.754687 0.125781
0.503125 0.754687 0.125781
0.630078 0.754581 0.125671
0.750963 0.715619 0.121932
0.877583 0.730843 0.122810
1.000000 0.750000 0.125000
0.000000 0.879102 0.125586
0.125586 0.879102 0.125586
0.251172 0.879102 0.125586
0.376758 0.879102 0.125586
0.502344 0.879102 0.125586
0.627930 0.879102 0.125586
0.756557 0.878981 0.125365
0.878027 0.854624 0.123621
1.000000 0.875000 0.125000
0.000000 1.000000 0.125000
0.125000 1.000000 0.125000
0.250000 1.000000 0.125000
0.375000 1.000000 0.125000
0.500000 1.000000 0.125000
0.625000 1.000000 0.125000
0.750000 1.000000 0.125000
0.875000 1.000000 0.125000
1.000000 1.000000 0.125000
0.000000 0.000000 0.245312
0.122656 0.000000 0.245312
0.245312 0.000000 0.245312
0.372070 0.000000 0.248047
0.500000 0.000000 0.250000
0.627930 0.000000 0.251172
0.754687 0.000000 0.251562
0.879102 0.000000 0.251172
1.000000 0.000000 0.250000
0.000000 0.122656 0.245312
0.122656 0.122656 0.245312
0.245312 0.122656 0.245312
0.372070 0.124023 0.248047
0.500000 0.125000 0.250000
0.627677 0.125383 0.249991
0.754044 0.125115 0.246982
0.878753 0.124948 0.246039
1.000000 0.125000 0.250000
0.000000 0.245312 0.245312
0.122656 0.245312 0.245312
0.245312 0.245312 0.245312
0.340543 0.230491 0.215070
0.469747 0.247464 0.216316
0.602131 0.265226 0.218017
0.736045 0.282540 0.219786
0.870814 0.291071 0.225627
1.000000 0.250000 0.250000
0.000000 0.372070 0.248047
0.124023 0.372070 0.248047
0.248047 0.372070 0.248047
0.346437 0.321222 0.221151
0.465683 0.329902 0.211886
0.598623 0.350917 0.213589
0.733485 0.371876 0.215477
0.869666 0.389032 0.222109
1.000000 0.375000 0.250000
0.000000 0.500000 0.250000
0.125000 0.500000 0.250000
0.250000 0.500000 0.250000
0.375000 0.500000 0.250000
0.475468 0.424573 0.222592
0.598623 0.434341 0.213589
0.733485 0.456549 0.215477
0.869666 0.481132 0.222109
1.000000 0.500000 0.250000
0.000000 0.627930 0.251172
0.125586 0.627930 0.251172
0.251172 0.627930 0.251172
0.376758 0.627930 0.251172
0.502344 0.627930 0.251172
0.607052 0.530011 0.224262
0.733485 0.540472 0.215477
0.869666 0.573232 0.222109
1.000000 0.625000 0.250000
0.000000 0.754687 0.251563
0.125781 0.754687 0.251563
0.251563 0.754687 0.251563
0.377344 0.754687 0.251563
0.503125 0.754687 0.251563
0.628906 0.754687 0.251563
0.739626 0.637103 0.225834
0.869666 0.659175 0.222109
1.000000 0.750000 0.250000
0.000000 0.879102 0.251172
0.125586 0.879102 0.251172
0.251172 0.879102 0.251172
0.376758 0.879102 0.251172
0.502344 0.879102 0.251172
0.627930 0.879102 0.251172
0.757584 0.878910 0.250577
0.872415 0.761702 0.230542
1.000000 0.875000 0.250000
0.000000 1.000000 0.250000
0.125000 1.000000 0.250000
0.250000 1.000000 0.250000
0.375000 1.000000 0.250000
0.500000 1.000000 0.250000
0.625000 1.000000 0.250000
0.750000 1.000000 0.250000
0.875000 1.000000 0.250000
1.000000 1.000000 0.250000
0.000000 0.000000 0.372070
0.124023 0.000000 0.372070
0.248047 0.000000 0.372070
0.372070 0.000000 0.372070
0.500000 0.000000 0.375000
0.627930 0.000000 0.376758
0.754687 0.000000 0.377344
0.879102 0.000000 0.376758
1.000000 0.000000 0.375000
0.000000 0.124023 0.372070
0.124023 0.124023 0.372070
0.248047 0.124023 0.372070
0.372070 0.124023 0.372070
0.500000 0.125000 0.375000
0.627930 0.125586 0.376758
0.754687 0.125781 0.377344
0.879102 0.125586 0.376758
1.000000 0.125000 0.375000
0.000000 0.248047 0.372070
0.124023 0.248047 0.372070
0.248047 0.248047 0.372070
0.372070 0.248047 0.372070
0.500000 0.250000 0.375000
0.627930 0.251172 0.376758
0.754253 0.250813 0.374379
0.877945 0.247591 0.360319
1.000000 0.250000 0.375000
0.000000 0.372070 0.372070
0.124023 0.372070 0.372070
0.248047 0.372070 0.372070
0.372070 0.372070 0.372070
0.469747 0.344272 0.326690
0.602131 0.370851 0.338443
0.735841 0.387643 0.338852
0.869436 0.402856 0.340210
1.000000 0.375000 0.375000
0.000000 0.500000 0.375000
0.125000 0.500000 0.375000
0.250000 0.500000 0.375000
0.375000 0.500000 0.375000
0.475468 0.447323 0.335628
0.598623 0.456682 0.333313
0.733253 0.476162 0.333630
0.868099 0.495361 0.335186
1.000000 0.500000 0.375000
0.000000 0.627930 0.376758
0.125586 0.627930 0.376758
0.251172 0.627930 0.376758
0.376758 0.627930 0.376758
0.502344 0.627930 0.376758
0.607052 0.554446 0.345672
0.733253 0.562747 0.333630
0.868099 0.583678 0.335186
1.000000 0.625000 0.375000
0.000000 0.754687 0.377344
0.125781 0.754687 0.377344
0.251563 0.754687 0.377344
0.377344 0.754687 0.377344
0.503125 0.754687 0.377344
0.628906 0.754687 0.377344
0.739461 0.660309 0.346181
0.868099 0.671073 0.335186
1.000000 0.750000 0.375000
0.000000 0.879102 0.376758
0.125586 0.879102 0.376758
0.251172 0.879102 0.376758
0.376758 0.879102 0.376758
0.502344 0.879102 0.376758
0.627930 0.879102 0.376758
0.753516 0.879102 0.376758
0.871303 0.768885 0.347236
1.000000 0.875000 0.375000
0.000000 1.000000 0.375000
0.125000 1.000000 0.375000
0.250000 1.000000 0.375000
0.375000 1.000000 0.375000
0.500000 1.000000 0.375000
0.625000 1.000000 0.375000
0.750000 1.000000 0.375000
0.875000 1.000000 0.375000
1.000000 1.000000 0.375000
0.000000 0.000000 0.500000
0.125000 0.000000 0.500000
0.250000 0.000000 0.500000
0.375000 0.000000 0.500000
0.500000 0.000000 0.500000
0.627930 0.000000 0.502344
0.754687 0.000000 0.503125
0.879102 0.000000 0.502344
1.000000 0.000000 0.500000
0.000000 0.125000 0.500000
0.125000 0.125000 0.500000
0.250000 0.125000 0.500000
0.375000 0.125000 0.500000
0.500000 0.125000 0.500000
0.627930 0.125586 0.502344
0.754687 0.125781 0.503125
0.879102 0.125586 0.502344
1.000000 0.125000 0.500000
0.000000 0.250000 0.500000
0.125000 0.250000 0.500000
0.250000 0.250000 0.500000
0.375000 0.250000 0.500000
0.500000 0.250000 0.500000
0.627930 0.251172 0.502344
0.754687 0.251563 0.503125
0.879102 0.251172 0.502344
1.000000 0.250000 0.500000
0.000000 0.375000 0.500000
0.125000 0.375000 0.500000
0.250000 0.375000 0.500000
0.375000 0.375000 0.500000
0.500000 0.375000 0.500000
0.627930 0.376758 0.502344
0.754687 0.377344 0.503125
0.878878 0.375906 0.499417
1.000000 0.375000 0.500000
0.000000 0.500000 0.500000
0.125000 0.500000 0.500000
0.250000 0.500000 0.500000
0.375000 0.500000 0.500000
0.500000 0.500000 0.500000
0.602131 0.454236 0.433512
0.735841 0.498043 0.464722
0.869436 0.512358 0.464416
1.000000 0.500000 0.500000
0.000000 0.627930 0.502344
0.125586 0.627930 0.502344
0.251172 0.627930 0.502344
0.376758 0.627930 0.502344
0.502344 0.627930 0.502344
0.607052 0.575056 0.448076
0.733253 0.586798 0.459505
0.868099 0.604689 0.459200
1.000000 0.625000 0.500000
0.000000 0.754687 0.503125
0.125781 0.754687 0.503125
0.251563 0.754687 0.503125
0.377344 0.754687 0.503125
0.503125 0.754687 0.503125
0.628906 0.754687 0.503125
0.739461 0.685640 0.472041
0.868099 0.695042 0.459200
1.000000 0.750000 0.500000
0.000000 0.879102 0.502344
0.125586 0.879102 0.502344
0.251172 0.879102 0.502344
0.376758 0.879102 0.502344
0.502344 0.879102 0.502344
0.627930 0.879102 0.502344
0.753516 0.879102 0.502344
0.871303 0.793210 0.471708
1.000000 0.875000 0.500000
0.000000 1.000000 0.500000
0.125000 1.000000 0.500000
0.250000 1.000000 0.500000
0.375000 1.000000 0.500000
0.500000 1.000000 0.500000
0.625000 1.000000 0.500000
0.750000 1.000000 0.500000
0.875000 1.000000 0.500000
1.000000 1.000000 0.500000
0.000000 0.000000 0.627930
0.125586 0.000000 0.627930
0.251172 0.000000 0.627930
0.376758 0.000000 0.627930
0.502344 0.000000 0.627930
0.627930 0.000000 0.627930
0.754687 0.000000 0.628906
0.879102 0.000000 0.627930
1.000000 0.000000 0.625000
0.000000 0.125586 0.627930
0.125586 0.125586 0.627930
0.251172 0.125586 0.627930
0.376758 0.125586 0.627930
0.502344 0.125586 0.627930
0.627930 0.125586 0.627930
0.754687 0.125781 0.628906
0.879102 0.125586 0.627930
1.000000 0.125000 0.625000
0.000000 0.251172 0.627930
0.125586 0.251172 0.627930
0.251172 0.251172 0.627930
0.376758 0.251172 0.627930
0.502344 0.251172 0.627930
0.627930 0.251172 0.627930
0.754687 0.251563 0.628906
0.879102 0.251172 0.627930
1.000000 0.250000 0.625000
0.000000 0.376758 0.627930
0.125586 0.376758 0.627930
0.251172 0.376758 0.627930
0.376758 0.376758 0.627930
0.502344 0.376758 0.627930
0.627930 0.376758 0.627930
0.754687 0.377344 0.628906
0.879102 0.376758 0.627930
1.000000 0.375000 0.625000
0.000000 0.502344 0.627930
0.125586 0.502344 0.627930
0.251172 0.502344 0.627930
0.376758 0.502344 0.627930
0.502344 0.502344 0.627930
0.627930 0.502344 0.627930
0.754687 0.503125 0.628906
0.879102 0.502344 0.627930
1.000000 0.500000 0.625000
0.000000 0.627930 0.627930
0.125586 0.627930 0.627930
0.251172 0.627930 0.627930
0.376758 0.627930 0.627930
0.502344 0.627930 0.627930
0.627930 0.627930 0.627930
0.736389 0.569691 0.547113
0.869436 0.620625 0.587218
1.000000 0.625000 0.625000
0.000000 0.754687 0.628906
0.125781 0.754687 0.628906
0.251563 0.754687 0.628906
0.377344 0.754687 0.628906
0.503125 0.754687 0.628906
0.628906 0.754687 0.628906
0.739905 0.705733 0.566110
0.868099 0.715707 0.582566
1.000000 0.750000 0.625000
0.000000 0.879102 0.627930
0.125586 0.879102 0.627930
0.251172 0.879102 0.627930
0.376758 0.879102 0.627930
0.502344 0.879102 0.627930
0.627930 0.879102 0.627930
0.753516 0.879102 0.627930
0.871303 0.817163 0.594272
1.000000 0.875000 0.625000
0.000000 1.000000 0.625000
0.125000 1.000000 0.625000
0.250000 1.000000 0.625000
0.375000 1.000000 0.625000
0.500000 1.000000 0.625000
0.625000 1.000000 0.625000
0.750000 1.000000 0.625000
0.875000 1.000000 0.625000
1.000000 1.000000 0.625000
0.000000 0.000000 0.754687
0.125781 0.000000 0.754687
0.251562 0.000000 0.754687
0.377344 0.000000 0.754687
0.503125 0.000000 0.754687
0.628906 0.000000 0.754687
0.754687 0.000000 0.754687
0.879102 0.000000 0.753516
1.000000 0.000000 0.750000
0.000000 0.125781 0.754687
0.125781 0.125781 0.754687
0.251563 0.125781 0.754687
0.377344 0.125781 0.754687
0.503125 0.125781 0.754687
0.628906 0.125781 0.754687
0.754687 0.125781 0.754687
0.879102 0.125586 0.753516
1.000000 0.125000 0.750000
0.000000 0.251562 0.754687
0.125781 0.251563 0.754687
0.251563 0.251563 0.754687
0.377344 0.251563 0.754687
0.503125 0.251563 0.754687
0.628906 0.251563 0.754687
0.754687 0.251563 0.754687
0.879102 0.251172 0.753516
1.000000 0.250000 0.750000
0.000000 0.377344 0.754687
0.125781 0.377344 0.754687
0.251563 0.377344 0.754687
0.377344 0.377344 0.754687
0.503125 0.377344 0.754687
0.628906 0.377344 0.754687
0.754687 0.377344 0.754687
0.879102 0.376758 0.753516
1.000000 0.375000 0.750000
0.000000 0.503125 0.754687
0.125781 0.503125 0.754687
0.251563 0.503125 0.754687
0.377344 0.503125 0.754687
0.503125 0.503125 0.754687
0.628906 0.503125 0.754687
0.754687 0.503125 0.754687
0.879102 0.502344 0.753516
1.000000 0.500000 0.750000
0.000000 0.628906 0.754687
0.125781 0.628906 0.754687
0.251563 0.628906 0.754687
0.377344 0.628906 0.754687
0.503125 0.628906 0.754687
0.628906 0.628906 0.754687
0.754687 0.628906 0.754687
0.879102 0.627930 0.753516
1.000000 0.625000 0.750000
0.000000 0.754687 0.754687
0.125781 0.754687 0.754687
0.251563 0.754687 0.754687
0.377344 0.754687 0.754687
0.503125 0.754687 0.754687
0.628906 0.754687 0.754687
0.754687 0.754687 0.754687
0.871345 0.703698 0.686120
1.000000 0.750000 0.750000
0.000000 0.879102 0.753516
0.125586 0.879102 0.753516
0.251172 0.879102 0.753516
0.376758 0.879102 0.753516
0.502344 0.879102 0.753516
0.627930 0.879102 0.753516
0.753516 0.879102 0.753516
0.872844 0.845108 0.702841
1.000000 0.875000 0.750000
0.000000 1.000000 0.750000
0.125000 1.000000 0.750000
0.250000 1.000000 0.750000
0.375000 1.000000 0.750000
0.500000 1.000000 0.750000
0.625000 1.000000 0.750000
0.750000 1.000000 0.750000
0.875000 1.000000 0.750000
1.000000 1.000000 0.750000
0.000000 0.000000 0.879102
0.125586 0.000000 0.879102
0.251172 0.000000 0.879102
0.376758 0.000000 0.879102
0.502344 0.000000 0.879102
0.627930 0.000000 0.879102
0.753516 0.000000 0.879102
0.879102 0.000000 0.879102
1.000000 0.000000 0.875000
0.000000 0.125586 0.879102
0.125586 0.125586 0.879102
0.251172 0.125586 0.879102
0.376758 0.125586 0.879102
0.502344 0.125586 0.879102
0.627930 0.125586 0.879102
0.753516 0.125586 0.879102
0.879102 0.125586 0.879102
1.000000 0.125000 0.875000
0.000000 0.251172 0.879102
0.125586 0.251172 0.879102
0.251172 0.251172 0.879102
0.376758 0.251172 0.879102
0.502344 0.251172 0.879102
0.627930 0.251172 0.879102
0.753516 0.251172 0.879102
0.879102 0.251172 0.879102
1.000000 0.250000 0.875000
0.000000 0.376758 0.879102
0.125586 0.376758 0.879102
0.251172 0.376758 0.879102
0.376758 0.376758 0.879102
0.502344 0.376758 0.879102
0.627930 0.376758 0.879102
0.753516 0.376758 0.879102
0.879102 0.376758 0.879102
1.000000 0.375000 0.875000
0.000000 0.502344 0.879102
0.125586 0.502344 0.879102
0.251172 0.502344 0.879102
0.376758 0.502344 0.879102
0.502344 0.502344 0.879102
0.627930 0.502344 0.879102
0.753516 0.502344 0.879102
0.879102 0.502344 0.879102
1.000000 0.500000 0.875000
0.000000 0.627930 0.879102
0.125586 0.627930 0.879102
0.251172 0.627930 0.879102
0.376758 0.627930 0.879102
0.502344 0.627930 0.879102
0.627930 0.627930 0.879102
0.753516 0.627930 0.879102
0.879102 0.627930 0.879102
1.000000 0.625000 0.875000
0.000000 0.753516 0.879102
0.125586 0.753516 0.879102
0.251172 0.753516 0.879102
0.376758 0.753516 0.879102
0.502344 0.753516 0.879102
0.627930 0.753516 0.879102
0.753516 0.753516 0.879102
0.879102 0.753516 0.879102
1.000000 0.750000 0.875000
0.000000 0.879102 0.879102
0.125586 0.879102 0.879102
0.251172 0.879102 0.879102
0.376758 0.879102 0.879102
0.502344 0.879102 0.879102
0.627930 0.879102 0.879102
0.753516 0.879102 0.879102
0.879102 0.879102 0.879102
1.000000 0.875000 0.875000
0.000000 1.000000 0.875000
0.125000 1.000000 0.875000
0.250000 1.000000 0.875000
0.375000 1.000000 0.875000
0.500000 1.000000 0.875000
0.625000 1.000000 0.875000
0.750000 1.000000 0.875000
0.875000 1.000000 0.875000
1.000000 1.000000 0.875000
0.000000 0.000000 1.000000
0.125000 0.000000 1.000000
0.250000 0.000000 1.000000
0.375000 0.000000 1.000000
0.500000 0.000000 1.000000
0.625000 0.000000 1.000000
0.750000 0.000000 1.000000
0.875000 0.000000 1.000000
1.000000 0.000000 1.000000
0.000000 0.125000 1.000000
0.125000 0.125000 1.000000
0.250000 0.125000 1.000000
0.375000 0.125000 1.000000
0.500000 0.125000 1.000000
0.625000 0.125000 1.000000
0.750000 0.125000 1.000000
0.875000 0.125000 1.000000
1.000000 0.125000 1.000000
0.000000 0.250000 1.000000
0.125000 0.250000 1.000000
0.250000 0.250000 1.000000
0.375000 0.250000 1.000000
0.500000 0.250000 1.000000
0.625000 0.250000 1.000000
0.750000 0.250000 1.000000
0.875000 0.250000 1.000000
1.000000 0.250000 1.000000
0.000000 0.375000 1.000000
0.125000 0.375000 1.000000
0.250000 0.375000 1.000000
0.375000 0.375000 1.000000
0.500000 0.375000 1.000000
0.625000 0.375000 1.000000
0.750000 0.375000 1.000000
0.875000 0.375000 1.000000
1.000000 0.375000 1.000000
0.000000 0.500000 1.000000
0.125000 0.500000 1.000000
0.250000 0.500000 1.000000
0.375000 0.500000 1.000000
0.500000 0.500000 1.000000
0.625000 0.500000 1.000000
0.750000 0.500000 1.000000
0.875000 0.500000 1.000000
1.000000 0.500000 1.000000
0.000000 0.625000 1.000000
0.125000 0.625000 1.000000
0.250000 0.625000 1.000000
0.375000 0.625000 1.000000
0.500000 0.625000 1.000000
0.625000 0.625000 1.000000
0.750000 0.625000 1.000000
0.875000 0.625000 1.000000
1.000000 0.625000 1.000000
0.000000 0.750000 1.000000
0.125000 0.750000 1.000000
0.250000 0.750000 1.000000
0.375000 0.750000 1.000000
0.500000 0.750000 1.000000
0.625000 0.750000 1.000000
0.750000 0.750000 1.000000
0.875000 0.750000 1.000000
1.000000 0.750000 1.000000
0.000000 0.875000 1.000000
0.125000 0.875000 1.000000
0.250000 0.875000 1.000000
0.375000 0.875000 1.000000
0.500000 0.875000 1.000000
0.625000 0.875000 1.000000
0.750000 0.875000 1.000000
0.875000 0.875000 1.000000
1.000000 0.875000 1.000000
0.000000 1.000000 1.000000
0.125000 1.000000 1.000000
0.250000 1.000000 1.000000
0.375000 1.000000 1.000000
0.500000 1.000000 1.000000
0.625000 1.000000 1.000000
0.750000 1.000000 1.000000
0.875000 1.000000 1.000000
1.000000 1.000000 1.000000
