assets/LUTs/skin_brown_caramel_tan_33.cube
TITLE "Skin Brown / Caramel Tan 33"
# Selective LUT: makes skin tones browner and yellowed skin more tan/caramel.
# Generated as a 33-point 3D LUT. Input/output expected in display-referred Rec.709/sRGB-like space.
LUT_3D_SIZE 5
DOMAIN_MIN 0.0 0.0 0.0
DOMAIN_MAX 1.0 1.0 1.0
0.000000 0.000000 0.000000
0.250000 0.000000 0.000000
0.500000 0.000000 0.000000
0.750000 0.000000 0.000000
1.000000 0.000000 0.000000
0.000000 0.250000 0.000000
0.250000 0.250000 0.000000
0.500000 0.250000 0.000000
0.750000 0.250000 0.000000
1.000000 0.250000 0.000000
0.000000 0.500000 0.000000
0.250000 0.500000 0.000000
0.500000 0.500000 0.000000
0.750000 0.500000 0.000000
1.000000 0.500000 0.000000
0.000000 0.750000 0.000000
0.250000 0.750000 0.000000
0.500000 0.750000 0.000000
0.750000 0.750000 0.000000
1.000000 0.750000 0.000000
0.000000 1.000000 0.000000
0.250000 1.000000 0.000000
0.500000 1.000000 0.000000
0.750000 1.000000 0.000000
1.000000 1.000000 0.000000
0.000000 0.000000 0.250000
0.250000 0.000000 0.250000
0.500000 0.000000 0.250000
0.750000 0.000000 0.250000
1.000000 0.000000 0.250000
0.000000 0.250000 0.250000
0.250000 0.250000 0.250000
0.498898 0.250162 0.246335
0.749044 0.251979 0.245439
0.999251 0.251551 0.242259
0.000000 0.500000 0.250000
0.250022 0.499992 0.249986
0.484300 0.392297 0.205625
0.735728 0.466137 0.195309
0.991996 0.486377 0.170368
0.000000 0.750000 0.250000
0.250049 0.749991 0.249982
0.517770 0.745235 0.240552
0.735791 0.563639 0.195501
0.990000 0.683374 0.151575
0.000000 1.000000 0.250000
0.250067 0.999998 0.249969
0.502102 0.999935 0.248883
0.927130 0.988024 0.185067
0.992752 0.811352 0.177603
0.000000 0.000000 0.500000
0.250000 0.000000 0.500000
0.500000 0.000000 0.500000
0.750000 0.000000 0.500000
1.000000 0.000000 0.500000
0.000000 0.250000 0.500000
0.250000 0.250000 0.500000
0.499998 0.250000 0.500000
0.749974 0.249905 0.501297
0.999914 0.249234 0.508568
0.000000 0.500000 0.500000
0.250000 0.500000 0.500000
0.500000 0.500000 0.500000
0.750030 0.497285 0.492307
0.999251 0.497824 0.490110
0.000000 0.750000 0.500000
0.250000 0.750000 0.500000
0.500013 0.749995 0.499970
0.751313 0.634872 0.403730
0.990354 0.702778 0.377914
0.000000 1.000000 0.500000
0.250000 1.000000 0.499999
0.500035 0.999998 0.499961
0.766639 0.999063 0.479457
0.995896 0.923468 0.446656
0.000000 0.000000 0.750000
0.250000 0.000000 0.750000
0.500000 0.000000 0.750000
0.750000 0.000000 0.750000
1.000000 0.000000 0.750000
0.000000 0.250000 0.750000
0.250000 0.250000 0.750000
0.500000 0.250000 0.750000
0.749996 0.250000 0.750000
0.999996 0.249966 0.750360
0.000000 0.500000 0.750000
0.250000 0.500000 0.750000
0.500000 0.500000 0.750000
0.749998 0.500000 0.750000
0.999979 0.499789 0.751238
0.000000 0.750000 0.750000
0.250000 0.750000 0.750000
0.500000 0.750000 0.750000
0.750000 0.750000 0.750000
0.999251 0.743991 0.737961
0.000000 1.000000 0.750000
0.250000 1.000000 0.750000
0.500000 1.000000 0.750000
0.750001 0.999998 0.749954
0.998753 0.986602 0.730004
0.000000 0.000000 1.000000
0.250000 0.000000 1.000000
0.500000 0.000000 1.000000
0.750000 0.000000 1.000000
1.000000 0.000000 1.000000
0.000000 0.250000 1.000000
0.250000 0.250000 1.000000
0.500000 0.250000 1.000000
0.750000 0.250000 1.000000
0.999994 0.249999 1.000000
0.000000 0.500000 1.000000
0.250000 0.500000 1.000000
0.500000 0.500000 1.000000
0.750000 0.500000 1.000000
0.999996 0.499999 1.000000
0.000000 0.750000 1.000000
0.250000 0.750000 1.000000
0.500000 0.750000 1.000000
0.750000 0.750000 1.000000
0.999998 0.749999 1.000000
0.000000 1.000000 1.000000
0.250000 1.000000 1.000000
0.500000 1.000000 1.000000
0.750000 1.000000 1.000000
1.000000 1.000000 1.000000
