assets/LUTs/skintone_morena_deep_restore_33.cube
TITLE "Skintone Morena Deep Restore"
# Restore dark morena skin from lifted/yellowed camera footage
# Skin-weighted: warm saturated band darkens hard, bedding/cool hues hold
# Target: Rec.709 SDR. Run at 100%; stack bronze_oiled after if more gloss wanted
LUT_3D_SIZE 9
DOMAIN_MIN 0.0 0.0 0.0
DOMAIN_MAX 1.0 1.0 1.0
0.000000 0.000000 0.000000
0.110031 0.015295 0.013204
0.216439 0.030087 0.025973
0.326075 0.045327 0.039129
0.442336 0.061488 0.053080
0.560372 0.077896 0.067245
0.679843 0.094504 0.081581
0.818412 0.134459 0.119359
0.960000 0.187008 0.169943
0.013241 0.110338 0.013241
0.108923 0.055930 0.013071
0.167049 0.082575 0.020046
0.239521 0.099002 0.028743
0.349824 0.124726 0.041979
0.465875 0.148525 0.055905
0.584639 0.170689 0.070157
0.766224 0.247910 0.139747
0.960000 0.349264 0.237169
0.027606 0.230047 0.027606
0.209945 0.229559 0.027547
0.167391 0.085952 0.020087
0.228530 0.120821 0.027424
0.306969 0.151740 0.036836
0.395872 0.178931 0.047505
0.499385 0.206413 0.059926
0.715381 0.322326 0.155941
0.960000 0.481595 0.305731
0.042428 0.353568 0.042428
0.203877 0.353568 0.042428
0.282448 0.207882 0.033894
0.226978 0.116548 0.027237
0.310129 0.164172 0.037216
0.391145 0.203623 0.046937
0.471792 0.233215 0.056615
0.687075 0.369095 0.163388
0.960000 0.574493 0.355319
0.057556 0.479632 0.057556
0.200208 0.479632 0.057556
0.437429 0.478296 0.057395
0.340126 0.213244 0.040815
0.307907 0.158103 0.036949
0.392185 0.206321 0.047062
0.476468 0.251903 0.057176
0.685519 0.397843 0.163765
0.960000 0.620178 0.368634
0.072915 0.607621 0.072915
0.202461 0.607621 0.072915
0.432679 0.607621 0.072915
0.542395 0.467007 0.065087
0.410943 0.239702 0.049313
0.390072 0.200293 0.046809
0.475072 0.248476 0.057009
0.687727 0.407717 0.163229
0.960000 0.638587 0.365177
0.088460 0.737165 0.088460
0.209396 0.737165 0.088460
0.425070 0.737165 0.088460
0.672302 0.735111 0.088213
0.588886 0.433419 0.070666
0.488147 0.274026 0.058578
0.473235 0.242995 0.056788
0.686233 0.401560 0.163592
0.960000 0.641250 0.363995
0.102638 0.855320 0.102638
0.216531 0.855320 0.102638
0.413505 0.855320 0.102638
0.658964 0.855320 0.102638
0.823028 0.761703 0.117373
0.733016 0.513041 0.150734
0.691648 0.420142 0.162261
0.685381 0.397015 0.163798
0.960000 0.635461 0.366333
0.115200 0.960000 0.115200
0.223296 0.960000 0.115200
0.400723 0.960000 0.115200
0.634536 0.960000 0.115200
0.878166 0.960000 0.117162
0.960000 0.799628 0.216082
0.960000 0.688681 0.319966
0.960000 0.647170 0.360717
0.960000 0.632291 0.367256
0.013241 0.013241 0.110338
0.110338 0.013241 0.110338
0.230047 0.027606 0.128826
0.353568 0.042428 0.146142
0.479632 0.057556 0.163075
0.607621 0.072915 0.179856
0.735241 0.088229 0.203804
0.851769 0.104330 0.236847
0.960000 0.124101 0.277396
0.013241 0.110338 0.110338
0.110338 0.110338 0.110338
0.216439 0.101866 0.099337
0.326075 0.095930 0.090849
0.442336 0.091108 0.083354
0.560372 0.085756 0.075278
0.679843 0.094504 0.081581
0.818412 0.134459 0.119359
0.960000 0.187008 0.169943
0.027606 0.230047 0.128826
0.115023 0.230047 0.115023
0.167391 0.103631 0.052065
0.226287 0.111858 0.027154
0.324922 0.134301 0.038991
0.443174 0.158009 0.053181
0.565199 0.180191 0.067824
0.757112 0.262932 0.142915
0.960000 0.370390 0.247349
0.042428 0.353568 0.146142
0.117856 0.353568 0.117856
0.329693 0.352583 0.116836
0.226978 0.116548 0.027237
0.310011 0.163899 0.037201
0.388883 0.192232 0.046666
0.480271 0.217079 0.057633
0.702219 0.340435 0.159543
0.960000 0.512285 0.322761
0.057556 0.479632 0.163075
0.119908 0.479632 0.119908
0.306567 0.479632 0.119908
0.383155 0.282001 0.045979
0.307907 0.158103 0.036949
0.392887 0.207981 0.047146
0.474537 0.247035 0.056944
0.684453 0.385392 0.164021
0.960000 0.598564 0.364745
0.072915 0.607621 0.179856
0.121524 0.607621 0.121524
0.285814 0.607621 0.121524
0.558724 0.605928 0.119760
0.430888 0.270148 0.051707
0.390072 0.200293 0.046809
0.475798 0.250309 0.057096
0.687464 0.406728 0.163293
0.960000 0.633071 0.367052
0.088460 0.737165 0.196577
0.122861 0.737165 0.122861
0.271692 0.737165 0.122861
0.536181 0.737165 0.122861
0.658033 0.566573 0.078964
0.498556 0.290806 0.059827
0.473235 0.242995 0.056788
0.686565 0.403063 0.163512
0.960000 0.641699 0.363777
0.102638 0.855320 0.210164
0.122189 0.855320 0.122189
0.258864 0.855320 0.122189
0.502607 0.855320 0.122189
0.782791 0.853998 0.120619
0.759846 0.574484 0.141977
0.694983 0.429026 0.161420
0.685381 0.397015 0.163798
0.960000 0.636454 0.365993
0.115200 0.960000 0.220800
0.120000 0.960000 0.120000
0.247106 0.960000 0.120000
0.466929 0.960000 0.120000
0.740864 0.960000 0.120000
0.960000 0.890745 0.163097
0.960000 0.709381 0.296603
0.960000 0.651234 0.357961
0.960000 0.632291 0.367256
0.027606 0.027606 0.230047
0.128826 0.027606 0.230047
0.230047 0.027606 0.230047
0.353568 0.042428 0.249855
0.479632 0.057556 0.268594
0.607621 0.072915 0.286797
0.737165 0.088460 0.304695
0.855320 0.102638 0.317690
0.960000 0.115200 0.326400
0.027606 0.128826 0.230047
0.115023 0.115023 0.230047
0.230047 0.115023 0.230047
0.353568 0.117856 0.235712
0.479632 0.119908 0.239816
0.607621 0.121524 0.243048
0.737165 0.122861 0.245722
0.854082 0.120718 0.251718
0.960000 0.120467 0.269312
0.027606 0.230047 0.230047
0.115023 0.230047 0.230047
0.230047 0.230047 0.230047
0.328111 0.212971 0.210429
0.442336 0.208184 0.203014
0.560372 0.204410 0.196552
0.679843 0.200007 0.189413
0.818412 0.217688 0.204426
0.960000 0.247126 0.231388
0.042428 0.353568 0.249855
0.117856 0.353568 0.235712
0.235712 0.353568 0.235712
0.236355 0.177556 0.130001
0.306969 0.185256 0.095162
0.411627 0.190916 0.080560
0.537658 0.200692 0.076822
0.744595 0.282069 0.147078
0.960000 0.397479 0.260865
0.057556 0.479632 0.268594
0.119908 0.479632 0.239816
0.239816 0.479632 0.239816
0.455008 0.478296 0.238444
0.307907 0.190624 0.095771
0.392737 0.219420 0.069131
0.471792 0.233215 0.056615
0.689912 0.361593 0.162692
0.960000 0.548188 0.342282
0.072915 0.607621 0.286797
0.121524 0.607621 0.243048
0.243048 0.607621 0.243048
0.432224 0.607621 0.243048
0.485399 0.379475 0.132323
0.390072 0.211775 0.067578
0.476650 0.252323 0.057198
0.686220 0.401497 0.163595
0.960000 0.620178 0.368634
0.088460 0.737165 0.304695
0.122861 0.737165 0.245722
0.245722 0.737165 0.245722
0.411819 0.737165 0.245722
0.687388 0.735111 0.243596
0.522753 0.329660 0.067254
0.473235 0.242995 0.056788
0.687032 0.405032 0.163398
0.960000 0.640884 0.364168
0.102638 0.855320 0.317690
0.122189 0.855320 0.244377
0.244377 0.855320 0.244377
0.392394 0.855320 0.244377
0.655436 0.855320 0.244377
0.804369 0.707436 0.190649
0.701685 0.445034 0.159684
0.685381 0.397015 0.163798
0.960000 0.637774 0.365502
0.115200 0.960000 0.326400
0.120000 0.960000 0.240000
0.240000 0.960000 0.240000
0.374227 0.960000 0.240000
0.613605 0.960000 0.240000
0.890050 0.960000 0.239559
0.960000 0.749041 0.256809
0.960000 0.657445 0.353015
0.960000 0.632291 0.367256
0.042428 0.042428 0.353568
0.146142 0.042428 0.353568
0.249855 0.042428 0.353568
0.353568 0.042428 0.353568
0.479632 0.057556 0.374113
0.607621 0.072915 0.393738
0.737165 0.088460 0.412813
0.855320 0.102638 0.425216
0.960000 0.115200 0.432000
0.042428 0.146142 0.353568
0.117856 0.117856 0.353568
0.235712 0.117856 0.353568
0.353568 0.117856 0.353568
0.479632 0.119908 0.359724
0.607621 0.121524 0.364573
0.737165 0.122861 0.368583
0.855320 0.122189 0.366566
0.960000 0.120000 0.360000
0.042428 0.249855 0.353568
0.117856 0.235712 0.353568
0.235712 0.235712 0.353568
0.353568 0.235712 0.353568
0.479632 0.239816 0.359724
0.607621 0.243048 0.364573
0.737165 0.245722 0.368583
0.855320 0.244377 0.366566
0.960000 0.239587 0.368274
0.042428 0.353568 0.353568
0.117856 0.353568 0.353568
0.235712 0.353568 0.353568
0.353568 0.353568 0.353568
0.458989 0.341620 0.339029
0.560372 0.323064 0.317825
0.679843 0.319966 0.312021
0.818412 0.337833 0.327223
0.960000 0.365938 0.352823
0.057556 0.479632 0.374113
0.119908 0.479632 0.359724
0.239816 0.479632 0.359724
0.359724 0.479632 0.359724
0.384586 0.320311 0.268328
0.388883 0.265530 0.174221
0.499385 0.276247 0.164677
0.726862 0.376304 0.247437
0.960000 0.493708 0.357617
0.072915 0.607621 0.393738
0.121524 0.607621 0.364573
0.243048 0.607621 0.364573
0.364573 0.607621 0.364573
0.582326 0.605928 0.362844
0.390072 0.271207 0.175076
0.476468 0.301245 0.149303
0.684453 0.416465 0.218095
0.960000 0.597337 0.377631
0.088460 0.737165 0.412813
0.122861 0.737165 0.368583
0.245722 0.737165 0.368583
0.368583 0.737165 0.368583
0.559839 0.737165 0.368583
0.588886 0.481797 0.231926
0.473235 0.292977 0.147194
0.687581 0.437573 0.220110
0.960000 0.643740 0.379487
0.102638 0.855320 0.425216
0.122189 0.855320 0.366566
0.244377 0.855320 0.366566
0.366566 0.855320 0.366566
0.531754 0.855320 0.366566
0.806527 0.853998 0.365079
0.717265 0.515118 0.240407
0.685381 0.427363 0.218691
0.960000 0.647145 0.379073
0.115200 0.960000 0.432000
0.120000 0.960000 0.360000
0.240000 0.960000 0.360000
0.360000 0.960000 0.360000
0.505365 0.960000 0.360000
0.763696 0.960000 0.360000
0.960000 0.863933 0.351769
0.960000 0.681633 0.372138
0.960000 0.639291 0.379917
0.057556 0.057556 0.479632
0.163075 0.057556 0.479632
0.268594 0.057556 0.479632
0.374113 0.057556 0.479632
0.479632 0.057556 0.479632
0.607621 0.072915 0.500680
0.737165 0.088460 0.520930
0.855320 0.102638 0.532742
0.960000 0.115200 0.537600
0.057556 0.163075 0.479632
0.119908 0.119908 0.479632
0.239816 0.119908 0.479632
0.359724 0.119908 0.479632
0.479632 0.119908 0.479632
0.607621 0.121524 0.486097
0.737165 0.122861 0.491444
0.855320 0.122189 0.488755
0.960000 0.120000 0.480000
0.057556 0.268594 0.479632
0.119908 0.239816 0.479632
0.239816 0.239816 0.479632
0.359724 0.239816 0.479632
0.479632 0.239816 0.479632
0.607621 0.243048 0.486097
0.737165 0.245722 0.491444
0.855320 0.244377 0.488755
0.960000 0.240000 0.480000
0.057556 0.374113 0.479632
0.119908 0.359724 0.479632
0.239816 0.359724 0.479632
0.359724 0.359724 0.479632
0.479632 0.359724 0.479632
0.607621 0.364573 0.486097
0.737165 0.368583 0.491444
0.855320 0.366566 0.488755
0.960000 0.360000 0.480000
0.057556 0.479632 0.479632
0.119908 0.479632 0.479632
0.239816 0.479632 0.479632
0.359724 0.479632 0.479632
0.479632 0.479632 0.479632
0.593846 0.474861 0.472235
0.684089 0.444029 0.438729
0.818412 0.457978 0.450020
0.960000 0.484751 0.474259
0.072915 0.607621 0.500680
0.121524 0.607621 0.486097
0.243048 0.607621 0.486097
0.364573 0.607621 0.486097
0.486097 0.607621 0.486097
0.544196 0.477392 0.423364
0.491449 0.364193 0.269995
0.702219 0.466035 0.347943
0.960000 0.610526 0.482058
0.088460 0.737165 0.520930
0.122861 0.737165 0.491444
0.245722 0.737165 0.491444
0.368583 0.737165 0.491444
0.491444 0.737165 0.491444
0.711402 0.735263 0.489508
0.492785 0.370191 0.271043
0.687464 0.499704 0.336892
0.960000 0.693551 0.496318
0.102638 0.855320 0.532742
0.122189 0.855320 0.488755
0.244377 0.855320 0.488755
0.366566 0.855320 0.488755
0.488755 0.855320 0.488755
0.678964 0.855320 0.488755
0.759846 0.650405 0.395045
0.685381 0.491868 0.335364
0.960000 0.711333 0.495036
0.115200 0.960000 0.537600
0.120000 0.960000 0.480000
0.240000 0.960000 0.480000
0.360000 0.960000 0.480000
0.480000 0.960000 0.480000
0.642229 0.960000 0.480000
0.913367 0.960000 0.479706
0.960000 0.758512 0.484695
0.960000 0.703433 0.495934
0.072915 0.072915 0.607621
0.179856 0.072915 0.607621
0.286797 0.072915 0.607621
0.393738 0.072915 0.607621
0.500680 0.072915 0.607621
0.607621 0.072915 0.607621
0.737165 0.088460 0.629048
0.855320 0.102638 0.640268
0.960000 0.115200 0.643200
0.072915 0.179856 0.607621
0.121524 0.121524 0.607621
0.243048 0.121524 0.607621
0.364573 0.121524 0.607621
0.486097 0.121524 0.607621
0.607621 0.121524 0.607621
0.737165 0.122861 0.614304
0.855320 0.122189 0.610943
0.960000 0.120000 0.600000
0.072915 0.286797 0.607621
0.121524 0.243048 0.607621
0.243048 0.243048 0.607621
0.364573 0.243048 0.607621
0.486097 0.243048 0.607621
0.607621 0.243048 0.607621
0.737165 0.245722 0.614304
0.855320 0.244377 0.610943
0.960000 0.240000 0.600000
0.072915 0.393738 0.607621
0.121524 0.364573 0.607621
0.243048 0.364573 0.607621
0.364573 0.364573 0.607621
0.486097 0.364573 0.607621
0.607621 0.364573 0.607621
0.737165 0.368583 0.614304
0.855320 0.366566 0.610943
0.960000 0.360000 0.600000
0.072915 0.500680 0.607621
0.121524 0.486097 0.607621
0.243048 0.486097 0.607621
0.364573 0.486097 0.607621
0.486097 0.486097 0.607621
0.607621 0.486097 0.607621
0.737165 0.491444 0.614304
0.855320 0.488755 0.610943
0.960000 0.480000 0.600000
0.072915 0.607621 0.607621
0.121524 0.607621 0.607621
0.243048 0.607621 0.607621
0.364573 0.607621 0.607621
0.486097 0.607621 0.607621
0.607621 0.607621 0.607621
0.728964 0.608698 0.606043
0.828149 0.589866 0.584605
0.960000 0.603589 0.595720
0.088460 0.737165 0.629048
0.122861 0.737165 0.614304
0.245722 0.737165 0.614304
0.368583 0.737165 0.614304
0.491444 0.737165 0.614304
0.614304 0.737165 0.614304
0.699404 0.631473 0.576534
0.729528 0.597085 0.499047
0.960000 0.724818 0.607227
0.102638 0.855320 0.640268
0.122189 0.855320 0.610943
0.244377 0.855320 0.610943
0.366566 0.855320 0.610943
0.488755 0.855320 0.610943
0.610943 0.855320 0.610943
0.830620 0.854347 0.609977
0.730212 0.602710 0.499592
0.960000 0.773298 0.611402
0.115200 0.960000 0.643200
0.120000 0.960000 0.600000
0.240000 0.960000 0.600000
0.360000 0.960000 0.600000
0.480000 0.960000 0.600000
0.600000 0.960000 0.600000
0.786802 0.960000 0.600000
0.960000 0.851034 0.596781
0.960000 0.767625 0.612041
0.088460 0.088460 0.737165
0.196577 0.088460 0.737165
0.304695 0.088460 0.737165
0.412813 0.088460 0.737165
0.520930 0.088460 0.737165
0.629048 0.088460 0.737165
0.737165 0.088460 0.737165
0.855320 0.102638 0.747794
0.960000 0.115200 0.748800
0.088460 0.196577 0.737165
0.122861 0.122861 0.737165
0.245722 0.122861 0.737165
0.368583 0.122861 0.737165
0.491444 0.122861 0.737165
0.614304 0.122861 0.737165
0.737165 0.122861 0.737165
0.855320 0.122189 0.733132
0.960000 0.120000 0.720000
0.088460 0.304695 0.737165
0.122861 0.245722 0.737165
0.245722 0.245722 0.737165
0.368583 0.245722 0.737165
0.491444 0.245722 0.737165
0.614304 0.245722 0.737165
0.737165 0.245722 0.737165
0.855320 0.244377 0.733132
0.960000 0.240000 0.720000
0.088460 0.412813 0.737165
0.122861 0.368583 0.737165
0.245722 0.368583 0.737165
0.368583 0.368583 0.737165
0.491444 0.368583 0.737165
0.614304 0.368583 0.737165
0.737165 0.368583 0.737165
0.855320 0.366566 0.733132
0.960000 0.360000 0.720000
0.088460 0.520930 0.737165
0.122861 0.491444 0.737165
0.245722 0.491444 0.737165
0.368583 0.491444 0.737165
0.491444 0.491444 0.737165
0.614304 0.491444 0.737165
0.737165 0.491444 0.737165
0.855320 0.488755 0.733132
0.960000 0.480000 0.720000
0.088460 0.629048 0.737165
0.122861 0.614304 0.737165
0.245722 0.614304 0.737165
0.368583 0.614304 0.737165
0.491444 0.614304 0.737165
0.614304 0.614304 0.737165
0.737165 0.614304 0.737165
0.855320 0.610943 0.733132
0.960000 0.600000 0.720000
0.088460 0.737165 0.737165
0.122861 0.737165 0.737165
0.245722 0.737165 0.737165
0.368583 0.737165 0.737165
0.491444 0.737165 0.737165
0.614304 0.737165 0.737165
0.737165 0.737165 0.737165
0.852991 0.736669 0.734101
0.960000 0.730424 0.725355
0.102638 0.855320 0.747794
0.122189 0.855320 0.733132
0.244377 0.855320 0.733132
0.366566 0.855320 0.733132
0.488755 0.855320 0.733132
0.610943 0.855320 0.733132
0.733132 0.855320 0.733132
0.844595 0.785532 0.737765
0.960000 0.843156 0.756665
0.115200 0.960000 0.748800
0.120000 0.960000 0.720000
0.240000 0.960000 0.720000
0.360000 0.960000 0.720000
0.480000 0.960000 0.720000
0.600000 0.960000 0.720000
0.720000 0.960000 0.720000
0.936714 0.960000 0.720167
0.960000 0.847427 0.756383
0.102638 0.102638 0.855320
0.210164 0.102638 0.855320
0.317690 0.102638 0.855320
0.425216 0.102638 0.855320
0.532742 0.102638 0.855320
0.640268 0.102638 0.855320
0.747794 0.102638 0.855320
0.855320 0.102638 0.855320
0.960000 0.115200 0.854400
0.102638 0.210164 0.855320
0.122189 0.122189 0.855320
0.244377 0.122189 0.855320
0.366566 0.122189 0.855320
0.488755 0.122189 0.855320
0.610943 0.122189 0.855320
0.733132 0.122189 0.855320
0.855320 0.122189 0.855320
0.960000 0.120000 0.840000
0.102638 0.317690 0.855320
0.122189 0.244377 0.855320
0.244377 0.244377 0.855320
0.366566 0.244377 0.855320
0.488755 0.244377 0.855320
0.610943 0.244377 0.855320
0.733132 0.244377 0.855320
0.855320 0.244377 0.855320
0.960000 0.240000 0.840000
0.102638 0.425216 0.855320
0.122189 0.366566 0.855320
0.244377 0.366566 0.855320
0.366566 0.366566 0.855320
0.488755 0.366566 0.855320
0.610943 0.366566 0.855320
0.733132 0.366566 0.855320
0.855320 0.366566 0.855320
0.960000 0.360000 0.840000
0.102638 0.532742 0.855320
0.122189 0.488755 0.855320
0.244377 0.488755 0.855320
0.366566 0.488755 0.855320
0.488755 0.488755 0.855320
0.610943 0.488755 0.855320
0.733132 0.488755 0.855320
0.855320 0.488755 0.855320
0.960000 0.480000 0.840000
0.102638 0.640268 0.855320
0.122189 0.610943 0.855320
0.244377 0.610943 0.855320
0.366566 0.610943 0.855320
0.488755 0.610943 0.855320
0.610943 0.610943 0.855320
0.733132 0.610943 0.855320
0.855320 0.610943 0.855320
0.960000 0.600000 0.840000
0.102638 0.747794 0.855320
0.122189 0.733132 0.855320
0.244377 0.733132 0.855320
0.366566 0.733132 0.855320
0.488755 0.733132 0.855320
0.610943 0.733132 0.855320
0.733132 0.733132 0.855320
0.855320 0.733132 0.855320
0.960000 0.720000 0.840000
0.102638 0.855320 0.855320
0.122189 0.855320 0.855320
0.244377 0.855320 0.855320
0.366566 0.855320 0.855320
0.488755 0.855320 0.855320
0.610943 0.855320 0.855320
0.733132 0.855320 0.855320
0.855320 0.855320 0.855320
0.960000 0.849997 0.847569
0.115200 0.960000 0.854400
0.120000 0.960000 0.840000
0.240000 0.960000 0.840000
0.360000 0.960000 0.840000
0.480000 0.960000 0.840000
0.600000 0.960000 0.840000
0.720000 0.960000 0.840000
0.840000 0.960000 0.840000
0.960000 0.913055 0.875088
0.115200 0.115200 0.960000
0.220800 0.115200 0.960000
0.326400 0.115200 0.960000
0.432000 0.115200 0.960000
0.537600 0.115200 0.960000
0.643200 0.115200 0.960000
0.748800 0.115200 0.960000
0.854400 0.115200 0.960000
0.960000 0.115200 0.960000
0.115200 0.220800 0.960000
0.120000 0.120000 0.960000
0.240000 0.120000 0.960000
0.360000 0.120000 0.960000
0.480000 0.120000 0.960000
0.600000 0.120000 0.960000
0.720000 0.120000 0.960000
0.840000 0.120000 0.960000
0.960000 0.120000 0.960000
0.115200 0.326400 0.960000
0.120000 0.240000 0.960000
0.240000 0.240000 0.960000
0.360000 0.240000 0.960000
0.480000 0.240000 0.960000
0.600000 0.240000 0.960000
0.720000 0.240000 0.960000
0.840000 0.240000 0.960000
0.960000 0.240000 0.960000
0.115200 0.432000 0.960000
0.120000 0.360000 0.960000
0.240000 0.360000 0.960000
0.360000 0.360000 0.960000
0.480000 0.360000 0.960000
0.600000 0.360000 0.960000
0.720000 0.360000 0.960000
0.840000 0.360000 0.960000
0.960000 0.360000 0.960000
0.115200 0.537600 0.960000
0.120000 0.480000 0.960000
0.240000 0.480000 0.960000
0.360000 0.480000 0.960000
0.480000 0.480000 0.960000
0.600000 0.480000 0.960000
0.720000 0.480000 0.960000
0.840000 0.480000 0.960000
0.960000 0.480000 0.960000
0.115200 0.643200 0.960000
0.120000 0.600000 0.960000
0.240000 0.600000 0.960000
0.360000 0.600000 0.960000
0.480000 0.600000 0.960000
0.600000 0.600000 0.960000
0.720000 0.600000 0.960000
0.840000 0.600000 0.960000
0.960000 0.600000 0.960000
0.115200 0.748800 0.960000
0.120000 0.720000 0.960000
0.240000 0.720000 0.960000
0.360000 0.720000 0.960000
0.480000 0.720000 0.960000
0.600000 0.720000 0.960000
0.720000 0.720000 0.960000
0.840000 0.720000 0.960000
0.960000 0.720000 0.960000
0.115200 0.854400 0.960000
0.120000 0.840000 0.960000
0.240000 0.840000 0.960000
0.360000 0.840000 0.960000
0.480000 0.840000 0.960000
0.600000 0.840000 0.960000
0.720000 0.840000 0.960000
0.840000 0.840000 0.960000
0.960000 0.840000 0.960000
0.115200 0.960000 0.960000
0.120000 0.960000 0.960000
0.240000 0.960000 0.960000
0.360000 0.960000 0.960000
0.480000 0.960000 0.960000
0.600000 0.960000 0.960000
0.720000 0.960000 0.960000
0.840000 0.960000 0.960000
0.960000 0.960000 0.960000
