assets/LUTs/skintone_bronze_deep_33.cube
TITLE "SkinTone Bronze Deep"
# Strongest look: bronze, deep, saturated skin with clear density. Dial back with LUT strength if needed.
# Skin-tone selective LUT. Apply to display-referred Rec.709/sRGB (SDR) footage.
# Generated 2026-07-10 with Claude Code.
LUT_3D_SIZE 9
DOMAIN_MIN 0.0 0.0 0.0
DOMAIN_MAX 1.0 1.0 1.0
0.000000 0.000000 0.000000
0.116797 0.000000 0.000000
0.240625 0.000000 0.000000
0.369141 0.000000 0.000000
0.500000 0.000000 0.000000
0.630859 0.000000 0.000000
0.759375 0.000000 0.000000
0.883203 0.000000 0.000000
1.000000 0.000000 0.000000
0.000000 0.116797 0.000000
0.116797 0.116797 0.000000
0.240625 0.120313 0.000000
0.369141 0.123047 0.000000
0.500000 0.125000 0.000000
0.630859 0.126172 0.000000
0.759375 0.126562 0.000000
0.883203 0.126172 0.000000
1.000000 0.125000 0.000000
0.000000 0.240625 0.000000
0.120313 0.240625 0.000000
0.240625 0.240625 0.000000
0.369141 0.246094 0.000000
0.500000 0.250000 0.000000
0.630859 0.252344 0.000000
0.759375 0.253125 0.000000
0.883203 0.252344 0.000000
1.000000 0.250000 0.000000
0.000000 0.369141 0.000000
0.123047 0.369141 0.000000
0.246094 0.369141 0.000000
0.369141 0.369141 0.000000
0.500000 0.375000 0.000000
0.630859 0.378516 0.000000
0.759375 0.379688 0.000000
0.883203 0.378516 0.000000
1.000000 0.375000 0.000000
0.000000 0.500000 0.000000
0.125000 0.500000 0.000000
0.250000 0.500000 0.000000
0.375000 0.500000 0.000000
0.500000 0.500000 0.000000
0.630859 0.504688 0.000000
0.759375 0.506250 0.000000
0.883203 0.504687 0.000000
1.000000 0.500000 0.000000
0.000000 0.630859 0.000000
0.126172 0.630859 0.000000
0.252344 0.630859 0.000000
0.378516 0.630859 0.000000
0.504687 0.630859 0.000000
0.630859 0.630859 0.000000
0.759375 0.632812 0.000000
0.883203 0.630859 0.000000
1.000000 0.625000 0.000000
0.000000 0.759375 0.000000
0.126562 0.759375 0.000000
0.253125 0.759375 0.000000
0.379688 0.759375 0.000000
0.506250 0.759375 0.000000
0.632813 0.759375 0.000000
0.759375 0.759375 0.000000
0.883203 0.757031 0.000000
1.000000 0.750000 0.000000
0.000000 0.883203 0.000000
0.126172 0.883203 0.000000
0.252344 0.883203 0.000000
0.378516 0.883203 0.000000
0.504688 0.883203 0.000000
0.630859 0.883203 0.000000
0.757031 0.883203 0.000000
0.883203 0.883203 0.000000
1.000000 0.875000 0.000000
0.000000 1.000000 0.000000
0.125000 1.000000 0.000000
0.250000 1.000000 0.000000
0.375000 1.000000 0.000000
0.500000 1.000000 0.000000
0.625000 1.000000 0.000000
0.750000 1.000000 0.000000
0.875000 1.000000 0.000000
1.000000 1.000000 0.000000
0.000000 0.000000 0.116797
0.116797 0.000000 0.116797
0.240625 0.000000 0.120313
0.369141 0.000000 0.123047
0.500000 0.000000 0.125000
0.630859 0.000000 0.126172
0.759375 0.000000 0.126563
0.883203 0.000000 0.126172
1.000000 0.000000 0.125000
0.000000 0.116797 0.116797
0.116797 0.116797 0.116797
0.164025 0.085785 0.070415
0.281643 0.109708 0.076374
0.437768 0.132439 0.093422
0.597998 0.141844 0.108315
0.745466 0.142195 0.117130
0.879269 0.138040 0.121581
1.000000 0.125000 0.125000
0.000000 0.240625 0.120313
0.120313 0.240625 0.120313
0.168634 0.133780 0.073260
0.277059 0.155330 0.074085
0.434240 0.203716 0.091704
0.596052 0.236946 0.107280
0.744627 0.251970 0.116567
0.879030 0.255862 0.121304
1.000000 0.250000 0.125000
0.000000 0.369141 0.123047
0.123047 0.369141 0.123047
0.246094 0.369141 0.123047
0.287225 0.211681 0.079185
0.434240 0.274558 0.091704
0.596052 0.331114 0.107280
0.744627 0.360797 0.116567
0.879030 0.372960 0.121304
1.000000 0.375000 0.125000
0.000000 0.500000 0.125000
0.125000 0.500000 0.125000
0.250000 0.500000 0.125000
0.375000 0.500000 0.125000
0.442023 0.341661 0.095505
0.596052 0.418852 0.107280
0.744627 0.469290 0.116567
0.879030 0.490059 0.121304
1.000000 0.500000 0.125000
0.000000 0.630859 0.126172
0.126172 0.630859 0.126172
0.252344 0.630859 0.126172
0.378516 0.630859 0.126172
0.515138 0.627707 0.124429
0.600332 0.504746 0.109561
0.744627 0.566240 0.116567
0.879030 0.604440 0.121304
1.000000 0.625000 0.125000
0.000000 0.759375 0.126562
0.126562 0.759375 0.126562
0.253125 0.759375 0.126562
0.379687 0.759375 0.126562
0.506250 0.759375 0.126562
0.652547 0.756171 0.124375
0.746469 0.671655 0.117805
0.879030 0.712369 0.121304
1.000000 0.750000 0.125000
0.000000 0.883203 0.126172
0.126172 0.883203 0.126172
0.252344 0.883203 0.126172
0.378516 0.883203 0.126172
0.504687 0.883203 0.126172
0.630859 0.883203 0.126172
0.777224 0.881855 0.124596
0.879554 0.829523 0.121914
1.000000 0.875000 0.125000
0.000000 1.000000 0.125000
0.125000 1.000000 0.125000
0.250000 1.000000 0.125000
0.375000 1.000000 0.125000
0.500000 1.000000 0.125000
0.625000 1.000000 0.125000
0.750000 1.000000 0.125000
0.875000 1.000000 0.125000
1.000000 1.000000 0.125000
0.000000 0.000000 0.240625
0.120313 0.000000 0.240625
0.240625 0.000000 0.240625
0.369141 0.000000 0.246094
0.500000 0.000000 0.250000
0.630859 0.000000 0.252344
0.759375 0.000000 0.253125
0.883203 0.000000 0.252344
1.000000 0.000000 0.250000
0.000000 0.120313 0.240625
0.120313 0.120313 0.240625
0.240625 0.120313 0.240625
0.369141 0.123047 0.246094
0.498979 0.124463 0.247960
0.624873 0.122868 0.237379
0.754591 0.123300 0.235494
0.881367 0.124026 0.238537
1.000000 0.125000 0.250000
0.000000 0.240625 0.240625
0.120313 0.240625 0.240625
0.240625 0.240625 0.240625
0.280801 0.187819 0.169553
0.412335 0.215651 0.177014
0.554653 0.245036 0.184213
0.704021 0.274237 0.190912
0.858839 0.293146 0.204470
1.000000 0.250000 0.250000
0.000000 0.369141 0.246094
0.123047 0.369141 0.246094
0.246094 0.369141 0.246094
0.286428 0.245436 0.174258
0.407523 0.266732 0.173197
0.550306 0.300379 0.180500
0.700767 0.334347 0.187383
0.857373 0.367514 0.201640
1.000000 0.375000 0.250000
0.000000 0.500000 0.250000
0.125000 0.500000 0.250000
0.250000 0.500000 0.250000
0.375000 0.500000 0.250000
0.418162 0.331735 0.181663
0.550306 0.355850 0.180500
0.700767 0.392877 0.187383
0.857373 0.439128 0.201640
1.000000 0.500000 0.250000
0.000000 0.630859 0.252344
0.126172 0.630859 0.252344
0.252344 0.630859 0.252344
0.378516 0.630859 0.252344
0.504687 0.630859 0.252344
0.559891 0.424246 0.188713
0.700767 0.451406 0.187383
0.857373 0.510743 0.201640
1.000000 0.625000 0.250000
0.000000 0.759375 0.253125
0.126562 0.759375 0.253125
0.253125 0.759375 0.253125
0.379688 0.759375 0.253125
0.506250 0.759375 0.253125
0.658927 0.754035 0.246945
0.707928 0.521734 0.195168
0.857373 0.579252 0.201640
1.000000 0.750000 0.250000
0.000000 0.883203 0.252344
0.126172 0.883203 0.252344
0.252344 0.883203 0.252344
0.378516 0.883203 0.252344
0.504687 0.883203 0.252344
0.630859 0.883203 0.252344
0.828099 0.877583 0.241161
0.860594 0.647847 0.207866
1.000000 0.875000 0.250000
0.000000 1.000000 0.250000
0.125000 1.000000 0.250000
0.250000 1.000000 0.250000
0.375000 1.000000 0.250000
0.500000 1.000000 0.250000
0.625000 1.000000 0.250000
0.750000 1.000000 0.250000
0.875000 1.000000 0.250000
1.000000 1.000000 0.250000
0.000000 0.000000 0.369141
0.123047 0.000000 0.369141
0.246094 0.000000 0.369141
0.369141 0.000000 0.369141
0.500000 0.000000 0.375000
0.630859 0.000000 0.378516
0.759375 0.000000 0.379688
0.883203 0.000000 0.378516
1.000000 0.000000 0.375000
0.000000 0.123047 0.369141
0.123047 0.123047 0.369141
0.246094 0.123047 0.369141
0.369141 0.123047 0.369141
0.500000 0.125000 0.375000
0.630859 0.126172 0.378516
0.759375 0.126562 0.379688
0.883142 0.126101 0.377928
1.000000 0.125000 0.375000
0.000000 0.246094 0.369141
0.123047 0.246094 0.369141
0.246094 0.246094 0.369141
0.369141 0.246094 0.369141
0.500000 0.250000 0.375000
0.629617 0.251188 0.375365
0.749238 0.241425 0.342012
0.874814 0.235682 0.315137
1.000000 0.250000 0.375000
0.000000 0.369141 0.369141
0.123047 0.369141 0.369141
0.246094 0.369141 0.369141
0.369141 0.369141 0.369141
0.412335 0.300025 0.277962
0.554653 0.337753 0.295144
0.703427 0.367892 0.301978
0.854814 0.395589 0.309326
1.000000 0.375000 0.375000
0.000000 0.500000 0.375000
0.125000 0.500000 0.375000
0.250000 0.500000 0.375000
0.375000 0.500000 0.375000
0.418162 0.368939 0.283468
0.550306 0.394243 0.290562
0.700139 0.428062 0.297559
0.853109 0.461563 0.305252
1.000000 0.500000 0.375000
0.000000 0.630859 0.378516
0.126172 0.630859 0.378516
0.252344 0.630859 0.378516
0.378516 0.630859 0.378516
0.504688 0.630859 0.378516
0.559891 0.465168 0.300691
0.700139 0.488449 0.297559
0.853109 0.525975 0.305252
1.000000 0.625000 0.375000
0.000000 0.759375 0.379688
0.126562 0.759375 0.379687
0.253125 0.759375 0.379688
0.379688 0.759375 0.379688
0.506250 0.759375 0.379688
0.632812 0.759375 0.379688
0.707374 0.561171 0.307305
0.853109 0.590386 0.305252
1.000000 0.750000 0.375000
0.000000 0.883203 0.378516
0.126172 0.883203 0.378516
0.252344 0.883203 0.378516
0.378516 0.883203 0.378516
0.504687 0.883203 0.378516
0.630859 0.883203 0.378516
0.784277 0.880513 0.371848
0.856856 0.662825 0.314216
1.000000 0.875000 0.375000
0.000000 1.000000 0.375000
0.125000 1.000000 0.375000
0.250000 1.000000 0.375000
0.375000 1.000000 0.375000
0.500000 1.000000 0.375000
0.625000 1.000000 0.375000
0.750000 1.000000 0.375000
0.875000 1.000000 0.375000
1.000000 1.000000 0.375000
0.000000 0.000000 0.500000
0.125000 0.000000 0.500000
0.250000 0.000000 0.500000
0.375000 0.000000 0.500000
0.500000 0.000000 0.500000
0.630859 0.000000 0.504687
0.759375 0.000000 0.506250
0.883203 0.000000 0.504687
1.000000 0.000000 0.500000
0.000000 0.125000 0.500000
0.125000 0.125000 0.500000
0.250000 0.125000 0.500000
0.375000 0.125000 0.500000
0.500000 0.125000 0.500000
0.630859 0.126172 0.504688
0.759375 0.126562 0.506250
0.883203 0.126172 0.504687
1.000000 0.125000 0.500000
0.000000 0.250000 0.500000
0.125000 0.250000 0.500000
0.250000 0.250000 0.500000
0.375000 0.250000 0.500000
0.500000 0.250000 0.500000
0.630859 0.252344 0.504688
0.759375 0.253125 0.506250
0.883203 0.252344 0.504688
1.000000 0.250000 0.500000
0.000000 0.375000 0.500000
0.125000 0.375000 0.500000
0.250000 0.375000 0.500000
0.375000 0.375000 0.500000
0.500000 0.375000 0.500000
0.630859 0.378516 0.504688
0.758487 0.378417 0.503133
0.878087 0.365857 0.468016
1.000000 0.375000 0.500000
0.000000 0.500000 0.500000
0.125000 0.500000 0.500000
0.250000 0.500000 0.500000
0.375000 0.500000 0.500000
0.500000 0.500000 0.500000
0.554653 0.407074 0.378082
0.703427 0.470500 0.424742
0.854814 0.498394 0.431442
1.000000 0.500000 0.500000
0.000000 0.630859 0.504687
0.126172 0.630859 0.504688
0.252344 0.630859 0.504687
0.378516 0.630859 0.504688
0.504688 0.630859 0.504688
0.559891 0.496466 0.386337
0.700139 0.531872 0.420083
0.853109 0.565358 0.427124
1.000000 0.625000 0.500000
0.000000 0.759375 0.506250
0.126562 0.759375 0.506250
0.253125 0.759375 0.506250
0.379688 0.759375 0.506250
0.506250 0.759375 0.506250
0.632812 0.759375 0.506250
0.707374 0.606139 0.430354
0.853109 0.632135 0.427124
1.000000 0.750000 0.500000
0.000000 0.883203 0.504688
0.126172 0.883203 0.504687
0.252344 0.883203 0.504687
0.378516 0.883203 0.504687
0.504687 0.883203 0.504687
0.630859 0.883203 0.504687
0.757031 0.883203 0.504687
0.856856 0.706594 0.436624
1.000000 0.875000 0.500000
0.000000 1.000000 0.500000
0.125000 1.000000 0.500000
0.250000 1.000000 0.500000
0.375000 1.000000 0.500000
0.500000 1.000000 0.500000
0.625000 1.000000 0.500000
0.750000 1.000000 0.500000
0.875000 1.000000 0.500000
1.000000 1.000000 0.500000
0.000000 0.000000 0.630859
0.126172 0.000000 0.630859
0.252344 0.000000 0.630859
0.378516 0.000000 0.630859
0.504687 0.000000 0.630859
0.630859 0.000000 0.630859
0.759375 0.000000 0.632812
0.883203 0.000000 0.630859
1.000000 0.000000 0.625000
0.000000 0.126172 0.630859
0.126172 0.126172 0.630859
0.252344 0.126172 0.630859
0.378516 0.126172 0.630859
0.504688 0.126172 0.630859
0.630859 0.126172 0.630859
0.759375 0.126562 0.632812
0.883203 0.126172 0.630859
1.000000 0.125000 0.625000
0.000000 0.252344 0.630859
0.126172 0.252344 0.630859
0.252344 0.252344 0.630859
0.378516 0.252344 0.630859
0.504688 0.252344 0.630859
0.630859 0.252344 0.630859
0.759375 0.253125 0.632812
0.883203 0.252344 0.630859
1.000000 0.250000 0.625000
0.000000 0.378516 0.630859
0.126172 0.378516 0.630859
0.252344 0.378516 0.630859
0.378516 0.378516 0.630859
0.504688 0.378516 0.630859
0.630859 0.378516 0.630859
0.759375 0.379688 0.632813
0.883203 0.378516 0.630859
1.000000 0.375000 0.625000
0.000000 0.504687 0.630859
0.126172 0.504688 0.630859
0.252344 0.504688 0.630859
0.378516 0.504688 0.630859
0.504688 0.504688 0.630859
0.630859 0.504688 0.630859
0.759375 0.506250 0.632812
0.882761 0.503527 0.628041
1.000000 0.500000 0.625000
0.000000 0.630859 0.630859
0.126172 0.630859 0.630859
0.252344 0.630859 0.630859
0.378516 0.630859 0.630859
0.504688 0.630859 0.630859
0.630859 0.630859 0.630859
0.705022 0.522109 0.487434
0.854814 0.607291 0.560795
1.000000 0.625000 0.625000
0.000000 0.759375 0.632813
0.126562 0.759375 0.632812
0.253125 0.759375 0.632812
0.379688 0.759375 0.632812
0.506250 0.759375 0.632812
0.632812 0.759375 0.632812
0.708861 0.633352 0.498634
0.853109 0.676525 0.557380
1.000000 0.750000 0.625000
0.000000 0.883203 0.630859
0.126172 0.883203 0.630859
0.252344 0.883203 0.630859
0.378516 0.883203 0.630859
0.504687 0.883203 0.630859
0.630859 0.883203 0.630859
0.757031 0.883203 0.630859
0.856856 0.752463 0.564905
1.000000 0.875000 0.625000
0.000000 1.000000 0.625000
0.125000 1.000000 0.625000
0.250000 1.000000 0.625000
0.375000 1.000000 0.625000
0.500000 1.000000 0.625000
0.625000 1.000000 0.625000
0.750000 1.000000 0.625000
0.875000 1.000000 0.625000
1.000000 1.000000 0.625000
0.000000 0.000000 0.759375
0.126563 0.000000 0.759375
0.253125 0.000000 0.759375
0.379688 0.000000 0.759375
0.506250 0.000000 0.759375
0.632812 0.000000 0.759375
0.759375 0.000000 0.759375
0.883203 0.000000 0.757031
1.000000 0.000000 0.750000
0.000000 0.126563 0.759375
0.126562 0.126562 0.759375
0.253125 0.126562 0.759375
0.379688 0.126562 0.759375
0.506250 0.126562 0.759375
0.632812 0.126562 0.759375
0.759375 0.126562 0.759375
0.883203 0.126172 0.757031
1.000000 0.125000 0.750000
0.000000 0.253125 0.759375
0.126562 0.253125 0.759375
0.253125 0.253125 0.759375
0.379688 0.253125 0.759375
0.506250 0.253125 0.759375
0.632812 0.253125 0.759375
0.759375 0.253125 0.759375
0.883203 0.252344 0.757031
1.000000 0.250000 0.750000
0.000000 0.379688 0.759375
0.126562 0.379688 0.759375
0.253125 0.379688 0.759375
0.379688 0.379688 0.759375
0.506250 0.379688 0.759375
0.632813 0.379688 0.759375
0.759375 0.379688 0.759375
0.883203 0.378516 0.757031
1.000000 0.375000 0.750000
0.000000 0.506250 0.759375
0.126562 0.506250 0.759375
0.253125 0.506250 0.759375
0.379688 0.506250 0.759375
0.506250 0.506250 0.759375
0.632812 0.506250 0.759375
0.759375 0.506250 0.759375
0.883203 0.504687 0.757031
1.000000 0.500000 0.750000
0.000000 0.632812 0.759375
0.126562 0.632812 0.759375
0.253125 0.632812 0.759375
0.379688 0.632813 0.759375
0.506250 0.632812 0.759375
0.632812 0.632812 0.759375
0.759375 0.632812 0.759375
0.883203 0.630859 0.757031
1.000000 0.625000 0.750000
0.000000 0.759375 0.759375
0.126562 0.759375 0.759375
0.253125 0.759375 0.759375
0.379688 0.759375 0.759375
0.506250 0.759375 0.759375
0.632812 0.759375 0.759375
0.759375 0.759375 0.759375
0.860395 0.666438 0.638276
1.000000 0.750000 0.750000
0.000000 0.883203 0.757031
0.126172 0.883203 0.757031
0.252344 0.883203 0.757031
0.378516 0.883203 0.757031
0.504687 0.883203 0.757031
0.630859 0.883203 0.757031
0.757031 0.883203 0.757031
0.862039 0.795454 0.648904
1.000000 0.875000 0.750000
0.000000 1.000000 0.750000
0.125000 1.000000 0.750000
0.250000 1.000000 0.750000
0.375000 1.000000 0.750000
0.500000 1.000000 0.750000
0.625000 1.000000 0.750000
0.750000 1.000000 0.750000
0.875000 1.000000 0.750000
1.000000 1.000000 0.750000
0.000000 0.000000 0.883203
0.126172 0.000000 0.883203
0.252344 0.000000 0.883203
0.378516 0.000000 0.883203
0.504687 0.000000 0.883203
0.630859 0.000000 0.883203
0.757031 0.000000 0.883203
0.883203 0.000000 0.883203
1.000000 0.000000 0.875000
0.000000 0.126172 0.883203
0.126172 0.126172 0.883203
0.252344 0.126172 0.883203
0.378516 0.126172 0.883203
0.504687 0.126172 0.883203
0.630859 0.126172 0.883203
0.757031 0.126172 0.883203
0.883203 0.126172 0.883203
1.000000 0.125000 0.875000
0.000000 0.252344 0.883203
0.126172 0.252344 0.883203
0.252344 0.252344 0.883203
0.378516 0.252344 0.883203
0.504688 0.252344 0.883203
0.630859 0.252344 0.883203
0.757031 0.252344 0.883203
0.883203 0.252344 0.883203
1.000000 0.250000 0.875000
0.000000 0.378516 0.883203
0.126172 0.378516 0.883203
0.252344 0.378516 0.883203
0.378516 0.378516 0.883203
0.504687 0.378516 0.883203
0.630859 0.378516 0.883203
0.757031 0.378516 0.883203
0.883203 0.378516 0.883203
1.000000 0.375000 0.875000
0.000000 0.504687 0.883203
0.126172 0.504687 0.883203
0.252344 0.504688 0.883203
0.378516 0.504687 0.883203
0.504687 0.504687 0.883203
0.630859 0.504687 0.883203
0.757031 0.504687 0.883203
0.883203 0.504687 0.883203
1.000000 0.500000 0.875000
0.000000 0.630859 0.883203
0.126172 0.630859 0.883203
0.252344 0.630859 0.883203
0.378516 0.630859 0.883203
0.504687 0.630859 0.883203
0.630859 0.630859 0.883203
0.757031 0.630859 0.883203
0.883203 0.630859 0.883203
1.000000 0.625000 0.875000
0.000000 0.757031 0.883203
0.126172 0.757031 0.883203
0.252344 0.757031 0.883203
0.378516 0.757031 0.883203
0.504687 0.757031 0.883203
0.630859 0.757031 0.883203
0.757031 0.757031 0.883203
0.883203 0.757031 0.883203
1.000000 0.750000 0.875000
0.000000 0.883203 0.883203
0.126172 0.883203 0.883203
0.252344 0.883203 0.883203
0.378516 0.883203 0.883203
0.504687 0.883203 0.883203
0.630859 0.883203 0.883203
0.757031 0.883203 0.883203
0.883203 0.883203 0.883203
1.000000 0.875000 0.875000
0.000000 1.000000 0.875000
0.125000 1.000000 0.875000
0.250000 1.000000 0.875000
0.375000 1.000000 0.875000
0.500000 1.000000 0.875000
0.625000 1.000000 0.875000
0.750000 1.000000 0.875000
0.875000 1.000000 0.875000
1.000000 1.000000 0.875000
0.000000 0.000000 1.000000
0.125000 0.000000 1.000000
0.250000 0.000000 1.000000
0.375000 0.000000 1.000000
0.500000 0.000000 1.000000
0.625000 0.000000 1.000000
0.750000 0.000000 1.000000
0.875000 0.000000 1.000000
1.000000 0.000000 1.000000
0.000000 0.125000 1.000000
0.125000 0.125000 1.000000
0.250000 0.125000 1.000000
0.375000 0.125000 1.000000
0.500000 0.125000 1.000000
0.625000 0.125000 1.000000
0.750000 0.125000 1.000000
0.875000 0.125000 1.000000
1.000000 0.125000 1.000000
0.000000 0.250000 1.000000
0.125000 0.250000 1.000000
0.250000 0.250000 1.000000
0.375000 0.250000 1.000000
0.500000 0.250000 1.000000
0.625000 0.250000 1.000000
0.750000 0.250000 1.000000
0.875000 0.250000 1.000000
1.000000 0.250000 1.000000
0.000000 0.375000 1.000000
0.125000 0.375000 1.000000
0.250000 0.375000 1.000000
0.375000 0.375000 1.000000
0.500000 0.375000 1.000000
0.625000 0.375000 1.000000
0.750000 0.375000 1.000000
0.875000 0.375000 1.000000
1.000000 0.375000 1.000000
0.000000 0.500000 1.000000
0.125000 0.500000 1.000000
0.250000 0.500000 1.000000
0.375000 0.500000 1.000000
0.500000 0.500000 1.000000
0.625000 0.500000 1.000000
0.750000 0.500000 1.000000
0.875000 0.500000 1.000000
1.000000 0.500000 1.000000
0.000000 0.625000 1.000000
0.125000 0.625000 1.000000
0.250000 0.625000 1.000000
0.375000 0.625000 1.000000
0.500000 0.625000 1.000000
0.625000 0.625000 1.000000
0.750000 0.625000 1.000000
0.875000 0.625000 1.000000
1.000000 0.625000 1.000000
0.000000 0.750000 1.000000
0.125000 0.750000 1.000000
0.250000 0.750000 1.000000
0.375000 0.750000 1.000000
0.500000 0.750000 1.000000
0.625000 0.750000 1.000000
0.750000 0.750000 1.000000
0.875000 0.750000 1.000000
1.000000 0.750000 1.000000
0.000000 0.875000 1.000000
0.125000 0.875000 1.000000
0.250000 0.875000 1.000000
0.375000 0.875000 1.000000
0.500000 0.875000 1.000000
0.625000 0.875000 1.000000
0.750000 0.875000 1.000000
0.875000 0.875000 1.000000
1.000000 0.875000 1.000000
0.000000 1.000000 1.000000
0.125000 1.000000 1.000000
0.250000 1.000000 1.000000
0.375000 1.000000 1.000000
0.500000 1.000000 1.000000
0.625000 1.000000 1.000000
0.750000 1.000000 1.000000
0.875000 1.000000 1.000000
1.000000 1.000000 1.000000
