assets/LUTs/skintone_morena_deep_restore_33.cube
TITLE "Skintone Morena Deep Restore"
# Restore dark morena skin from lifted/yellowed camera footage
# Skin-weighted: warm saturated band darkens hard, bedding/cool hues hold
# Target: Rec.709 SDR. Run at 100%; stack bronze_oiled after if more gloss wanted
LUT_3D_SIZE 33
DOMAIN_MIN 0.0 0.0 0.0
DOMAIN_MAX 1.0 1.0 1.0
0.000000 0.000000 0.000000
0.025383 0.003528 0.003046
0.052922 0.007357 0.006351
0.081337 0.011307 0.009760
0.110031 0.015295 0.013204
0.138013 0.019185 0.016562
0.164984 0.022934 0.019798
0.190997 0.026550 0.022920
0.216439 0.030087 0.025973
0.242036 0.033645 0.029044
0.268850 0.037372 0.032262
0.297345 0.041333 0.035681
0.326075 0.045327 0.039129
0.354948 0.049341 0.042594
0.383955 0.053373 0.046075
0.413087 0.057422 0.049570
0.442336 0.061488 0.053080
0.471695 0.065569 0.056603
0.501157 0.069665 0.060139
0.530718 0.073774 0.063686
0.560372 0.077896 0.067245
0.590116 0.082031 0.070814
0.619945 0.086177 0.074393
0.649855 0.090335 0.077983
0.679843 0.094504 0.081581
0.709907 0.098683 0.085189
0.740736 0.103686 0.089621
0.777539 0.116041 0.101437
0.818412 0.134459 0.119359
0.859716 0.154871 0.139310
0.897917 0.172221 0.156200
0.930000 0.181164 0.164632
0.960000 0.187008 0.169943
0.003046 0.025383 0.003046
0.025383 0.013034 0.003046
0.052922 0.026160 0.006351
0.081337 0.033619 0.009760
0.109269 0.038959 0.013112
0.134476 0.042872 0.016137
0.157346 0.045938 0.018882
0.178712 0.048598 0.021445
0.199728 0.051224 0.023967
0.221877 0.054178 0.026625
0.246971 0.057839 0.029637
0.275401 0.062220 0.033048
0.304138 0.066595 0.036497
0.333016 0.070942 0.039962
0.362026 0.075268 0.043443
0.391157 0.079580 0.046939
0.420403 0.083881 0.050448
0.449757 0.088176 0.053971
0.479212 0.092466 0.057505
0.508765 0.096755 0.061052
0.538409 0.101042 0.064609
0.568142 0.105329 0.068177
0.597958 0.109618 0.071755
0.627856 0.113909 0.075343
0.657830 0.118203 0.078940
0.687880 0.122499 0.082546
0.719077 0.127891 0.087252
0.759527 0.143064 0.101785
0.806342 0.166220 0.124413
0.853912 0.191910 0.149689
0.896729 0.213332 0.170722
0.930000 0.223353 0.180235
0.960000 0.229206 0.185528
0.006351 0.052922 0.006351
0.048400 0.052922 0.006351
0.052922 0.027174 0.006351
0.081337 0.043002 0.009760
0.108916 0.053839 0.013070
0.131856 0.059598 0.015823
0.150507 0.062210 0.018061
0.166743 0.063650 0.020009
0.182685 0.065134 0.021922
0.200761 0.067446 0.024091
0.223680 0.071311 0.026842
0.251809 0.076634 0.030217
0.280411 0.081868 0.033649
0.309212 0.086969 0.037105
0.338179 0.091963 0.040581
0.367292 0.096867 0.044075
0.396535 0.101699 0.047584
0.425896 0.106471 0.051108
0.455365 0.111192 0.054644
0.484936 0.115872 0.058192
0.514600 0.120517 0.061752
0.544354 0.125133 0.065322
0.574192 0.129724 0.068903
0.604111 0.134294 0.072493
0.634107 0.138847 0.076093
0.664176 0.143384 0.079701
0.695804 0.149293 0.084690
0.740202 0.167559 0.102017
0.793411 0.195914 0.129602
0.847703 0.227460 0.160623
0.895459 0.253452 0.186194
0.930000 0.264719 0.196884
0.960000 0.270625 0.202136
0.009760 0.081337 0.009760
0.046901 0.081337 0.009760
0.081337 0.059864 0.009760
0.081337 0.041765 0.009760
0.108942 0.057670 0.013073
0.131679 0.068550 0.015802
0.148293 0.073304 0.017795
0.160080 0.074544 0.019210
0.170359 0.074782 0.020443
0.183473 0.075835 0.022017
0.203213 0.079543 0.024386
0.230100 0.085764 0.027612
0.257878 0.091944 0.030945
0.286088 0.097951 0.034331
0.314627 0.103795 0.037755
0.343427 0.109488 0.041211
0.372440 0.115047 0.044693
0.401631 0.120488 0.048196
0.430975 0.125826 0.051717
0.460454 0.131073 0.055255
0.490053 0.136241 0.058806
0.519761 0.141341 0.062371
0.549567 0.146380 0.065948
0.579466 0.151366 0.069536
0.609450 0.156305 0.073134
0.639515 0.161203 0.076742
0.671571 0.167749 0.082003
0.720069 0.189306 0.102101
0.779933 0.223201 0.134761
0.841230 0.261069 0.171835
0.894135 0.292060 0.202280
0.930000 0.304748 0.214245
0.960000 0.310775 0.219454
0.013241 0.110338 0.013241
0.046057 0.110338 0.013241
0.100900 0.110327 0.013239
0.109189 0.068457 0.013103
0.108923 0.055930 0.013071
0.131718 0.069295 0.015806
0.148668 0.078599 0.017840
0.159714 0.082221 0.019166
0.167049 0.082575 0.020046
0.175295 0.082865 0.021035
0.190219 0.085977 0.022826
0.213806 0.092474 0.025657
0.239521 0.099002 0.028743
0.266200 0.105566 0.031944
0.293583 0.112068 0.035230
0.321497 0.118460 0.038580
0.349824 0.124726 0.041979
0.378479 0.130860 0.045417
0.407400 0.136866 0.048888
0.436544 0.142752 0.052385
0.465875 0.148525 0.055905
0.495369 0.154197 0.059444
0.525004 0.159776 0.063000
0.554765 0.165270 0.066572
0.584639 0.170689 0.070157
0.614615 0.176038 0.073754
0.647034 0.183308 0.079263
0.699632 0.208264 0.102023
0.766224 0.247910 0.139747
0.834634 0.292427 0.183062
0.892784 0.328755 0.218645
0.930000 0.343028 0.231984
0.960000 0.349264 0.237169
0.016774 0.139781 0.016774
0.046576 0.139781 0.016774
0.099537 0.139781 0.016774
0.137340 0.118251 0.016481
0.132420 0.077240 0.015890
0.131639 0.067594 0.015797
0.148556 0.077699 0.017827
0.160234 0.084956 0.019228
0.167908 0.088067 0.020149
0.174868 0.089355 0.020984
0.186878 0.092377 0.022425
0.207041 0.098759 0.024845
0.229012 0.105374 0.027481
0.252409 0.112094 0.030289
0.277257 0.118792 0.033271
0.303437 0.125421 0.036412
0.330395 0.132077 0.039647
0.357957 0.138692 0.042955
0.385999 0.145231 0.046320
0.414427 0.151672 0.049731
0.443174 0.158009 0.053181
0.472185 0.164239 0.056662
0.501422 0.170364 0.060171
0.530851 0.176389 0.063702
0.560449 0.182318 0.067254
0.590193 0.188159 0.070823
0.622845 0.196192 0.076543
0.679398 0.224556 0.101784
0.752599 0.270015 0.144441
0.828057 0.321351 0.194059
0.891433 0.363238 0.234960
0.930000 0.379240 0.249768
0.960000 0.385784 0.254967
0.020350 0.169583 0.020350
0.048171 0.169583 0.020350
0.097786 0.169583 0.020350
0.154942 0.169418 0.020330
0.157687 0.116057 0.018922
0.149605 0.083982 0.017953
0.148409 0.076205 0.017809
0.159882 0.083247 0.019186
0.168202 0.089041 0.020184
0.176036 0.093068 0.021124
0.187960 0.097848 0.022555
0.206675 0.105061 0.024801
0.226287 0.111858 0.027154
0.246914 0.118488 0.029630
0.268754 0.125150 0.032251
0.291823 0.131902 0.035019
0.316040 0.138731 0.037925
0.341585 0.145451 0.040990
0.368130 0.152160 0.044176
0.395328 0.158891 0.047439
0.423056 0.165595 0.050767
0.451219 0.172241 0.054146
0.479742 0.178812 0.057569
0.508571 0.185299 0.061028
0.537658 0.191696 0.064519
0.566969 0.198003 0.068036
0.599659 0.206777 0.073918
0.659870 0.238447 0.101399
0.739373 0.289626 0.148750
0.821640 0.347775 0.204598
0.890109 0.395309 0.250899
0.930000 0.413155 0.267262
0.960000 0.420107 0.272536
0.023962 0.199685 0.023962
0.050552 0.199685 0.023962
0.096538 0.199685 0.023962
0.153843 0.199685 0.023962
0.192083 0.177393 0.023050
0.170895 0.114081 0.020507
0.161157 0.088423 0.019339
0.159681 0.081993 0.019162
0.167621 0.086984 0.020115
0.175959 0.092869 0.021115
0.188869 0.100117 0.022664
0.208084 0.109435 0.024970
0.227299 0.117600 0.027276
0.246606 0.124881 0.029593
0.266454 0.131713 0.031974
0.287188 0.138406 0.034463
0.308963 0.145114 0.037076
0.331809 0.151895 0.039817
0.355687 0.158752 0.042682
0.380515 0.165666 0.045662
0.406630 0.172394 0.048796
0.433475 0.179170 0.052017
0.460886 0.185964 0.055306
0.488767 0.192739 0.058652
0.517044 0.199471 0.062045
0.545660 0.206143 0.065479
0.578131 0.215561 0.071465
0.641556 0.250321 0.100902
0.726862 0.306959 0.152600
0.815525 0.371729 0.214465
0.888839 0.424853 0.266139
0.930000 0.444615 0.284133
0.960000 0.452076 0.289562
0.027606 0.230047 0.027606
0.053509 0.230047 0.027606
0.096026 0.230047 0.027606
0.152055 0.230047 0.027606
0.209945 0.229559 0.027547
0.204970 0.166086 0.024596
0.179147 0.112317 0.021498
0.169017 0.091376 0.020282
0.167391 0.085952 0.020087
0.175218 0.090698 0.021026
0.188457 0.099143 0.022615
0.208558 0.110551 0.025027
0.228530 0.120821 0.027424
0.248047 0.129757 0.029766
0.267389 0.137652 0.032087
0.286917 0.144873 0.034430
0.306969 0.151740 0.036836
0.327805 0.158488 0.039337
0.349553 0.165240 0.041946
0.372248 0.172050 0.044670
0.395872 0.178931 0.047505
0.420373 0.185872 0.050445
0.445772 0.192803 0.053493
0.472284 0.199579 0.056674
0.499385 0.206413 0.059926
0.526984 0.213262 0.063238
0.558913 0.223151 0.069263
0.624959 0.260663 0.100338
0.715381 0.322326 0.155941
0.809854 0.393327 0.223465
0.887650 0.451828 0.280363
0.930000 0.473534 0.300048
0.960000 0.481595 0.305731
0.031277 0.260638 0.031277
0.056898 0.260638 0.031277
0.096242 0.260638 0.031277
0.150291 0.260638 0.031277
0.209199 0.260638 0.031277
0.249094 0.239051 0.029891
0.212518 0.156413 0.025502
0.186245 0.111928 0.022349
0.176639 0.094536 0.021197
0.174986 0.089851 0.020998
0.187657 0.096953 0.022519
0.207930 0.109053 0.024952
0.228617 0.121022 0.027434
0.248937 0.131914 0.029872
0.268796 0.141558 0.032255
0.288339 0.150104 0.034601
0.307830 0.157827 0.036940
0.327559 0.165016 0.039307
0.347789 0.171918 0.041735
0.368724 0.178716 0.044247
0.390468 0.185509 0.046856
0.413059 0.192348 0.049567
0.436492 0.199251 0.052379
0.460734 0.206213 0.055288
0.485734 0.213221 0.058288
0.511661 0.220139 0.061399
0.542661 0.230237 0.067391
0.610584 0.270035 0.099761
0.705245 0.336114 0.158737
0.804767 0.412753 0.231412
0.886570 0.476255 0.293254
0.930000 0.499883 0.314672
0.960000 0.508626 0.320732
0.034972 0.291435 0.034972
0.060618 0.291435 0.034972
0.097107 0.291435 0.034972
0.148892 0.291435 0.034972
0.207527 0.291435 0.034972
0.265794 0.290625 0.034875
0.260257 0.224083 0.031231
0.221118 0.151751 0.026534
0.197423 0.115156 0.023691
0.189005 0.100422 0.022681
0.187446 0.096249 0.022494
0.207156 0.106873 0.024859
0.227860 0.119177 0.027343
0.248719 0.131410 0.029846
0.269326 0.142797 0.032319
0.289512 0.153062 0.034741
0.309324 0.162238 0.037119
0.328938 0.170512 0.039473
0.348584 0.178121 0.041830
0.368495 0.185296 0.044219
0.388883 0.192232 0.046666
0.409911 0.199074 0.049189
0.431667 0.205906 0.051800
0.454187 0.212775 0.054502
0.477475 0.219698 0.057297
0.501510 0.226678 0.060181
0.530660 0.237132 0.066004
0.599051 0.278969 0.099239
0.696769 0.348771 0.160964
0.800407 0.430250 0.238129
0.885626 0.498210 0.304502
0.930000 0.523681 0.327671
0.960000 0.533176 0.334249
0.038690 0.322417 0.038690
0.064483 0.322417 0.038690
0.098531 0.322417 0.038690
0.147981 0.322417 0.038690
0.205644 0.322417 0.038690
0.265354 0.322417 0.038690
0.310535 0.305243 0.037264
0.270977 0.213722 0.032517
0.235136 0.153260 0.028216
0.215353 0.122900 0.025842
0.208368 0.110115 0.025004
0.206980 0.106279 0.024838
0.227123 0.117043 0.027255
0.247890 0.129341 0.029747
0.268879 0.141758 0.032265
0.289718 0.153534 0.034766
0.310198 0.164329 0.037224
0.330294 0.174087 0.039635
0.350111 0.182916 0.042013
0.369820 0.190996 0.044378
0.389617 0.198529 0.046754
0.409694 0.205700 0.049163
0.430224 0.212667 0.051627
0.451341 0.219550 0.054161
0.473118 0.226419 0.056774
0.495592 0.233316 0.059471
0.523303 0.243797 0.065151
0.591676 0.286847 0.098878
0.690815 0.359621 0.162468
0.797049 0.445435 0.243243
0.884844 0.517815 0.313793
0.930000 0.544996 0.338713
0.960000 0.555296 0.345971
0.042428 0.353568 0.042428
0.068357 0.353568 0.042428
0.100433 0.353568 0.042428
0.147586 0.353568 0.042428
0.203877 0.353568 0.042428
0.263818 0.353568 0.042428
0.322457 0.352583 0.042310
0.323873 0.290509 0.038865
0.282448 0.207882 0.033894
0.250729 0.157196 0.030087
0.234131 0.131432 0.028096
0.228233 0.120116 0.027388
0.226978 0.116548 0.027237
0.247195 0.127274 0.029663
0.268016 0.139550 0.032162
0.289105 0.152093 0.034693
0.310129 0.164172 0.037216
0.330865 0.175414 0.039704
0.351236 0.185695 0.042148
0.371289 0.195055 0.044555
0.391145 0.203623 0.046937
0.410961 0.211563 0.049315
0.430904 0.219044 0.051709
0.451133 0.226218 0.054136
0.471792 0.233215 0.056615
0.492993 0.240135 0.059159
0.519401 0.250649 0.064698
0.587270 0.294498 0.098652
0.687075 0.369095 0.163388
0.794875 0.457612 0.246527
0.884324 0.532877 0.319965
0.930000 0.562474 0.346842
0.960000 0.574493 0.355319
0.046185 0.384876 0.046185
0.072238 0.384876 0.046185
0.102741 0.384876 0.046185
0.147690 0.384876 0.046185
0.202395 0.384876 0.046185
0.261953 0.384876 0.046185
0.322163 0.384876 0.046185
0.373478 0.373140 0.044817
0.335056 0.277860 0.040207
0.295124 0.205702 0.035415
0.267374 0.162693 0.032085
0.253299 0.140389 0.030396
0.248226 0.130217 0.029787
0.247077 0.126868 0.029649
0.267363 0.137563 0.032084
0.288233 0.149806 0.034588
0.309402 0.162433 0.037128
0.330575 0.174748 0.039669
0.351527 0.186361 0.042183
0.372151 0.197102 0.044658
0.392449 0.206958 0.047094
0.412496 0.216007 0.049500
0.432414 0.224377 0.051890
0.452342 0.232214 0.054281
0.472423 0.239659 0.056691
0.492792 0.246840 0.059135
0.518193 0.257517 0.064558
0.585315 0.301914 0.098549
0.685080 0.377675 0.163870
0.793573 0.467982 0.248483
0.883986 0.545321 0.323974
0.930000 0.576369 0.352219
0.960000 0.589470 0.361611
0.049959 0.416329 0.049959
0.076129 0.416329 0.049959
0.105397 0.416329 0.049959
0.148257 0.416329 0.049959
0.201274 0.416329 0.049959
0.260051 0.416329 0.049959
0.320752 0.416329 0.049959
0.379696 0.415169 0.049820
0.388004 0.358331 0.046560
0.346090 0.268847 0.041531
0.309051 0.206308 0.037086
0.284835 0.169294 0.034180
0.272766 0.149660 0.032732
0.268333 0.140402 0.032200
0.267269 0.137236 0.032072
0.287620 0.147903 0.034514
0.308536 0.160109 0.037024
0.329769 0.172789 0.039572
0.351062 0.185287 0.042127
0.372197 0.197208 0.044664
0.393049 0.208350 0.047166
0.413583 0.218657 0.049630
0.433841 0.228165 0.052061
0.453910 0.236969 0.054469
0.473903 0.245188 0.056868
0.493944 0.252948 0.059273
0.518771 0.264036 0.064625
0.585156 0.308911 0.098541
0.684453 0.385392 0.164021
0.792990 0.476775 0.249357
0.883804 0.555492 0.326123
0.930000 0.587735 0.355451
0.960000 0.601859 0.365707
0.053750 0.447917 0.053750
0.080028 0.447917 0.053750
0.108351 0.447917 0.053750
0.149247 0.447917 0.053750
0.200545 0.447917 0.053750
0.258282 0.447917 0.053750
0.318956 0.447917 0.053750
0.379526 0.447917 0.053750
0.432089 0.436854 0.052422
0.399835 0.344262 0.047980
0.357819 0.263354 0.042938
0.324108 0.208996 0.038893
0.302933 0.176700 0.036352
0.292468 0.159172 0.035096
0.288543 0.150659 0.034625
0.287547 0.147649 0.034506
0.307961 0.158292 0.036955
0.328920 0.170457 0.039470
0.350207 0.183168 0.042025
0.371598 0.195807 0.044592
0.392887 0.207981 0.047146
0.413938 0.219470 0.049673
0.434694 0.230183 0.052163
0.455166 0.240123 0.054620
0.475412 0.249350 0.057049
0.495522 0.257959 0.059463
0.520188 0.269730 0.064789
0.586053 0.315170 0.098588
0.684752 0.392166 0.163949
0.792940 0.484148 0.249432
0.883746 0.563709 0.326810
0.930000 0.596921 0.356911
0.960000 0.611990 0.367918
0.057556 0.479632 0.057556
0.083936 0.479632 0.057556
0.111562 0.479632 0.057556
0.150619 0.479632 0.057556
0.200208 0.479632 0.057556
0.256745 0.479632 0.057556
0.317025 0.479632 0.057556
0.378225 0.479632 0.057556
0.437429 0.478296 0.057395
0.452454 0.427017 0.054295
0.410902 0.332950 0.049308
0.370535 0.260830 0.044464
0.340126 0.213244 0.040815
0.321530 0.184707 0.038584
0.312362 0.168874 0.037483
0.308845 0.160980 0.037061
0.307907 0.158103 0.036949
0.328380 0.168726 0.039406
0.349380 0.180850 0.041926
0.370713 0.193575 0.044486
0.392185 0.206321 0.047062
0.413604 0.218704 0.049632
0.434829 0.230491 0.052180
0.455789 0.241566 0.054695
0.476468 0.251903 0.057176
0.496904 0.261536 0.059628
0.521722 0.274199 0.064968
0.587337 0.320349 0.098655
0.685519 0.397843 0.163765
0.793215 0.490198 0.249020
0.883774 0.570253 0.326483
0.930000 0.604247 0.357043
0.960000 0.620178 0.368634
0.061376 0.511466 0.061376
0.087852 0.511466 0.061376
0.114997 0.511466 0.061376
0.152335 0.511466 0.061376
0.200252 0.511466 0.061376
0.255493 0.511466 0.061376
0.315120 0.511466 0.061376
0.376513 0.511466 0.061376
0.437370 0.511466 0.061376
0.490664 0.500633 0.060076
0.465047 0.412146 0.055806
0.422174 0.324773 0.050661
0.384281 0.260693 0.046114
0.356945 0.218676 0.042833
0.340526 0.193174 0.040863
0.332417 0.178729 0.039890
0.329232 0.171358 0.039508
0.328343 0.168597 0.039401
0.348873 0.179202 0.041865
0.369912 0.191284 0.044389
0.391287 0.204012 0.046954
0.412826 0.216839 0.049539
0.434354 0.229394 0.052122
0.455731 0.241436 0.054688
0.476874 0.252832 0.057225
0.497751 0.263532 0.059730
0.522917 0.277207 0.065106
0.588540 0.324202 0.098718
0.686389 0.402280 0.163554
0.793624 0.494972 0.248407
0.883847 0.575363 0.325617
0.930000 0.610003 0.356339
0.960000 0.626709 0.368296
0.065210 0.543413 0.065210
0.091776 0.543413 0.065210
0.118628 0.543413 0.065210
0.154360 0.543413 0.065210
0.200658 0.543413 0.065210
0.254554 0.543413 0.065210
0.313347 0.543413 0.065210
0.374605 0.543413 0.065210
0.436165 0.543413 0.065210
0.495598 0.541899 0.065028
0.517189 0.496339 0.062063
0.476418 0.399213 0.057170
0.434106 0.319501 0.052093
0.398991 0.262448 0.047879
0.374427 0.225020 0.044931
0.359845 0.202002 0.043181
0.352608 0.188712 0.042313
0.349699 0.181788 0.041964
0.348852 0.179127 0.041862
0.369436 0.189717 0.044332
0.390513 0.201759 0.046862
0.411925 0.214480 0.049431
0.433521 0.227368 0.052022
0.455141 0.240063 0.054617
0.476650 0.252323 0.057198
0.497957 0.264002 0.059755
0.523547 0.278690 0.065179
0.589382 0.326615 0.098761
0.687122 0.405394 0.163376
0.794028 0.498502 0.247801
0.883933 0.579209 0.324595
0.930000 0.614426 0.355257
0.960000 0.631836 0.367369
0.069056 0.575466 0.069056
0.095709 0.575466 0.069056
0.122431 0.575466 0.069056
0.156661 0.575466 0.069056
0.201402 0.575466 0.069056
0.253935 0.575466 0.069056
0.311770 0.575466 0.069056
0.372649 0.575466 0.069056
0.434540 0.575466 0.069056
0.495642 0.575466 0.069056
0.549538 0.564786 0.067774
0.530568 0.481061 0.063668
0.487576 0.388928 0.058509
0.446875 0.316730 0.053625
0.414563 0.265701 0.049748
0.392457 0.232078 0.047095
0.379428 0.211119 0.045531
0.372917 0.198802 0.044750
0.370241 0.192265 0.044429
0.369429 0.189693 0.044332
0.390065 0.200270 0.046808
0.411178 0.212272 0.049341
0.432624 0.224981 0.051915
0.454270 0.237913 0.054512
0.475969 0.250722 0.057116
0.497592 0.263167 0.059711
0.523574 0.278753 0.065183
0.589746 0.327605 0.098780
0.687583 0.407179 0.163264
0.794338 0.500829 0.247334
0.884011 0.581916 0.323681
0.930000 0.617683 0.354141
0.960000 0.635749 0.366237
0.072915 0.607621 0.072915
0.099650 0.607621 0.072915
0.126385 0.607621 0.072915
0.159213 0.607621 0.072915
0.202461 0.607621 0.072915
0.253633 0.607621 0.072915
0.310429 0.607621 0.072915
0.370747 0.607621 0.072915
0.432679 0.607621 0.072915
0.494519 0.607621 0.072915
0.554156 0.605928 0.072711
0.582190 0.566163 0.069863
0.542395 0.467007 0.065087
0.499066 0.381337 0.059888
0.460515 0.316046 0.055262
0.430888 0.270148 0.051707
0.410943 0.239702 0.049313
0.399233 0.220472 0.047908
0.393332 0.208985 0.047200
0.390852 0.202785 0.046902
0.390072 0.200293 0.046809
0.410758 0.210859 0.049291
0.431906 0.222822 0.051829
0.453384 0.235514 0.054406
0.475072 0.248476 0.057009
0.496839 0.261378 0.059621
0.523099 0.277641 0.065127
0.589640 0.327319 0.098774
0.687727 0.407717 0.163229
0.794511 0.502023 0.247075
0.884065 0.583588 0.323036
0.930000 0.619902 0.353223
0.960000 0.638587 0.365177
0.076785 0.639873 0.076785
0.103598 0.639873 0.076785
0.130412 0.639873 0.076785
0.161989 0.639873 0.076785
0.203811 0.639873 0.076785
0.253641 0.639873 0.076785
0.309346 0.639873 0.076785
0.368968 0.639873 0.076785
0.430718 0.639873 0.076785
0.492977 0.639873 0.076785
0.554297 0.639873 0.076785
0.608702 0.629286 0.075514
0.596338 0.550733 0.071561
0.553664 0.455099 0.066440
0.511163 0.376215 0.061340
0.474993 0.317083 0.056999
0.447861 0.275551 0.053743
0.429809 0.247783 0.051577
0.419224 0.230018 0.050307
0.413840 0.219248 0.049661
0.411528 0.213345 0.049383
0.410776 0.210924 0.049293
0.431510 0.221481 0.051781
0.452693 0.233407 0.054323
0.474201 0.246078 0.056904
0.495927 0.259060 0.059511
0.522304 0.275700 0.065035
0.589164 0.326006 0.098750
0.687581 0.407171 0.163265
0.794537 0.502198 0.247036
0.884091 0.584329 0.322731
0.930000 0.621187 0.352631
0.960000 0.640458 0.364365
0.080666 0.672216 0.080666
0.107555 0.672216 0.080666
0.134443 0.672216 0.080666
0.164969 0.672216 0.080666
0.205431 0.672216 0.080666
0.253945 0.672216 0.080666
0.308531 0.672216 0.080666
0.367361 0.672216 0.080666
0.428753 0.672216 0.080666
0.491175 0.672216 0.080666
0.553245 0.672216 0.080666
0.613068 0.670343 0.080441
0.647445 0.636410 0.077693
0.608699 0.535924 0.073044
0.564969 0.445595 0.067796
0.523987 0.373257 0.062878
0.490243 0.319536 0.058829
0.465393 0.281731 0.055847
0.448995 0.256238 0.053879
0.439376 0.239729 0.052725
0.434434 0.229582 0.052132
0.432267 0.223943 0.051872
0.431539 0.221585 0.051785
0.452320 0.232134 0.054278
0.473537 0.244026 0.056824
0.495073 0.256673 0.059409
0.521401 0.273334 0.064930
0.588469 0.323990 0.098714
0.687217 0.405770 0.163353
0.794435 0.501505 0.247189
0.884088 0.584252 0.322763
0.930000 0.621642 0.352411
0.960000 0.641459 0.363894
0.084558 0.704648 0.084558
0.111518 0.704648 0.084558
0.138479 0.704648 0.084558
0.168133 0.704648 0.084558
0.207299 0.704648 0.084558
0.254531 0.704648 0.084558
0.307986 0.704648 0.084558
0.365954 0.704648 0.084558
0.426854 0.704648 0.084558
0.489235 0.704648 0.084558
0.551780 0.704648 0.084558
0.613300 0.704648 0.084558
0.668142 0.694111 0.083293
0.662326 0.620989 0.079479
0.620226 0.522784 0.074427
0.576648 0.438433 0.069198
0.537567 0.372152 0.064508
0.506189 0.323156 0.060743
0.483403 0.288546 0.058008
0.468454 0.265002 0.056215
0.459668 0.249579 0.055160
0.455106 0.239979 0.054613
0.453066 0.234576 0.054368
0.452360 0.232276 0.054283
0.473185 0.242819 0.056782
0.494435 0.254677 0.059332
0.520581 0.270969 0.064835
0.587718 0.321636 0.098675
0.686734 0.403795 0.163471
0.794242 0.500137 0.247478
0.884062 0.583491 0.323075
0.930000 0.621376 0.352540
0.960000 0.641688 0.363783
0.088460 0.737165 0.088460
0.115489 0.737165 0.088460
0.142519 0.737165 0.088460
0.171464 0.737165 0.088460
0.209396 0.737165 0.088460
0.255383 0.737165 0.088460
0.307708 0.737165 0.088460
0.364766 0.737165 0.088460
0.425070 0.737165 0.088460
0.487248 0.737165 0.088460
0.550042 0.737165 0.088460
0.612311 0.737165 0.088460
0.672302 0.735111 0.088213
0.712943 0.707026 0.085553
0.675254 0.605692 0.081030
0.631531 0.511724 0.075784
0.588886 0.433419 0.070666
0.551885 0.372620 0.066226
0.522753 0.327743 0.062730
0.501825 0.295887 0.060219
0.488147 0.274026 0.058578
0.480082 0.259549 0.057610
0.475850 0.250434 0.057102
0.473921 0.245243 0.056871
0.473235 0.242995 0.056788
0.494103 0.253532 0.059292
0.519978 0.269028 0.064765
0.587052 0.319331 0.098640
0.686233 0.401560 0.163592
0.794005 0.498318 0.247835
0.884019 0.582196 0.323577
0.930000 0.620511 0.352948
0.960000 0.641250 0.363995
0.092372 0.769764 0.092372
0.119467 0.769764 0.092372
0.146563 0.769764 0.092372
0.174949 0.769764 0.092372
0.211705 0.769764 0.092372
0.256487 0.769764 0.092372
0.307690 0.769764 0.092372
0.363807 0.769764 0.092372
0.423438 0.769764 0.092372
0.485281 0.769764 0.092372
0.548139 0.769764 0.092372
0.610917 0.769764 0.092372
0.672622 0.769764 0.092372
0.727845 0.759240 0.091109
0.728513 0.691717 0.087422
0.687132 0.591627 0.082456
0.642992 0.502823 0.077159
0.601765 0.430313 0.072212
0.566898 0.374419 0.068028
0.539863 0.333135 0.064784
0.520602 0.303666 0.062472
0.508041 0.283269 0.060965
0.500605 0.269623 0.060073
0.496661 0.260940 0.059599
0.494831 0.255941 0.059380
0.494162 0.253740 0.059299
0.519670 0.267943 0.064729
0.586570 0.317466 0.098615
0.685799 0.399399 0.163697
0.793766 0.496300 0.248194
0.883970 0.580547 0.324163
0.930000 0.619185 0.353534
0.960000 0.640263 0.364454
0.096246 0.802051 0.096246
0.123392 0.802051 0.096246
0.150539 0.802051 0.096246
0.178486 0.802051 0.096246
0.214105 0.802051 0.096246
0.257703 0.802051 0.096246
0.307774 0.802051 0.096246
0.362906 0.802051 0.096246
0.421775 0.802051 0.096246
0.483149 0.802051 0.096246
0.545890 0.802051 0.096246
0.608947 0.802051 0.096246
0.671361 0.802051 0.096246
0.731515 0.799854 0.096011
0.778699 0.777995 0.093737
0.742676 0.676798 0.089833
0.699982 0.580714 0.085151
0.657009 0.498058 0.080379
0.618171 0.431498 0.076015
