assets/LUTs/skintone_tanline_pop_33.cube
TITLE "SkinTone Tanline Pop"
# Expands separation inside skin: tanned areas get deeper and more saturated, pale areas lighter and cleaner, so tan lines punch. Mild warm pull keeps it coherent.
# Skin-tone selective LUT. Apply to display-referred Rec.709/sRGB (SDR) footage.
# Generated 2026-07-10 with Claude Code.
LUT_3D_SIZE 33
DOMAIN_MIN 0.0 0.0 0.0
DOMAIN_MAX 1.0 1.0 1.0
0.000000 0.000000 0.000000
0.029831 0.000000 0.000000
0.059937 0.000000 0.000000
0.090298 0.000000 0.000000
0.120898 0.000000 0.000000
0.151718 0.000000 0.000000
0.182739 0.000000 0.000000
0.213943 0.000000 0.000000
0.245312 0.000000 0.000000
0.276828 0.000000 0.000000
0.308472 0.000000 0.000000
0.340225 0.000000 0.000000
0.372070 0.000000 0.000000
0.403989 0.000000 0.000000
0.435962 0.000000 0.000000
0.467972 0.000000 0.000000
0.500000 0.000000 0.000000
0.532028 0.000000 0.000000
0.564038 0.000000 0.000000
0.596011 0.000000 0.000000
0.627930 0.000000 0.000000
0.659775 0.000000 0.000000
0.691528 0.000000 0.000000
0.723172 0.000000 0.000000
0.754687 0.000000 0.000000
0.786057 0.000000 0.000000
0.817261 0.000000 0.000000
0.848282 0.000000 0.000000
0.879102 0.000000 0.000000
0.909702 0.000000 0.000000
0.940063 0.000000 0.000000
0.970169 0.000000 0.000000
1.000000 0.000000 0.000000
0.000000 0.029831 0.000000
0.029831 0.029831 0.000000
0.059937 0.029968 0.000000
0.090298 0.030099 0.000000
0.120898 0.030225 0.000000
0.151718 0.030344 0.000000
0.182739 0.030457 0.000000
0.213943 0.030563 0.000000
0.245312 0.030664 0.000000
0.276828 0.030759 0.000000
0.308472 0.030847 0.000000
0.340225 0.030930 0.000000
0.372070 0.031006 0.000000
0.403989 0.031076 0.000000
0.435962 0.031140 0.000000
0.467972 0.031198 0.000000
0.500000 0.031250 0.000000
0.532028 0.031296 0.000000
0.564038 0.031335 0.000000
0.596011 0.031369 0.000000
0.627930 0.031396 0.000000
0.659775 0.031418 0.000000
0.691528 0.031433 0.000000
0.723172 0.031442 0.000000
0.754687 0.031445 0.000000
0.786057 0.031442 0.000000
0.817261 0.031433 0.000000
0.848282 0.031418 0.000000
0.879102 0.031396 0.000000
0.909702 0.031369 0.000000
0.940063 0.031335 0.000000
0.970169 0.031296 0.000000
1.000000 0.031250 0.000000
0.000000 0.059937 0.000000
0.029968 0.059937 0.000000
0.059937 0.059937 0.000000
0.090298 0.060199 0.000000
0.120898 0.060449 0.000000
0.151718 0.060687 0.000000
0.182739 0.060913 0.000000
0.213943 0.061127 0.000000
0.245312 0.061328 0.000000
0.276828 0.061517 0.000000
0.308472 0.061694 0.000000
0.340225 0.061859 0.000000
0.372070 0.062012 0.000000
0.403989 0.062152 0.000000
0.435962 0.062280 0.000000
0.467972 0.062396 0.000000
0.500000 0.062500 0.000000
0.532028 0.062592 0.000000
0.564038 0.062671 0.000000
0.596011 0.062738 0.000000
0.627930 0.062793 0.000000
0.659775 0.062836 0.000000
0.691528 0.062866 0.000000
0.723172 0.062885 0.000000
0.754687 0.062891 0.000000
0.786057 0.062885 0.000000
0.817261 0.062866 0.000000
0.848282 0.062836 0.000000
0.879102 0.062793 0.000000
0.909702 0.062738 0.000000
0.940063 0.062671 0.000000
0.970169 0.062592 0.000000
1.000000 0.062500 0.000000
0.000000 0.090298 0.000000
0.030099 0.090298 0.000000
0.060199 0.090298 0.000000
0.090298 0.090298 0.000000
0.120898 0.090674 0.000000
0.151718 0.091031 0.000000
0.182739 0.091370 0.000000
0.213943 0.091690 0.000000
0.245312 0.091992 0.000000
0.276828 0.092276 0.000000
0.308472 0.092542 0.000000
0.340225 0.092789 0.000000
0.372070 0.093018 0.000000
0.403989 0.093228 0.000000
0.435962 0.093420 0.000000
0.467972 0.093594 0.000000
0.500000 0.093750 0.000000
0.532028 0.093887 0.000000
0.564038 0.094006 0.000000
0.596011 0.094107 0.000000
0.627930 0.094189 0.000000
0.659775 0.094254 0.000000
0.691528 0.094299 0.000000
0.723172 0.094327 0.000000
0.754687 0.094336 0.000000
0.786057 0.094327 0.000000
0.817261 0.094299 0.000000
0.848282 0.094254 0.000000
0.879102 0.094189 0.000000
0.909702 0.094107 0.000000
0.940063 0.094006 0.000000
0.970169 0.093887 0.000000
1.000000 0.093750 0.000000
0.000000 0.120898 0.000000
0.030225 0.120898 0.000000
0.060449 0.120898 0.000000
0.090674 0.120898 0.000000
0.120898 0.120898 0.000000
0.151718 0.121375 0.000000
0.182739 0.121826 0.000000
0.213943 0.122253 0.000000
0.245312 0.122656 0.000000
0.276828 0.123035 0.000000
0.308472 0.123389 0.000000
0.340225 0.123718 0.000000
0.372070 0.124023 0.000000
0.403989 0.124304 0.000000
0.435962 0.124561 0.000000
0.467972 0.124792 0.000000
0.500000 0.125000 0.000000
0.532028 0.125183 0.000000
0.564038 0.125342 0.000000
0.596011 0.125476 0.000000
0.627930 0.125586 0.000000
0.659775 0.125671 0.000000
0.691528 0.125732 0.000000
0.723172 0.125769 0.000000
0.754687 0.125781 0.000000
0.786057 0.125769 0.000000
0.817261 0.125732 0.000000
0.848282 0.125671 0.000000
0.879102 0.125586 0.000000
0.909702 0.125476 0.000000
0.940063 0.125342 0.000000
0.970169 0.125183 0.000000
1.000000 0.125000 0.000000
0.000000 0.151718 0.000000
0.030344 0.151718 0.000000
0.060687 0.151718 0.000000
0.091031 0.151718 0.000000
0.121375 0.151718 0.000000
0.151718 0.151718 0.000000
0.182739 0.152283 0.000000
0.213943 0.152817 0.000000
0.245312 0.153320 0.000000
0.276828 0.153793 0.000000
0.308472 0.154236 0.000000
0.340225 0.154648 0.000000
0.372070 0.155029 0.000000
0.403989 0.155380 0.000000
0.435962 0.155701 0.000000
0.467972 0.155991 0.000000
0.500000 0.156250 0.000000
0.532028 0.156479 0.000000
0.564038 0.156677 0.000000
0.596011 0.156845 0.000000
0.627930 0.156982 0.000000
0.659775 0.157089 0.000000
0.691528 0.157166 0.000000
0.723172 0.157211 0.000000
0.754687 0.157227 0.000000
0.786057 0.157211 0.000000
0.817261 0.157166 0.000000
0.848282 0.157089 0.000000
0.879102 0.156982 0.000000
0.909702 0.156845 0.000000
0.940063 0.156677 0.000000
0.970169 0.156479 0.000000
1.000000 0.156250 0.000000
0.000000 0.182739 0.000000
0.030457 0.182739 0.000000
0.060913 0.182739 0.000000
0.091370 0.182739 0.000000
0.121826 0.182739 0.000000
0.152283 0.182739 0.000000
0.182739 0.182739 0.000000
0.213943 0.183380 0.000000
0.245312 0.183984 0.000000
0.276828 0.184552 0.000000
0.308472 0.185083 0.000000
0.340225 0.185577 0.000000
0.372070 0.186035 0.000000
0.403989 0.186456 0.000000
0.435962 0.186841 0.000000
0.467972 0.187189 0.000000
0.500000 0.187500 0.000000
0.532028 0.187775 0.000000
0.564038 0.188013 0.000000
0.596011 0.188214 0.000000
0.627930 0.188379 0.000000
0.659775 0.188507 0.000000
0.691528 0.188599 0.000000
0.723172 0.188654 0.000000
0.754687 0.188672 0.000000
0.786057 0.188654 0.000000
0.817261 0.188599 0.000000
0.848282 0.188507 0.000000
0.879102 0.188379 0.000000
0.909702 0.188214 0.000000
0.940063 0.188013 0.000000
0.970169 0.187775 0.000000
1.000000 0.187500 0.000000
0.000000 0.213943 0.000000
0.030563 0.213943 0.000000
0.061127 0.213943 0.000000
0.091690 0.213943 0.000000
0.122253 0.213943 0.000000
0.152817 0.213943 0.000000
0.183380 0.213943 0.000000
0.213943 0.213943 0.000000
0.245312 0.214648 0.000000
0.276828 0.215311 0.000000
0.308472 0.215930 0.000000
0.340225 0.216507 0.000000
0.372070 0.217041 0.000000
0.403989 0.217532 0.000000
0.435962 0.217981 0.000000
0.467972 0.218387 0.000000
0.500000 0.218750 0.000000
0.532028 0.219070 0.000000
0.564038 0.219348 0.000000
0.596011 0.219583 0.000000
0.627930 0.219775 0.000000
0.659775 0.219925 0.000000
0.691528 0.220032 0.000000
0.723172 0.220096 0.000000
0.754687 0.220117 0.000000
0.786057 0.220096 0.000000
0.817261 0.220032 0.000000
0.848282 0.219925 0.000000
0.879102 0.219775 0.000000
0.909702 0.219583 0.000000
0.940063 0.219348 0.000000
0.970169 0.219070 0.000000
1.000000 0.218750 0.000000
0.000000 0.245312 0.000000
0.030664 0.245312 0.000000
0.061328 0.245312 0.000000
0.091992 0.245312 0.000000
0.122656 0.245312 0.000000
0.153320 0.245312 0.000000
0.183984 0.245312 0.000000
0.214648 0.245312 0.000000
0.245312 0.245312 0.000000
0.276828 0.246069 0.000000
0.308472 0.246777 0.000000
0.340225 0.247437 0.000000
0.372070 0.248047 0.000000
0.403989 0.248608 0.000000
0.435962 0.249121 0.000000
0.467972 0.249585 0.000000
0.500000 0.250000 0.000000
0.532028 0.250366 0.000000
0.564038 0.250684 0.000000
0.596011 0.250952 0.000000
0.627930 0.251172 0.000000
0.659775 0.251343 0.000000
0.691528 0.251465 0.000000
0.723172 0.251538 0.000000
0.754687 0.251563 0.000000
0.786057 0.251538 0.000000
0.817261 0.251465 0.000000
0.848282 0.251343 0.000000
0.879102 0.251172 0.000000
0.909702 0.250952 0.000000
0.940063 0.250684 0.000000
0.970169 0.250366 0.000000
1.000000 0.250000 0.000000
0.000000 0.276828 0.000000
0.030759 0.276828 0.000000
0.061517 0.276828 0.000000
0.092276 0.276828 0.000000
0.123035 0.276828 0.000000
0.153793 0.276828 0.000000
0.184552 0.276828 0.000000
0.215311 0.276828 0.000000
0.246069 0.276828 0.000000
0.276828 0.276828 0.000000
0.308472 0.277625 0.000000
0.340225 0.278366 0.000000
0.372070 0.279053 0.000000
0.403989 0.279684 0.000000
0.435962 0.280261 0.000000
0.467972 0.280783 0.000000
0.500000 0.281250 0.000000
0.532028 0.281662 0.000000
0.564038 0.282019 0.000000
0.596011 0.282321 0.000000
0.627930 0.282568 0.000000
0.659775 0.282761 0.000000
0.691528 0.282898 0.000000
0.723172 0.282980 0.000000
0.754687 0.283008 0.000000
0.786057 0.282980 0.000000
0.817261 0.282898 0.000000
0.848282 0.282761 0.000000
0.879102 0.282568 0.000000
0.909702 0.282321 0.000000
0.940063 0.282019 0.000000
0.970169 0.281662 0.000000
1.000000 0.281250 0.000000
0.000000 0.308472 0.000000
0.030847 0.308472 0.000000
0.061694 0.308472 0.000000
0.092542 0.308472 0.000000
0.123389 0.308472 0.000000
0.154236 0.308472 0.000000
0.185083 0.308472 0.000000
0.215930 0.308472 0.000000
0.246777 0.308472 0.000000
0.277625 0.308472 0.000000
0.308472 0.308472 0.000000
0.340225 0.309296 0.000000
0.372070 0.310059 0.000000
0.403989 0.310760 0.000000
0.435962 0.311401 0.000000
0.467972 0.311981 0.000000
0.500000 0.312500 0.000000
0.532028 0.312958 0.000000
0.564038 0.313354 0.000000
0.596011 0.313690 0.000000
0.627930 0.313965 0.000000
0.659775 0.314178 0.000000
0.691528 0.314331 0.000000
0.723172 0.314423 0.000000
0.754687 0.314453 0.000000
0.786057 0.314423 0.000000
0.817261 0.314331 0.000000
0.848282 0.314178 0.000000
0.879102 0.313965 0.000000
0.909702 0.313690 0.000000
0.940063 0.313354 0.000000
0.970169 0.312958 0.000000
1.000000 0.312500 0.000000
0.000000 0.340225 0.000000
0.030930 0.340225 0.000000
0.061859 0.340225 0.000000
0.092789 0.340225 0.000000
0.123718 0.340225 0.000000
0.154648 0.340225 0.000000
0.185577 0.340225 0.000000
0.216507 0.340225 0.000000
0.247437 0.340225 0.000000
0.278366 0.340225 0.000000
0.309296 0.340225 0.000000
0.340225 0.340225 0.000000
0.372070 0.341064 0.000000
0.403989 0.341837 0.000000
0.435962 0.342542 0.000000
0.467972 0.343179 0.000000
0.500000 0.343750 0.000000
0.532028 0.344254 0.000000
0.564038 0.344690 0.000000
0.596011 0.345059 0.000000
0.627930 0.345361 0.000000
0.659775 0.345596 0.000000
0.691528 0.345764 0.000000
0.723172 0.345865 0.000000
0.754687 0.345898 0.000000
0.786057 0.345865 0.000000
0.817261 0.345764 0.000000
0.848282 0.345596 0.000000
0.879102 0.345361 0.000000
0.909702 0.345059 0.000000
0.940063 0.344690 0.000000
0.970169 0.344254 0.000000
1.000000 0.343750 0.000000
0.000000 0.372070 0.000000
0.031006 0.372070 0.000000
0.062012 0.372070 0.000000
0.093018 0.372070 0.000000
0.124023 0.372070 0.000000
0.155029 0.372070 0.000000
0.186035 0.372070 0.000000
0.217041 0.372070 0.000000
0.248047 0.372070 0.000000
0.279053 0.372070 0.000000
0.310059 0.372070 0.000000
0.341064 0.372070 0.000000
0.372070 0.372070 0.000000
0.403989 0.372913 0.000000
0.435962 0.373682 0.000000
0.467972 0.374377 0.000000
0.500000 0.375000 0.000000
0.532028 0.375549 0.000000
0.564038 0.376025 0.000000
0.596011 0.376428 0.000000
0.627930 0.376758 0.000000
0.659775 0.377014 0.000000
0.691528 0.377197 0.000000
0.723172 0.377307 0.000000
0.754687 0.377344 0.000000
0.786057 0.377307 0.000000
0.817261 0.377197 0.000000
0.848282 0.377014 0.000000
0.879102 0.376758 0.000000
0.909702 0.376428 0.000000
0.940063 0.376025 0.000000
0.970169 0.375549 0.000000
1.000000 0.375000 0.000000
0.000000 0.403989 0.000000
0.031076 0.403989 0.000000
0.062152 0.403989 0.000000
0.093228 0.403989 0.000000
0.124304 0.403989 0.000000
0.155380 0.403989 0.000000
0.186456 0.403989 0.000000
0.217532 0.403989 0.000000
0.248608 0.403989 0.000000
0.279684 0.403989 0.000000
0.310760 0.403989 0.000000
0.341837 0.403989 0.000000
0.372913 0.403989 0.000000
0.403989 0.403989 0.000000
0.435962 0.404822 0.000000
0.467972 0.405576 0.000000
0.500000 0.406250 0.000000
0.532028 0.406845 0.000000
0.564038 0.407361 0.000000
0.596011 0.407797 0.000000
0.627930 0.408154 0.000000
0.659775 0.408432 0.000000
0.691528 0.408630 0.000000
0.723172 0.408749 0.000000
0.754687 0.408789 0.000000
0.786057 0.408749 0.000000
0.817261 0.408630 0.000000
0.848282 0.408432 0.000000
0.879102 0.408154 0.000000
0.909702 0.407797 0.000000
0.940063 0.407361 0.000000
0.970169 0.406845 0.000000
1.000000 0.406250 0.000000
0.000000 0.435962 0.000000
0.031140 0.435962 0.000000
0.062280 0.435962 0.000000
0.093420 0.435962 0.000000
0.124561 0.435962 0.000000
0.155701 0.435962 0.000000
0.186841 0.435962 0.000000
0.217981 0.435962 0.000000
0.249121 0.435962 0.000000
0.280261 0.435962 0.000000
0.311401 0.435962 0.000000
0.342542 0.435962 0.000000
0.373682 0.435962 0.000000
0.404822 0.435962 0.000000
0.435962 0.435962 0.000000
0.467972 0.436774 0.000000
0.500000 0.437500 0.000000
0.532028 0.438141 0.000000
0.564038 0.438696 0.000000
0.596011 0.439166 0.000000
0.627930 0.439551 0.000000
0.659775 0.439850 0.000000
0.691528 0.440063 0.000000
0.723172 0.440192 0.000000
0.754687 0.440234 0.000000
0.786057 0.440192 0.000000
0.817261 0.440063 0.000000
0.848282 0.439850 0.000000
0.879102 0.439551 0.000000
0.909702 0.439166 0.000000
0.940063 0.438696 0.000000
0.970169 0.438141 0.000000
1.000000 0.437500 0.000000
0.000000 0.467972 0.000000
0.031198 0.467972 0.000000
0.062396 0.467972 0.000000
0.093594 0.467972 0.000000
0.124792 0.467972 0.000000
0.155991 0.467972 0.000000
0.187189 0.467972 0.000000
0.218387 0.467972 0.000000
0.249585 0.467972 0.000000
0.280783 0.467972 0.000000
0.311981 0.467972 0.000000
0.343179 0.467972 0.000000
0.374377 0.467972 0.000000
0.405576 0.467972 0.000000
0.436774 0.467972 0.000000
0.467972 0.467972 0.000000
0.500000 0.468750 0.000000
0.532028 0.469437 0.000000
0.564038 0.470032 0.000000
0.596011 0.470535 0.000000
0.627930 0.470947 0.000000
0.659775 0.471268 0.000000
0.691528 0.471497 0.000000
0.723172 0.471634 0.000000
0.754687 0.471680 0.000000
0.786057 0.471634 0.000000
0.817261 0.471497 0.000000
0.848282 0.471268 0.000000
0.879102 0.470947 0.000000
0.909702 0.470535 0.000000
0.940063 0.470032 0.000000
0.970169 0.469437 0.000000
1.000000 0.468750 0.000000
0.000000 0.500000 0.000000
0.031250 0.500000 0.000000
0.062500 0.500000 0.000000
0.093750 0.500000 0.000000
0.125000 0.500000 0.000000
0.156250 0.500000 0.000000
0.187500 0.500000 0.000000
0.218750 0.500000 0.000000
0.250000 0.500000 0.000000
0.281250 0.500000 0.000000
0.312500 0.500000 0.000000
0.343750 0.500000 0.000000
0.375000 0.500000 0.000000
0.406250 0.500000 0.000000
0.437500 0.500000 0.000000
0.468750 0.500000 0.000000
0.500000 0.500000 0.000000
0.532028 0.500732 0.000000
0.564038 0.501367 0.000000
0.596011 0.501904 0.000000
0.627930 0.502344 0.000000
0.659775 0.502686 0.000000
0.691528 0.502930 0.000000
0.723172 0.503076 0.000000
0.754687 0.503125 0.000000
0.786057 0.503076 0.000000
0.817261 0.502930 0.000000
0.848282 0.502686 0.000000
0.879102 0.502344 0.000000
0.909702 0.501904 0.000000
0.940063 0.501367 0.000000
0.970169 0.500732 0.000000
1.000000 0.500000 0.000000
0.000000 0.532028 0.000000
0.031296 0.532028 0.000000
0.062592 0.532028 0.000000
0.093887 0.532028 0.000000
0.125183 0.532028 0.000000
0.156479 0.532028 0.000000
0.187775 0.532028 0.000000
0.219070 0.532028 0.000000
0.250366 0.532028 0.000000
0.281662 0.532028 0.000000
0.312958 0.532028 0.000000
0.344254 0.532028 0.000000
0.375549 0.532028 0.000000
0.406845 0.532028 0.000000
0.438141 0.532028 0.000000
0.469437 0.532028 0.000000
0.500732 0.532028 0.000000
0.532028 0.532028 0.000000
0.564038 0.532703 0.000000
0.596011 0.533273 0.000000
0.627930 0.533740 0.000000
0.659775 0.534103 0.000000
0.691528 0.534363 0.000000
0.723172 0.534518 0.000000
0.754687 0.534570 0.000000
0.786057 0.534518 0.000000
0.817261 0.534363 0.000000
0.848282 0.534103 0.000000
0.879102 0.533740 0.000000
0.909702 0.533273 0.000000
0.940063 0.532703 0.000000
0.970169 0.532028 0.000000
1.000000 0.531250 0.000000
0.000000 0.564038 0.000000
0.031335 0.564038 0.000000
0.062671 0.564038 0.000000
0.094006 0.564038 0.000000
0.125342 0.564038 0.000000
0.156677 0.564038 0.000000
0.188013 0.564038 0.000000
0.219348 0.564038 0.000000
0.250684 0.564038 0.000000
0.282019 0.564038 0.000000
0.313354 0.564038 0.000000
0.344690 0.564038 0.000000
0.376025 0.564038 0.000000
0.407361 0.564038 0.000000
0.438696 0.564038 0.000000
0.470032 0.564038 0.000000
0.501367 0.564038 0.000000
0.532703 0.564038 0.000000
0.564038 0.564038 0.000000
0.596011 0.564642 0.000000
0.627930 0.565137 0.000000
0.659775 0.565521 0.000000
0.691528 0.565796 0.000000
0.723172 0.565961 0.000000
0.754687 0.566016 0.000000
0.786057 0.565961 0.000000
0.817261 0.565796 0.000000
0.848282 0.565521 0.000000
0.879102 0.565137 0.000000
0.909702 0.564642 0.000000
0.940063 0.564038 0.000000
0.970169 0.563324 0.000000
1.000000 0.562500 0.000000
0.000000 0.596011 0.000000
0.031369 0.596011 0.000000
0.062738 0.596011 0.000000
0.094107 0.596011 0.000000
0.125476 0.596011 0.000000
0.156845 0.596011 0.000000
0.188214 0.596011 0.000000
0.219583 0.596011 0.000000
0.250952 0.596011 0.000000
0.282321 0.596011 0.000000
0.313690 0.596011 0.000000
0.345059 0.596011 0.000000
0.376428 0.596011 0.000000
0.407797 0.596011 0.000000
0.439166 0.596011 0.000000
0.470535 0.596011 0.000000
0.501904 0.596011 0.000000
0.533273 0.596011 0.000000
0.564642 0.596011 0.000000
0.596011 0.596011 0.000000
0.627930 0.596533 0.000000
0.659775 0.596939 0.000000
0.691528 0.597229 0.000000
0.723172 0.597403 0.000000
0.754687 0.597461 0.000000
0.786057 0.597403 0.000000
0.817261 0.597229 0.000000
0.848282 0.596939 0.000000
0.879102 0.596533 0.000000
0.909702 0.596011 0.000000
0.940063 0.595374 0.000000
0.970169 0.594620 0.000000
1.000000 0.593750 0.000000
0.000000 0.627930 0.000000
0.031396 0.627930 0.000000
0.062793 0.627930 0.000000
0.094189 0.627930 0.000000
0.125586 0.627930 0.000000
0.156982 0.627930 0.000000
0.188379 0.627930 0.000000
0.219775 0.627930 0.000000
0.251172 0.627930 0.000000
0.282568 0.627930 0.000000
0.313965 0.627930 0.000000
0.345361 0.627930 0.000000
0.376758 0.627930 0.000000
0.408154 0.627930 0.000000
0.439551 0.627930 0.000000
0.470947 0.627930 0.000000
0.502344 0.627930 0.000000
0.533740 0.627930 0.000000
0.565137 0.627930 0.000000
0.596533 0.627930 0.000000
0.627930 0.627930 0.000000
0.659775 0.628357 0.000000
0.691528 0.628662 0.000000
0.723172 0.628845 0.000000
0.754687 0.628906 0.000000
0.786057 0.628845 0.000000
0.817261 0.628662 0.000000
0.848282 0.628357 0.000000
0.879102 0.627930 0.000000
0.909702 0.627380 0.000000
0.940063 0.626709 0.000000
0.970169 0.625916 0.000000
1.000000 0.625000 0.000000
0.000000 0.659775 0.000000
0.031418 0.659775 0.000000
0.062836 0.659775 0.000000
0.094254 0.659775 0.000000
0.125671 0.659775 0.000000
0.157089 0.659775 0.000000
0.188507 0.659775 0.000000
0.219925 0.659775 0.000000
0.251343 0.659775 0.000000
0.282761 0.659775 0.000000
0.314178 0.659775 0.000000
0.345596 0.659775 0.000000
0.377014 0.659775 0.000000
0.408432 0.659775 0.000000
0.439850 0.659775 0.000000
0.471268 0.659775 0.000000
0.502686 0.659775 0.000000
0.534103 0.659775 0.000000
0.565521 0.659775 0.000000
0.596939 0.659775 0.000000
0.628357 0.659775 0.000000
0.659775 0.659775 0.000000
0.691528 0.660095 0.000000
0.723172 0.660287 0.000000
0.754687 0.660352 0.000000
0.786057 0.660287 0.000000
0.817261 0.660095 0.000000
0.848282 0.659775 0.000000
0.879102 0.659326 0.000000
0.909702 0.658749 0.000000
0.940063 0.658044 0.000000
0.970169 0.657211 0.000000
1.000000 0.656250 0.000000
0.000000 0.691528 0.000000
0.031433 0.691528 0.000000
0.062866 0.691528 0.000000
0.094299 0.691528 0.000000
0.125732 0.691528 0.000000
0.157166 0.691528 0.000000
0.188599 0.691528 0.000000
0.220032 0.691528 0.000000
0.251465 0.691528 0.000000
0.282898 0.691528 0.000000
0.314331 0.691528 0.000000
0.345764 0.691528 0.000000
0.377197 0.691528 0.000000
0.408630 0.691528 0.000000
0.440063 0.691528 0.000000
0.471497 0.691528 0.000000
0.502930 0.691528 0.000000
0.534363 0.691528 0.000000
0.565796 0.691528 0.000000
0.597229 0.691528 0.000000
0.628662 0.691528 0.000000
0.660095 0.691528 0.000000
0.691528 0.691528 0.000000
0.723172 0.691730 0.000000
0.754687 0.691797 0.000000
0.786057 0.691730 0.000000
0.817261 0.691528 0.000000
0.848282 0.691193 0.000000
0.879102 0.690723 0.000000
0.909702 0.690118 0.000000
0.940063 0.689380 0.000000
0.970169 0.688507 0.000000
1.000000 0.687500 0.000000
0.000000 0.723172 0.000000
0.031442 0.723172 0.000000
0.062885 0.723172 0.000000
0.094327 0.723172 0.000000
0.125769 0.723172 0.000000
0.157211 0.723172 0.000000
0.188654 0.723172 0.000000
0.220096 0.723172 0.000000
0.251538 0.723172 0.000000
0.282980 0.723172 0.000000
0.314423 0.723172 0.000000
0.345865 0.723172 0.000000
0.377307 0.723172 0.000000
0.408749 0.723172 0.000000
0.440192 0.723172 0.000000
0.471634 0.723172 0.000000
0.503076 0.723172 0.000000
0.534518 0.723172 0.000000
0.565961 0.723172 0.000000
0.597403 0.723172 0.000000
0.628845 0.723172 0.000000
0.660287 0.723172 0.000000
0.691730 0.723172 0.000000
0.723172 0.723172 0.000000
0.754687 0.723242 0.000000
0.786057 0.723172 0.000000
0.817261 0.722961 0.000000
0.848282 0.722610 0.000000
0.879102 0.722119 0.000000
0.909702 0.721487 0.000000
0.940063 0.720715 0.000000
0.970169 0.719803 0.000000
1.000000 0.718750 0.000000
0.000000 0.754687 0.000000
0.031445 0.754687 0.000000
0.062891 0.754687 0.000000
0.094336 0.754687 0.000000
0.125781 0.754687 0.000000
0.157227 0.754687 0.000000
0.188672 0.754687 0.000000
0.220117 0.754687 0.000000
0.251563 0.754687 0.000000
0.283008 0.754687 0.000000
0.314453 0.754687 0.000000
0.345898 0.754687 0.000000
0.377344 0.754687 0.000000
0.408789 0.754687 0.000000
0.440234 0.754687 0.000000
0.471680 0.754687 0.000000
0.503125 0.754687 0.000000
0.534570 0.754687 0.000000
0.566016 0.754687 0.000000
0.597461 0.754687 0.000000
0.628906 0.754687 0.000000
0.660352 0.754687 0.000000
0.691797 0.754687 0.000000
0.723242 0.754687 0.000000
0.754687 0.754687 0.000000
0.786057 0.754614 0.000000
0.817261 0.754395 0.000000
0.848282 0.754028 0.000000
0.879102 0.753516 0.000000
0.909702 0.752856 0.000000
0.940063 0.752051 0.000000
0.970169 0.751099 0.000000
1.000000 0.750000 0.000000
0.000000 0.786057 0.000000
0.031442 0.786057 0.000000
0.062885 0.786057 0.000000
0.094327 0.786057 0.000000
0.125769 0.786057 0.000000
0.157211 0.786057 0.000000
0.188654 0.786057 0.000000
0.220096 0.786057 0.000000
0.251538 0.786057 0.000000
0.282980 0.786057 0.000000
0.314423 0.786057 0.000000
0.345865 0.786057 0.000000
0.377307 0.786057 0.000000
0.408749 0.786057 0.000000
0.440192 0.786057 0.000000
0.471634 0.786057 0.000000
0.503076 0.786057 0.000000
0.534518 0.786057 0.000000
0.565961 0.786057 0.000000
0.597403 0.786057 0.000000
0.628845 0.786057 0.000000
0.660287 0.786057 0.000000
0.691730 0.786057 0.000000
0.723172 0.786057 0.000000
0.754614 0.786057 0.000000
0.786057 0.786057 0.000000
0.817261 0.785828 0.000000
0.848282 0.785446 0.000000
0.879102 0.784912 0.000000
0.909702 0.784225 0.000000
0.940063 0.783386 0.000000
0.970169 0.782394 0.000000
1.000000 0.781250 0.000000
0.000000 0.817261 0.000000
0.031433 0.817261 0.000000
0.062866 0.817261 0.000000
0.094299 0.817261 0.000000
0.125732 0.817261 0.000000
0.157166 0.817261 0.000000
0.188599 0.817261 0.000000
0.220032 0.817261 0.000000
0.251465 0.817261 0.000000
0.282898 0.817261 0.000000
0.314331 0.817261 0.000000
0.345764 0.817261 0.000000
0.377197 0.817261 0.000000
0.408630 0.817261 0.000000
0.440063 0.817261 0.000000
0.471497 0.817261 0.000000
