assets/LUTs/skintone_warm_brown_rich_33.cube
TITLE "SkinTone Warm Brown Rich"
# Deeper warm brown: stronger hue pull toward red-orange, more saturation and density.
# Skin-tone selective LUT. Apply to display-referred Rec.709/sRGB (SDR) footage.
# Generated 2026-07-10 with Claude Code.
LUT_3D_SIZE 33
DOMAIN_MIN 0.0 0.0 0.0
DOMAIN_MAX 1.0 1.0 1.0
0.000000 0.000000 0.000000
0.029263 0.000000 0.000000
0.058911 0.000000 0.000000
0.088918 0.000000 0.000000
0.119258 0.000000 0.000000
0.149905 0.000000 0.000000
0.180835 0.000000 0.000000
0.212021 0.000000 0.000000
0.243438 0.000000 0.000000
0.275059 0.000000 0.000000
0.306860 0.000000 0.000000
0.338815 0.000000 0.000000
0.370898 0.000000 0.000000
0.403084 0.000000 0.000000
0.435347 0.000000 0.000000
0.467661 0.000000 0.000000
0.500000 0.000000 0.000000
0.532339 0.000000 0.000000
0.564653 0.000000 0.000000
0.596916 0.000000 0.000000
0.629102 0.000000 0.000000
0.661185 0.000000 0.000000
0.693140 0.000000 0.000000
0.724941 0.000000 0.000000
0.756563 0.000000 0.000000
0.787979 0.000000 0.000000
0.819165 0.000000 0.000000
0.850095 0.000000 0.000000
0.880742 0.000000 0.000000
0.911082 0.000000 0.000000
0.941089 0.000000 0.000000
0.970737 0.000000 0.000000
1.000000 0.000000 0.000000
0.000000 0.029263 0.000000
0.029263 0.029263 0.000000
0.058911 0.029456 0.000000
0.088918 0.029639 0.000000
0.119258 0.029814 0.000000
0.149905 0.029981 0.000000
0.180835 0.030139 0.000000
0.212021 0.030289 0.000000
0.243438 0.030430 0.000000
0.275059 0.030562 0.000000
0.306860 0.030686 0.000000
0.338815 0.030801 0.000000
0.370898 0.030908 0.000000
0.403084 0.031006 0.000000
0.435347 0.031096 0.000000
0.467661 0.031177 0.000000
0.500000 0.031250 0.000000
0.532339 0.031314 0.000000
0.564653 0.031370 0.000000
0.596916 0.031417 0.000000
0.629102 0.031455 0.000000
0.661185 0.031485 0.000000
0.693140 0.031506 0.000000
0.724941 0.031519 0.000000
0.756563 0.031523 0.000000
0.787979 0.031519 0.000000
0.819165 0.031506 0.000000
0.850095 0.031485 0.000000
0.880742 0.031455 0.000000
0.911082 0.031417 0.000000
0.941089 0.031370 0.000000
0.970737 0.031314 0.000000
1.000000 0.031250 0.000000
0.000000 0.058911 0.000000
0.029456 0.058911 0.000000
0.058911 0.058911 0.000000
0.088918 0.059279 0.000000
0.119258 0.059629 0.000000
0.149905 0.059962 0.000000
0.180835 0.060278 0.000000
0.212021 0.060577 0.000000
0.243438 0.060859 0.000000
0.275059 0.061124 0.000000
0.306860 0.061372 0.000000
0.338815 0.061603 0.000000
0.370898 0.061816 0.000000
0.403084 0.062013 0.000000
0.435347 0.062192 0.000000
0.467661 0.062355 0.000000
0.500000 0.062500 0.000000
0.532339 0.062628 0.000000
0.564653 0.062739 0.000000
0.596916 0.062833 0.000000
0.629102 0.062910 0.000000
0.661185 0.062970 0.000000
0.693140 0.063013 0.000000
0.724941 0.063038 0.000000
0.756563 0.063047 0.000000
0.787979 0.063038 0.000000
0.819165 0.063013 0.000000
0.850095 0.062970 0.000000
0.880742 0.062910 0.000000
0.911082 0.062833 0.000000
0.941089 0.062739 0.000000
0.970737 0.062628 0.000000
1.000000 0.062500 0.000000
0.000000 0.088918 0.000000
0.029639 0.088918 0.000000
0.059279 0.088918 0.000000
0.088918 0.088918 0.000000
0.119258 0.089443 0.000000
0.149905 0.089943 0.000000
0.180835 0.090417 0.000000
0.212021 0.090866 0.000000
0.243438 0.091289 0.000000
0.275059 0.091686 0.000000
0.306860 0.092058 0.000000
0.338815 0.092404 0.000000
0.370898 0.092725 0.000000
0.403084 0.093019 0.000000
0.435347 0.093289 0.000000
0.467661 0.093532 0.000000
0.500000 0.093750 0.000000
0.532339 0.093942 0.000000
0.564653 0.094109 0.000000
0.596916 0.094250 0.000000
0.629102 0.094365 0.000000
0.661185 0.094455 0.000000
0.693140 0.094519 0.000000
0.724941 0.094557 0.000000
0.756563 0.094570 0.000000
0.787979 0.094557 0.000000
0.819165 0.094519 0.000000
0.850095 0.094455 0.000000
0.880742 0.094365 0.000000
0.911082 0.094250 0.000000
0.941089 0.094109 0.000000
0.970737 0.093942 0.000000
1.000000 0.093750 0.000000
0.000000 0.119258 0.000000
0.029814 0.119258 0.000000
0.059629 0.119258 0.000000
0.089443 0.119258 0.000000
0.119258 0.119258 0.000000
0.149905 0.119924 0.000000
0.180835 0.120557 0.000000
0.212021 0.121155 0.000000
0.243438 0.121719 0.000000
0.275059 0.122249 0.000000
0.306860 0.122744 0.000000
0.338815 0.123206 0.000000
0.370898 0.123633 0.000000
0.403084 0.124026 0.000000
0.435347 0.124385 0.000000
0.467661 0.124709 0.000000
0.500000 0.125000 0.000000
0.532339 0.125256 0.000000
0.564653 0.125479 0.000000
0.596916 0.125667 0.000000
0.629102 0.125820 0.000000
0.661185 0.125940 0.000000
0.693140 0.126025 0.000000
0.724941 0.126077 0.000000
0.756563 0.126094 0.000000
0.787979 0.126077 0.000000
0.819165 0.126025 0.000000
0.850095 0.125940 0.000000
0.880742 0.125820 0.000000
0.911082 0.125667 0.000000
0.941089 0.125479 0.000000
0.970737 0.125256 0.000000
1.000000 0.125000 0.000000
0.000000 0.149905 0.000000
0.029981 0.149905 0.000000
0.059962 0.149905 0.000000
0.089943 0.149905 0.000000
0.119924 0.149905 0.000000
0.149905 0.149905 0.000000
0.180835 0.150696 0.000000
0.212021 0.151443 0.000000
0.243438 0.152148 0.000000
0.275059 0.152811 0.000000
0.306860 0.153430 0.000000
0.338815 0.154007 0.000000
0.370898 0.154541 0.000000
0.403084 0.155032 0.000000
0.435347 0.155481 0.000000
0.467661 0.155887 0.000000
0.500000 0.156250 0.000000
0.532339 0.156570 0.000000
0.564653 0.156848 0.000000
0.596916 0.157083 0.000000
0.629102 0.157275 0.000000
0.661185 0.157425 0.000000
0.693140 0.157532 0.000000
0.724941 0.157596 0.000000
0.756563 0.157617 0.000000
0.787979 0.157596 0.000000
0.819165 0.157532 0.000000
0.850095 0.157425 0.000000
0.880742 0.157275 0.000000
0.911082 0.157083 0.000000
0.941089 0.156848 0.000000
0.970737 0.156570 0.000000
1.000000 0.156250 0.000000
0.000000 0.180835 0.000000
0.030139 0.180835 0.000000
0.060278 0.180835 0.000000
0.090417 0.180835 0.000000
0.120557 0.180835 0.000000
0.150696 0.180835 0.000000
0.180835 0.180835 0.000000
0.212021 0.181732 0.000000
0.243438 0.182578 0.000000
0.275059 0.183373 0.000000
0.306860 0.184116 0.000000
0.338815 0.184808 0.000000
0.370898 0.185449 0.000000
0.403084 0.186039 0.000000
0.435347 0.186577 0.000000
0.467661 0.187064 0.000000
0.500000 0.187500 0.000000
0.532339 0.187885 0.000000
0.564653 0.188218 0.000000
0.596916 0.188500 0.000000
0.629102 0.188730 0.000000
0.661185 0.188910 0.000000
0.693140 0.189038 0.000000
0.724941 0.189115 0.000000
0.756563 0.189141 0.000000
0.787979 0.189115 0.000000
0.819165 0.189038 0.000000
0.850095 0.188910 0.000000
0.880742 0.188730 0.000000
0.911082 0.188500 0.000000
0.941089 0.188218 0.000000
0.970737 0.187885 0.000000
1.000000 0.187500 0.000000
0.000000 0.212021 0.000000
0.030289 0.212021 0.000000
0.060577 0.212021 0.000000
0.090866 0.212021 0.000000
0.121155 0.212021 0.000000
0.151443 0.212021 0.000000
0.181732 0.212021 0.000000
0.212021 0.212021 0.000000
0.243438 0.213008 0.000000
0.275059 0.213935 0.000000
0.306860 0.214802 0.000000
0.338815 0.215610 0.000000
0.370898 0.216357 0.000000
0.403084 0.217045 0.000000
0.435347 0.217673 0.000000
0.467661 0.218242 0.000000
0.500000 0.218750 0.000000
0.532339 0.219199 0.000000
0.564653 0.219587 0.000000
0.596916 0.219916 0.000000
0.629102 0.220186 0.000000
0.661185 0.220395 0.000000
0.693140 0.220544 0.000000
0.724941 0.220634 0.000000
0.756563 0.220664 0.000000
0.787979 0.220634 0.000000
0.819165 0.220544 0.000000
0.850095 0.220395 0.000000
0.880742 0.220186 0.000000
0.911082 0.219916 0.000000
0.941089 0.219587 0.000000
0.970737 0.219199 0.000000
1.000000 0.218750 0.000000
0.000000 0.243438 0.000000
0.030430 0.243438 0.000000
0.060859 0.243438 0.000000
0.091289 0.243438 0.000000
0.121719 0.243438 0.000000
0.152148 0.243438 0.000000
0.182578 0.243438 0.000000
0.213008 0.243438 0.000000
0.243438 0.243438 0.000000
0.275059 0.244497 0.000000
0.306860 0.245488 0.000000
0.338815 0.246411 0.000000
0.370898 0.247266 0.000000
0.403084 0.248052 0.000000
0.435347 0.248770 0.000000
0.467661 0.249419 0.000000
0.500000 0.250000 0.000000
0.532339 0.250513 0.000000
0.564653 0.250957 0.000000
0.596916 0.251333 0.000000
0.629102 0.251641 0.000000
0.661185 0.251880 0.000000
0.693140 0.252051 0.000000
0.724941 0.252153 0.000000
0.756563 0.252188 0.000000
0.787979 0.252153 0.000000
0.819165 0.252051 0.000000
0.850095 0.251880 0.000000
0.880742 0.251641 0.000000
0.911082 0.251333 0.000000
0.941089 0.250957 0.000000
0.970737 0.250513 0.000000
1.000000 0.250000 0.000000
0.000000 0.275059 0.000000
0.030562 0.275059 0.000000
0.061124 0.275059 0.000000
0.091686 0.275059 0.000000
0.122249 0.275059 0.000000
0.152811 0.275059 0.000000
0.183373 0.275059 0.000000
0.213935 0.275059 0.000000
0.244497 0.275059 0.000000
0.275059 0.275059 0.000000
0.306860 0.276174 0.000000
0.338815 0.277213 0.000000
0.370898 0.278174 0.000000
0.403084 0.279058 0.000000
0.435347 0.279866 0.000000
0.467661 0.280596 0.000000
0.500000 0.281250 0.000000
0.532339 0.281827 0.000000
0.564653 0.282327 0.000000
0.596916 0.282750 0.000000
0.629102 0.283096 0.000000
0.661185 0.283365 0.000000
0.693140 0.283557 0.000000
0.724941 0.283672 0.000000
0.756563 0.283711 0.000000
0.787979 0.283672 0.000000
0.819165 0.283557 0.000000
0.850095 0.283365 0.000000
0.880742 0.283096 0.000000
0.911082 0.282750 0.000000
0.941089 0.282327 0.000000
0.970737 0.281827 0.000000
1.000000 0.281250 0.000000
0.000000 0.306860 0.000000
0.030686 0.306860 0.000000
0.061372 0.306860 0.000000
0.092058 0.306860 0.000000
0.122744 0.306860 0.000000
0.153430 0.306860 0.000000
0.184116 0.306860 0.000000
0.214802 0.306860 0.000000
0.245488 0.306860 0.000000
0.276174 0.306860 0.000000
0.306860 0.306860 0.000000
0.338815 0.308014 0.000000
0.370898 0.309082 0.000000
0.403084 0.310065 0.000000
0.435347 0.310962 0.000000
0.467661 0.311774 0.000000
0.500000 0.312500 0.000000
0.532339 0.313141 0.000000
0.564653 0.313696 0.000000
0.596916 0.314166 0.000000
0.629102 0.314551 0.000000
0.661185 0.314850 0.000000
0.693140 0.315063 0.000000
0.724941 0.315192 0.000000
0.756563 0.315234 0.000000
0.787979 0.315192 0.000000
0.819165 0.315063 0.000000
0.850095 0.314850 0.000000
0.880742 0.314551 0.000000
0.911082 0.314166 0.000000
0.941089 0.313696 0.000000
0.970737 0.313141 0.000000
1.000000 0.312500 0.000000
0.000000 0.338815 0.000000
0.030801 0.338815 0.000000
0.061603 0.338815 0.000000
0.092404 0.338815 0.000000
0.123206 0.338815 0.000000
0.154007 0.338815 0.000000
0.184808 0.338815 0.000000
0.215610 0.338815 0.000000
0.246411 0.338815 0.000000
0.277213 0.338815 0.000000
0.308014 0.338815 0.000000
0.338815 0.338815 0.000000
0.370898 0.339990 0.000000
0.403084 0.341071 0.000000
0.435347 0.342058 0.000000
0.467661 0.342951 0.000000
0.500000 0.343750 0.000000
0.532339 0.344455 0.000000
0.564653 0.345066 0.000000
0.596916 0.345583 0.000000
0.629102 0.346006 0.000000
0.661185 0.346335 0.000000
0.693140 0.346570 0.000000
0.724941 0.346711 0.000000
0.756563 0.346758 0.000000
0.787979 0.346711 0.000000
0.819165 0.346570 0.000000
0.850095 0.346335 0.000000
0.880742 0.346006 0.000000
0.911082 0.345583 0.000000
0.941089 0.345066 0.000000
0.970737 0.344455 0.000000
1.000000 0.343750 0.000000
0.000000 0.370898 0.000000
0.030908 0.370898 0.000000
0.061816 0.370898 0.000000
0.092725 0.370898 0.000000
0.123633 0.370898 0.000000
0.154541 0.370898 0.000000
0.185449 0.370898 0.000000
0.216357 0.370898 0.000000
0.247266 0.370898 0.000000
0.278174 0.370898 0.000000
0.309082 0.370898 0.000000
0.339990 0.370898 0.000000
0.370898 0.370898 0.000000
0.403084 0.372078 0.000000
0.435347 0.373154 0.000000
0.467661 0.374128 0.000000
0.500000 0.375000 0.000000
0.532339 0.375769 0.000000
0.564653 0.376436 0.000000
0.596916 0.377000 0.000000
0.629102 0.377461 0.000000
0.661185 0.377820 0.000000
0.693140 0.378076 0.000000
0.724941 0.378230 0.000000
0.756563 0.378281 0.000000
0.787979 0.378230 0.000000
0.819165 0.378076 0.000000
0.850095 0.377820 0.000000
0.880742 0.377461 0.000000
0.911082 0.377000 0.000000
0.941089 0.376436 0.000000
0.970737 0.375769 0.000000
1.000000 0.375000 0.000000
0.000000 0.403084 0.000000
0.031006 0.403084 0.000000
0.062013 0.403084 0.000000
0.093019 0.403084 0.000000
0.124026 0.403084 0.000000
0.155032 0.403084 0.000000
0.186039 0.403084 0.000000
0.217045 0.403084 0.000000
0.248052 0.403084 0.000000
0.279058 0.403084 0.000000
0.310065 0.403084 0.000000
0.341071 0.403084 0.000000
0.372078 0.403084 0.000000
0.403084 0.403084 0.000000
0.435347 0.404250 0.000000
0.467661 0.405306 0.000000
0.500000 0.406250 0.000000
0.532339 0.407083 0.000000
0.564653 0.407805 0.000000
0.596916 0.408416 0.000000
0.629102 0.408916 0.000000
0.661185 0.409305 0.000000
0.693140 0.409583 0.000000
0.724941 0.409749 0.000000
0.756563 0.409805 0.000000
0.787979 0.409749 0.000000
0.819165 0.409583 0.000000
0.850095 0.409305 0.000000
0.880742 0.408916 0.000000
0.911082 0.408416 0.000000
0.941089 0.407805 0.000000
0.970737 0.407083 0.000000
1.000000 0.406250 0.000000
0.000000 0.435347 0.000000
0.031096 0.435347 0.000000
0.062192 0.435347 0.000000
0.093289 0.435347 0.000000
0.124385 0.435347 0.000000
0.155481 0.435347 0.000000
0.186577 0.435347 0.000000
0.217673 0.435347 0.000000
0.248770 0.435347 0.000000
0.279866 0.435347 0.000000
0.310962 0.435347 0.000000
0.342058 0.435347 0.000000
0.373154 0.435347 0.000000
0.404250 0.435347 0.000000
0.435347 0.435347 0.000000
0.467661 0.436483 0.000000
0.500000 0.437500 0.000000
0.532339 0.438397 0.000000
0.564653 0.439175 0.000000
0.596916 0.439833 0.000000
0.629102 0.440371 0.000000
0.661185 0.440790 0.000000
0.693140 0.441089 0.000000
0.724941 0.441268 0.000000
0.756563 0.441328 0.000000
0.787979 0.441268 0.000000
0.819165 0.441089 0.000000
0.850095 0.440790 0.000000
0.880742 0.440371 0.000000
0.911082 0.439833 0.000000
0.941089 0.439175 0.000000
0.970737 0.438397 0.000000
1.000000 0.437500 0.000000
0.000000 0.467661 0.000000
0.031177 0.467661 0.000000
0.062355 0.467661 0.000000
0.093532 0.467661 0.000000
0.124709 0.467661 0.000000
0.155887 0.467661 0.000000
0.187064 0.467661 0.000000
0.218242 0.467661 0.000000
0.249419 0.467661 0.000000
0.280596 0.467661 0.000000
0.311774 0.467661 0.000000
0.342951 0.467661 0.000000
0.374128 0.467661 0.000000
0.405306 0.467661 0.000000
0.436483 0.467661 0.000000
0.467661 0.467661 0.000000
0.500000 0.468750 0.000000
0.532339 0.469711 0.000000
0.564653 0.470544 0.000000
0.596916 0.471249 0.000000
0.629102 0.471826 0.000000
0.661185 0.472275 0.000000
0.693140 0.472595 0.000000
0.724941 0.472787 0.000000
0.756563 0.472852 0.000000
0.787979 0.472787 0.000000
0.819165 0.472595 0.000000
0.850095 0.472275 0.000000
0.880742 0.471826 0.000000
0.911082 0.471249 0.000000
0.941089 0.470544 0.000000
0.970737 0.469711 0.000000
1.000000 0.468750 0.000000
0.000000 0.500000 0.000000
0.031250 0.500000 0.000000
0.062500 0.500000 0.000000
0.093750 0.500000 0.000000
0.125000 0.500000 0.000000
0.156250 0.500000 0.000000
0.187500 0.500000 0.000000
0.218750 0.500000 0.000000
0.250000 0.500000 0.000000
0.281250 0.500000 0.000000
0.312500 0.500000 0.000000
0.343750 0.500000 0.000000
0.375000 0.500000 0.000000
0.406250 0.500000 0.000000
0.437500 0.500000 0.000000
0.468750 0.500000 0.000000
0.500000 0.500000 0.000000
0.532339 0.501025 0.000000
0.564653 0.501914 0.000000
0.596916 0.502666 0.000000
0.629102 0.503281 0.000000
0.661185 0.503760 0.000000
0.693140 0.504102 0.000000
0.724941 0.504307 0.000000
0.756563 0.504375 0.000000
0.787979 0.504307 0.000000
0.819165 0.504102 0.000000
0.850095 0.503760 0.000000
0.880742 0.503281 0.000000
0.911082 0.502666 0.000000
0.941089 0.501914 0.000000
0.970737 0.501025 0.000000
1.000000 0.500000 0.000000
0.000000 0.532339 0.000000
0.031314 0.532339 0.000000
0.062628 0.532339 0.000000
0.093942 0.532339 0.000000
0.125256 0.532339 0.000000
0.156570 0.532339 0.000000
0.187885 0.532339 0.000000
0.219199 0.532339 0.000000
0.250513 0.532339 0.000000
0.281827 0.532339 0.000000
0.313141 0.532339 0.000000
0.344455 0.532339 0.000000
0.375769 0.532339 0.000000
0.407083 0.532339 0.000000
0.438397 0.532339 0.000000
0.469711 0.532339 0.000000
0.501025 0.532339 0.000000
0.532339 0.532339 0.000000
0.564653 0.533284 0.000000
0.596916 0.534083 0.000000
0.629102 0.534736 0.000000
0.661185 0.535245 0.000000
0.693140 0.535608 0.000000
0.724941 0.535826 0.000000
0.756563 0.535898 0.000000
0.787979 0.535826 0.000000
0.819165 0.535608 0.000000
0.850095 0.535245 0.000000
0.880742 0.534736 0.000000
0.911082 0.534083 0.000000
0.941089 0.533284 0.000000
0.970737 0.532339 0.000000
1.000000 0.531250 0.000000
0.000000 0.564653 0.000000
0.031370 0.564653 0.000000
0.062739 0.564653 0.000000
0.094109 0.564653 0.000000
0.125479 0.564653 0.000000
0.156848 0.564653 0.000000
0.188218 0.564653 0.000000
0.219587 0.564653 0.000000
0.250957 0.564653 0.000000
0.282327 0.564653 0.000000
0.313696 0.564653 0.000000
0.345066 0.564653 0.000000
0.376436 0.564653 0.000000
0.407805 0.564653 0.000000
0.439175 0.564653 0.000000
0.470544 0.564653 0.000000
0.501914 0.564653 0.000000
0.533284 0.564653 0.000000
0.564653 0.564653 0.000000
0.596916 0.565499 0.000000
0.629102 0.566191 0.000000
0.661185 0.566730 0.000000
0.693140 0.567114 0.000000
0.724941 0.567345 0.000000
0.756563 0.567422 0.000000
0.787979 0.567345 0.000000
0.819165 0.567114 0.000000
0.850095 0.566730 0.000000
0.880742 0.566191 0.000000
0.911082 0.565499 0.000000
0.941089 0.564653 0.000000
0.970737 0.563654 0.000000
1.000000 0.562500 0.000000
0.000000 0.596916 0.000000
0.031417 0.596916 0.000000
0.062833 0.596916 0.000000
0.094250 0.596916 0.000000
0.125667 0.596916 0.000000
0.157083 0.596916 0.000000
0.188500 0.596916 0.000000
0.219916 0.596916 0.000000
0.251333 0.596916 0.000000
0.282750 0.596916 0.000000
0.314166 0.596916 0.000000
0.345583 0.596916 0.000000
0.377000 0.596916 0.000000
0.408416 0.596916 0.000000
0.439833 0.596916 0.000000
0.471249 0.596916 0.000000
0.502666 0.596916 0.000000
0.534083 0.596916 0.000000
0.565499 0.596916 0.000000
0.596916 0.596916 0.000000
0.629102 0.597646 0.000000
0.661185 0.598215 0.000000
0.693140 0.598621 0.000000
0.724941 0.598864 0.000000
0.756563 0.598945 0.000000
0.787979 0.598864 0.000000
0.819165 0.598621 0.000000
0.850095 0.598215 0.000000
0.880742 0.597646 0.000000
0.911082 0.596916 0.000000
0.941089 0.596023 0.000000
0.970737 0.594968 0.000000
1.000000 0.593750 0.000000
0.000000 0.629102 0.000000
0.031455 0.629102 0.000000
0.062910 0.629102 0.000000
0.094365 0.629102 0.000000
0.125820 0.629102 0.000000
0.157275 0.629102 0.000000
0.188730 0.629102 0.000000
0.220186 0.629102 0.000000
0.251641 0.629102 0.000000
0.283096 0.629102 0.000000
0.314551 0.629102 0.000000
0.346006 0.629102 0.000000
0.377461 0.629102 0.000000
0.408916 0.629102 0.000000
0.440371 0.629102 0.000000
0.471826 0.629102 0.000000
0.503281 0.629102 0.000000
0.534736 0.629102 0.000000
0.566191 0.629102 0.000000
0.597646 0.629102 0.000000
0.629102 0.629102 0.000000
0.661185 0.629700 0.000000
0.693140 0.630127 0.000000
0.724941 0.630383 0.000000
0.756563 0.630469 0.000000
0.787979 0.630383 0.000000
0.819165 0.630127 0.000000
0.850095 0.629700 0.000000
0.880742 0.629102 0.000000
0.911082 0.628333 0.000000
0.941089 0.627393 0.000000
0.970737 0.626282 0.000000
1.000000 0.625000 0.000000
0.000000 0.661185 0.000000
0.031485 0.661185 0.000000
0.062970 0.661185 0.000000
0.094455 0.661185 0.000000
0.125940 0.661185 0.000000
0.157425 0.661185 0.000000
0.188910 0.661185 0.000000
0.220395 0.661185 0.000000
0.251880 0.661185 0.000000
0.283365 0.661185 0.000000
0.314850 0.661185 0.000000
0.346335 0.661185 0.000000
0.377820 0.661185 0.000000
0.409305 0.661185 0.000000
0.440790 0.661185 0.000000
0.472275 0.661185 0.000000
0.503760 0.661185 0.000000
0.535245 0.661185 0.000000
0.566730 0.661185 0.000000
0.598215 0.661185 0.000000
0.629700 0.661185 0.000000
0.661185 0.661185 0.000000
0.693140 0.661633 0.000000
0.724941 0.661902 0.000000
0.756563 0.661992 0.000000
0.787979 0.661902 0.000000
0.819165 0.661633 0.000000
0.850095 0.661185 0.000000
0.880742 0.660557 0.000000
0.911082 0.659749 0.000000
0.941089 0.658762 0.000000
0.970737 0.657596 0.000000
1.000000 0.656250 0.000000
0.000000 0.693140 0.000000
0.031506 0.693140 0.000000
0.063013 0.693140 0.000000
0.094519 0.693140 0.000000
0.126025 0.693140 0.000000
0.157532 0.693140 0.000000
0.189038 0.693140 0.000000
0.220544 0.693140 0.000000
0.252051 0.693140 0.000000
0.283557 0.693140 0.000000
0.315063 0.693140 0.000000
0.346570 0.693140 0.000000
0.378076 0.693140 0.000000
0.409583 0.693140 0.000000
0.441089 0.693140 0.000000
0.472595 0.693140 0.000000
0.504102 0.693140 0.000000
0.535608 0.693140 0.000000
0.567114 0.693140 0.000000
0.598621 0.693140 0.000000
0.630127 0.693140 0.000000
0.661633 0.693140 0.000000
0.693140 0.693140 0.000000
0.724941 0.693422 0.000000
0.756563 0.693516 0.000000
0.787979 0.693422 0.000000
0.819165 0.693140 0.000000
0.850095 0.692670 0.000000
0.880742 0.692012 0.000000
0.911082 0.691166 0.000000
0.941089 0.690132 0.000000
0.970737 0.688910 0.000000
1.000000 0.687500 0.000000
0.000000 0.724941 0.000000
0.031519 0.724941 0.000000
0.063038 0.724941 0.000000
0.094557 0.724941 0.000000
0.126077 0.724941 0.000000
0.157596 0.724941 0.000000
0.189115 0.724941 0.000000
0.220634 0.724941 0.000000
0.252153 0.724941 0.000000
0.283672 0.724941 0.000000
0.315192 0.724941 0.000000
0.346711 0.724941 0.000000
0.378230 0.724941 0.000000
0.409749 0.724941 0.000000
0.441268 0.724941 0.000000
0.472787 0.724941 0.000000
0.504307 0.724941 0.000000
0.535826 0.724941 0.000000
0.567345 0.724941 0.000000
0.598864 0.724941 0.000000
0.630383 0.724941 0.000000
0.661902 0.724941 0.000000
0.693422 0.724941 0.000000
0.724941 0.724941 0.000000
0.756563 0.725039 0.000000
0.787979 0.724941 0.000000
0.819165 0.724646 0.000000
0.850095 0.724155 0.000000
0.880742 0.723467 0.000000
0.911082 0.722582 0.000000
0.941089 0.721501 0.000000
0.970737 0.720224 0.000000
1.000000 0.718750 0.000000
0.000000 0.756563 0.000000
0.031523 0.756563 0.000000
0.063047 0.756563 0.000000
0.094570 0.756563 0.000000
0.126094 0.756563 0.000000
0.157617 0.756563 0.000000
0.189141 0.756563 0.000000
0.220664 0.756563 0.000000
0.252188 0.756563 0.000000
0.283711 0.756563 0.000000
0.315234 0.756563 0.000000
0.346758 0.756563 0.000000
0.378281 0.756563 0.000000
0.409805 0.756563 0.000000
0.441328 0.756563 0.000000
0.472852 0.756563 0.000000
0.504375 0.756563 0.000000
0.535898 0.756563 0.000000
0.567422 0.756563 0.000000
0.598945 0.756563 0.000000
0.630469 0.756563 0.000000
0.661992 0.756563 0.000000
0.693516 0.756563 0.000000
0.725039 0.756563 0.000000
0.756563 0.756563 0.000000
0.787979 0.756460 0.000000
0.819165 0.756152 0.000000
0.850095 0.755640 0.000000
0.880742 0.754922 0.000000
0.911082 0.753999 0.000000
0.941089 0.752871 0.000000
0.970737 0.751538 0.000000
1.000000 0.750000 0.000000
0.000000 0.787979 0.000000
0.031519 0.787979 0.000000
0.063038 0.787979 0.000000
0.094557 0.787979 0.000000
0.126077 0.787979 0.000000
0.157596 0.787979 0.000000
0.189115 0.787979 0.000000
0.220634 0.787979 0.000000
0.252153 0.787979 0.000000
0.283672 0.787979 0.000000
0.315192 0.787979 0.000000
0.346711 0.787979 0.000000
0.378230 0.787979 0.000000
0.409749 0.787979 0.000000
0.441268 0.787979 0.000000
0.472787 0.787979 0.000000
0.504307 0.787979 0.000000
0.535826 0.787979 0.000000
0.567345 0.787979 0.000000
0.598864 0.787979 0.000000
0.630383 0.787979 0.000000
0.661902 0.787979 0.000000
0.693422 0.787979 0.000000
0.724941 0.787979 0.000000
0.756460 0.787979 0.000000
0.787979 0.787979 0.000000
0.819165 0.787659 0.000000
0.850095 0.787125 0.000000
0.880742 0.786377 0.000000
0.911082 0.785416 0.000000
0.941089 0.784241 0.000000
0.970737 0.782852 0.000000
1.000000 0.781250 0.000000
0.000000 0.819165 0.000000
0.031506 0.819165 0.000000
0.063013 0.819165 0.000000
0.094519 0.819165 0.000000
0.126025 0.819165 0.000000
0.157532 0.819165 0.000000
0.189038 0.819165 0.000000
0.220544 0.819165 0.000000
0.252051 0.819165 0.000000
0.283557 0.819165 0.000000
0.315063 0.819165 0.000000
0.346570 0.819165 0.000000
0.378076 0.819165 0.000000
0.409583 0.819165 0.000000
0.441089 0.819165 0.000000
0.472595 0.819165 0.000000
0.504102 0.819165 0.000000
0.535608 0.819165 0.000000
0.567114 0.819165 0.000000
