assets/LUTs/skintone_bronze_maximum_33.cube
TITLE "SkinTone Bronze Maximum"
# Maximum bronze: near-total hue convergence to red-orange, big saturation and density. Bodybuilder-stage tan.
# Skin-tone selective LUT. Apply to display-referred Rec.709/sRGB (SDR) footage.
# Generated 2026-07-10 with Claude Code.
LUT_3D_SIZE 5
DOMAIN_MIN 0.0 0.0 0.0
DOMAIN_MAX 1.0 1.0 1.0
0.000000 0.000000 0.000000
0.237813 0.000000 0.000000
0.500000 0.000000 0.000000
0.762188 0.000000 0.000000
1.000000 0.000000 0.000000
0.000000 0.237813 0.000000
0.237813 0.237813 0.000000
0.500000 0.250000 0.000000
0.762188 0.254063 0.000000
1.000000 0.250000 0.000000
0.000000 0.500000 0.000000
0.250000 0.500000 0.000000
0.500000 0.500000 0.000000
0.762188 0.508125 0.000000
1.000000 0.500000 0.000000
0.000000 0.762188 0.000000
0.254063 0.762188 0.000000
0.508125 0.762188 0.000000
0.762188 0.762188 0.000000
1.000000 0.750000 0.000000
0.000000 1.000000 0.000000
0.250000 1.000000 0.000000
0.500000 1.000000 0.000000
0.750000 1.000000 0.000000
1.000000 1.000000 0.000000
0.000000 0.000000 0.237813
0.237813 0.000000 0.237813
0.500000 0.000000 0.250000
0.762188 0.000000 0.254062
1.000000 0.000000 0.250000
0.000000 0.237813 0.237813
0.237813 0.237813 0.237813
0.372321 0.194311 0.137756
0.679637 0.275435 0.148867
1.000000 0.250000 0.250000
0.000000 0.500000 0.250000
0.250000 0.500000 0.250000
0.370412 0.236367 0.136213
0.675101 0.319869 0.143426
1.000000 0.500000 0.250000
0.000000 0.762188 0.254063
0.254063 0.762188 0.254063
0.508125 0.762188 0.254063
0.678266 0.377651 0.147219
1.000000 0.750000 0.250000
0.000000 1.000000 0.250000
0.250000 1.000000 0.250000
0.500000 1.000000 0.250000
0.750000 1.000000 0.250000
1.000000 1.000000 0.250000
0.000000 0.000000 0.500000
0.250000 0.000000 0.500000
0.500000 0.000000 0.500000
0.762188 0.000000 0.508125
1.000000 0.000000 0.500000
0.000000 0.250000 0.500000
0.250000 0.250000 0.500000
0.500000 0.250000 0.500000
0.762188 0.254063 0.508125
1.000000 0.250000 0.500000
0.000000 0.500000 0.500000
0.250000 0.500000 0.500000
0.500000 0.500000 0.500000
0.678763 0.447532 0.374070
1.000000 0.500000 0.500000
0.000000 0.762188 0.508125
0.254063 0.762188 0.508125
0.508125 0.762188 0.508125
0.677379 0.502563 0.371946
1.000000 0.750000 0.500000
0.000000 1.000000 0.500000
0.250000 1.000000 0.500000
0.500000 1.000000 0.500000
0.750000 1.000000 0.500000
1.000000 1.000000 0.500000
0.000000 0.000000 0.762188
0.254062 0.000000 0.762188
0.508125 0.000000 0.762188
0.762188 0.000000 0.762188
1.000000 0.000000 0.750000
0.000000 0.254062 0.762188
0.254063 0.254063 0.762188
0.508125 0.254063 0.762188
0.762188 0.254063 0.762188
1.000000 0.250000 0.750000
0.000000 0.508125 0.762188
0.254063 0.508125 0.762188
0.508125 0.508125 0.762188
0.762188 0.508125 0.762188
1.000000 0.500000 0.750000
0.000000 0.762188 0.762188
0.254063 0.762188 0.762188
0.508125 0.762188 0.762188
0.762188 0.762188 0.762188
1.000000 0.750000 0.750000
0.000000 1.000000 0.750000
0.250000 1.000000 0.750000
0.500000 1.000000 0.750000
0.750000 1.000000 0.750000
1.000000 1.000000 0.750000
0.000000 0.000000 1.000000
0.250000 0.000000 1.000000
0.500000 0.000000 1.000000
0.750000 0.000000 1.000000
1.000000 0.000000 1.000000
0.000000 0.250000 1.000000
0.250000 0.250000 1.000000
0.500000 0.250000 1.000000
0.750000 0.250000 1.000000
1.000000 0.250000 1.000000
0.000000 0.500000 1.000000
0.250000 0.500000 1.000000
0.500000 0.500000 1.000000
0.750000 0.500000 1.000000
1.000000 0.500000 1.000000
0.000000 0.750000 1.000000
0.250000 0.750000 1.000000
0.500000 0.750000 1.000000
0.750000 0.750000 1.000000
1.000000 0.750000 1.000000
0.000000 1.000000 1.000000
0.250000 1.000000 1.000000
0.500000 1.000000 1.000000
0.750000 1.000000 1.000000
1.000000 1.000000 1.000000
