assets/LUTs/skintone_espresso_deep_33.cube
TITLE "SkinTone Espresso Deep"
# Deepest of the set: rich espresso-brown skin, heavy density, hue pulled hard to red-brown. Moody and dark.
# Skin-tone selective LUT. Apply to display-referred Rec.709/sRGB (SDR) footage.
# Generated 2026-07-10 with Claude Code.
LUT_3D_SIZE 5
DOMAIN_MIN 0.0 0.0 0.0
DOMAIN_MAX 1.0 1.0 1.0
0.000000 0.000000 0.000000
0.241563 0.000000 0.000000
0.500000 0.000000 0.000000
0.758437 0.000000 0.000000
1.000000 0.000000 0.000000
0.000000 0.241563 0.000000
0.241563 0.241563 0.000000
0.500000 0.250000 0.000000
0.758437 0.252813 0.000000
1.000000 0.250000 0.000000
0.000000 0.500000 0.000000
0.250000 0.500000 0.000000
0.500000 0.500000 0.000000
0.758437 0.505625 0.000000
1.000000 0.500000 0.000000
0.000000 0.758437 0.000000
0.252813 0.758437 0.000000
0.505625 0.758437 0.000000
0.758437 0.758437 0.000000
1.000000 0.750000 0.000000
0.000000 1.000000 0.000000
0.250000 1.000000 0.000000
0.500000 1.000000 0.000000
0.750000 1.000000 0.000000
1.000000 1.000000 0.000000
0.000000 0.000000 0.241563
0.241563 0.000000 0.241563
0.500000 0.000000 0.250000
0.758437 0.000000 0.252812
1.000000 0.000000 0.250000
0.000000 0.241563 0.241563
0.241563 0.241563 0.241563
0.330897 0.173690 0.134162
0.643949 0.257068 0.161122
1.000000 0.250000 0.250000
0.000000 0.500000 0.250000
0.250000 0.500000 0.250000
0.336880 0.240175 0.137969
0.637831 0.319830 0.156536
1.000000 0.500000 0.250000
0.000000 0.758437 0.252813
0.252813 0.758437 0.252813
0.505625 0.758437 0.252813
0.648585 0.415873 0.164620
1.000000 0.750000 0.250000
0.000000 1.000000 0.250000
0.250000 1.000000 0.250000
0.500000 1.000000 0.250000
0.750000 1.000000 0.250000
1.000000 1.000000 0.250000
0.000000 0.000000 0.500000
0.250000 0.000000 0.500000
0.500000 0.000000 0.500000
0.758437 0.000000 0.505625
1.000000 0.000000 0.500000
0.000000 0.250000 0.500000
0.250000 0.250000 0.500000
0.500000 0.250000 0.500000
0.758437 0.252813 0.505625
1.000000 0.250000 0.500000
0.000000 0.500000 0.500000
0.250000 0.500000 0.500000
0.500000 0.500000 0.500000
0.642769 0.428372 0.374464
1.000000 0.500000 0.500000
0.000000 0.758437 0.505625
0.252813 0.758437 0.505625
0.505625 0.758437 0.505625
0.647449 0.517148 0.379436
1.000000 0.750000 0.500000
0.000000 1.000000 0.500000
0.250000 1.000000 0.500000
0.500000 1.000000 0.500000
0.750000 1.000000 0.500000
1.000000 1.000000 0.500000
0.000000 0.000000 0.758437
0.252812 0.000000 0.758437
0.505625 0.000000 0.758437
0.758437 0.000000 0.758437
1.000000 0.000000 0.750000
0.000000 0.252812 0.758437
0.252813 0.252813 0.758437
0.505625 0.252813 0.758437
0.758437 0.252813 0.758437
1.000000 0.250000 0.750000
0.000000 0.505625 0.758437
0.252813 0.505625 0.758437
0.505625 0.505625 0.758437
0.758437 0.505625 0.758437
1.000000 0.500000 0.750000
0.000000 0.758437 0.758437
0.252813 0.758437 0.758437
0.505625 0.758437 0.758437
0.758437 0.758437 0.758437
1.000000 0.750000 0.750000
0.000000 1.000000 0.750000
0.250000 1.000000 0.750000
0.500000 1.000000 0.750000
0.750000 1.000000 0.750000
1.000000 1.000000 0.750000
0.000000 0.000000 1.000000
0.250000 0.000000 1.000000
0.500000 0.000000 1.000000
0.750000 0.000000 1.000000
1.000000 0.000000 1.000000
0.000000 0.250000 1.000000
0.250000 0.250000 1.000000
0.500000 0.250000 1.000000
0.750000 0.250000 1.000000
1.000000 0.250000 1.000000
0.000000 0.500000 1.000000
0.250000 0.500000 1.000000
0.500000 0.500000 1.000000
0.750000 0.500000 1.000000
1.000000 0.500000 1.000000
0.000000 0.750000 1.000000
0.250000 0.750000 1.000000
0.500000 0.750000 1.000000
0.750000 0.750000 1.000000
1.000000 0.750000 1.000000
0.000000 1.000000 1.000000
0.250000 1.000000 1.000000
0.500000 1.000000 1.000000
0.750000 1.000000 1.000000
1.000000 1.000000 1.000000
