assets/LUTs/skintone_bronze_oiled_33.cube
TITLE "Skintone Bronze Oiled"
# Aggressive de-yellow -> deep bronze / tan / oiled skin look
# Target: Rec.709 SDR footage after exposure/WB correction
# Strong look LUT - mix down (50-80%) if it lands too heavy
LUT_3D_SIZE 33
DOMAIN_MIN 0.0 0.0 0.0
DOMAIN_MAX 1.0 1.0 1.0
0.003000 0.002963 0.002962
0.003000 0.000059 0.000000
0.003000 0.000059 0.000000
0.013259 0.000263 0.000000
0.035028 0.000694 0.000000
0.058391 0.001158 0.000000
0.087073 0.001726 0.000000
0.115227 0.002284 0.000000
0.144533 0.002865 0.000000
0.174886 0.003467 0.000000
0.206199 0.004088 0.000000
0.238403 0.004726 0.000000
0.271439 0.005381 0.000000
0.305255 0.006052 0.000000
0.339808 0.006737 0.000000
0.375059 0.007436 0.000000
0.410975 0.008148 0.000000
0.447526 0.008872 0.000000
0.484683 0.009609 0.000000
0.522424 0.010357 0.000000
0.560725 0.011116 0.000000
0.599566 0.011886 0.000000
0.638929 0.012667 0.000000
0.678796 0.013457 0.000000
0.719151 0.014257 0.000000
0.759987 0.015104 0.000038
0.804333 0.039684 0.024218
0.850496 0.100732 0.085567
0.893883 0.183814 0.169452
0.932224 0.269771 0.256372
0.965847 0.336255 0.323521
0.997812 0.362092 0.349234
1.000000 0.362886 0.350000
0.000000 0.003000 0.000000
0.003000 0.001417 0.000000
0.003000 0.001300 0.000000
0.013259 0.004420 0.000000
0.035028 0.009378 0.000000
0.058391 0.013095 0.000000
0.087073 0.016844 0.000000
0.115227 0.019652 0.000000
0.144533 0.022100 0.000000
0.174886 0.024294 0.000000
0.206199 0.026301 0.000000
0.238403 0.028168 0.000000
0.271439 0.029926 0.000000
0.305255 0.031598 0.000000
0.339808 0.033202 0.000000
0.375059 0.034750 0.000000
0.410975 0.036251 0.000000
0.447526 0.037715 0.000000
0.484683 0.039146 0.000000
0.522424 0.040550 0.000000
0.560725 0.041932 0.000000
0.599566 0.043293 0.000000
0.638929 0.044638 0.000000
0.678796 0.045968 0.000000
0.719151 0.047286 0.000000
0.759987 0.048630 0.000038
0.804333 0.072792 0.024218
0.850496 0.132007 0.085567
0.893883 0.212388 0.169452
0.932224 0.295520 0.256372
0.965847 0.359919 0.323521
0.997812 0.385224 0.349234
1.000000 0.385351 0.350000
0.000000 0.003000 0.000000
0.003000 0.002882 0.000000
0.003000 0.001417 0.000000
0.013259 0.006399 0.000000
0.035028 0.015178 0.000000
0.058391 0.022253 0.000000
0.087073 0.029024 0.000000
0.115227 0.034200 0.000000
0.144533 0.038693 0.000000
0.174886 0.042668 0.000000
0.206199 0.046242 0.000000
0.238403 0.049501 0.000000
0.271439 0.052510 0.000000
0.305255 0.055316 0.000000
0.339808 0.057956 0.000000
0.375059 0.060457 0.000000
0.410975 0.062841 0.000000
0.447526 0.065127 0.000000
0.484683 0.067328 0.000000
0.522424 0.069456 0.000000
0.560725 0.071521 0.000000
0.599566 0.073530 0.000000
0.638929 0.075490 0.000000
0.678796 0.077407 0.000000
0.719151 0.079285 0.000000
0.759987 0.081164 0.000038
0.804333 0.104971 0.024218
0.850496 0.162448 0.085567
0.893883 0.240234 0.169452
0.932224 0.320642 0.256372
0.965847 0.383033 0.323521
0.997812 0.407840 0.349234
1.000000 0.407335 0.350000
0.000000 0.013259 0.000000
0.008458 0.013259 0.000000
0.013259 0.008408 0.000000
0.013259 0.006261 0.000000
0.035028 0.017130 0.000000
0.058391 0.027375 0.000000
0.087073 0.037730 0.000000
0.115227 0.045828 0.000000
0.144533 0.052546 0.000000
0.174886 0.058295 0.000000
0.206199 0.063513 0.000000
0.238403 0.068280 0.000000
0.271439 0.072667 0.000000
0.305255 0.076736 0.000000
0.339808 0.080537 0.000000
0.375059 0.084109 0.000000
0.410975 0.087487 0.000000
0.447526 0.090697 0.000000
0.484683 0.093762 0.000000
0.522424 0.096701 0.000000
0.560725 0.099529 0.000000
0.599566 0.102258 0.000000
0.638929 0.104901 0.000000
0.678796 0.107467 0.000000
0.719151 0.109964 0.000000
0.759987 0.112432 0.000038
0.804333 0.135964 0.024218
0.850496 0.191825 0.085567
0.893883 0.267156 0.169452
0.932224 0.344971 0.256372
0.965847 0.405450 0.323521
0.997812 0.429805 0.349234
1.000000 0.428714 0.350000
0.000000 0.035028 0.000000
0.015664 0.035028 0.000000
0.035028 0.033647 0.000000
0.035028 0.019211 0.000000
0.035028 0.016539 0.000000
0.058391 0.028497 0.000000
0.087073 0.042023 0.000000
0.115227 0.053056 0.000000
0.144533 0.062629 0.000000
0.174886 0.071066 0.000000
0.206199 0.078584 0.000000
0.238403 0.084740 0.000000
0.271439 0.090480 0.000000
0.305255 0.095838 0.000000
0.339808 0.100856 0.000000
0.375059 0.105572 0.000000
0.410975 0.110023 0.000000
0.447526 0.114240 0.000000
0.484683 0.118250 0.000000
0.522424 0.122079 0.000000
0.560725 0.125746 0.000000
0.599566 0.129270 0.000000
0.638929 0.132665 0.000000
0.678796 0.135944 0.000000
0.719151 0.139121 0.000000
0.759987 0.142235 0.000038
0.804333 0.165585 0.024218
0.850496 0.219969 0.085567
0.893883 0.293007 0.169452
0.932224 0.368379 0.256372
0.965847 0.427059 0.323521
0.997812 0.451014 0.349234
1.000000 0.449390 0.350000
0.000000 0.058391 0.000000
0.019659 0.058391 0.000000
0.046062 0.058391 0.000000
0.058391 0.043101 0.000000
0.058391 0.030088 0.000000
0.058391 0.027570 0.000000
0.087073 0.042310 0.000000
0.115227 0.056191 0.000000
0.144533 0.068644 0.000000
0.174886 0.079603 0.000000
0.206199 0.089350 0.000000
0.238403 0.098135 0.000000
0.271439 0.106123 0.000000
0.305255 0.113050 0.000000
0.339808 0.119195 0.000000
0.375059 0.125020 0.000000
0.410975 0.130544 0.000000
0.447526 0.135792 0.000000
0.484683 0.140787 0.000000
0.522424 0.145553 0.000000
0.560725 0.150112 0.000000
0.599566 0.154485 0.000000
0.638929 0.158687 0.000000
0.678796 0.162737 0.000000
0.719151 0.166647 0.000000
0.759987 0.170462 0.000038
0.804333 0.193721 0.024218
0.850496 0.246774 0.085567
0.893883 0.317686 0.169452
0.932224 0.390777 0.256372
0.965847 0.447779 0.323521
0.997812 0.471391 0.349234
1.000000 0.469291 0.350000
0.000000 0.087073 0.000000
0.023214 0.087073 0.000000
0.055541 0.087073 0.000000
0.087073 0.083639 0.000000
0.087073 0.055214 0.000000
0.087073 0.043464 0.000000
0.087073 0.041113 0.000000
0.115227 0.055759 0.000000
0.144533 0.070681 0.000000
0.174886 0.084403 0.000000
0.206199 0.096671 0.000000
0.238403 0.107660 0.000000
0.271439 0.117619 0.000000
0.305255 0.126739 0.000000
0.339808 0.135148 0.000000
0.375059 0.142938 0.000000
0.410975 0.149411 0.000000
0.447526 0.155617 0.000000
0.484683 0.161561 0.000000
0.522424 0.167255 0.000000
0.560725 0.172713 0.000000
0.599566 0.177953 0.000000
0.638929 0.182992 0.000000
0.678796 0.187844 0.000000
0.719151 0.192525 0.000000
0.759987 0.197079 0.000038
0.804333 0.220327 0.024218
0.850496 0.272190 0.085567
0.893883 0.341147 0.169452
0.932224 0.412120 0.256372
0.965847 0.467567 0.323521
0.997812 0.490890 0.349234
1.000000 0.488370 0.350000
0.000000 0.115227 0.000000
0.025231 0.115227 0.000000
0.060895 0.115227 0.000000
0.098559 0.115227 0.000000
0.115227 0.091481 0.000000
0.115227 0.066824 0.000000
0.115227 0.056488 0.000000
0.115227 0.054406 0.000000
0.144533 0.069698 0.000000
0.174886 0.085494 0.000000
0.206199 0.100326 0.000000
0.238403 0.113800 0.000000
0.271439 0.125979 0.000000
0.305255 0.137061 0.000000
0.339808 0.147245 0.000000
0.375059 0.156680 0.000000
0.410975 0.165470 0.000000
0.447526 0.173692 0.000000
0.484683 0.180956 0.000000
0.522424 0.187483 0.000000
0.560725 0.193781 0.000000
0.599566 0.199855 0.000000
0.638929 0.205714 0.000000
0.678796 0.211367 0.000000
0.719151 0.216827 0.000000
0.759987 0.222135 0.000038
0.804333 0.245435 0.024218
0.850496 0.296232 0.085567
0.893883 0.363390 0.169452
0.932224 0.432399 0.256372
0.965847 0.486408 0.323521
0.997812 0.509494 0.349234
1.000000 0.506609 0.350000
0.000000 0.144533 0.000000
0.026716 0.144533 0.000000
0.064632 0.144533 0.000000
0.105919 0.144533 0.000000
0.144533 0.138833 0.000000
0.144533 0.100444 0.000000
0.144533 0.079269 0.000000
0.144533 0.070073 0.000000
0.144533 0.068244 0.000000
0.174886 0.084096 0.000000
0.206199 0.100633 0.000000
0.238403 0.116432 0.000000
0.271439 0.131001 0.000000
0.305255 0.144300 0.000000
0.339808 0.156464 0.000000
0.375059 0.167672 0.000000
0.410975 0.178083 0.000000
0.447526 0.187815 0.000000
0.484683 0.196954 0.000000
0.522424 0.205564 0.000000
0.560725 0.213697 0.000000
0.599566 0.220500 0.000000
0.638929 0.227105 0.000000
0.678796 0.233509 0.000000
0.719151 0.239717 0.000000
0.759987 0.245762 0.000038
0.804333 0.269145 0.024218
0.850496 0.318972 0.085567
0.893883 0.384465 0.169452
0.932224 0.451648 0.256372
0.965847 0.504324 0.323521
0.997812 0.527216 0.349234
1.000000 0.524012 0.350000
0.000000 0.174886 0.000000
0.027871 0.174886 0.000000
0.067357 0.174886 0.000000
0.111554 0.174886 0.000000
0.156581 0.174886 0.000000
0.174886 0.144772 0.000000
0.174886 0.110898 0.000000
0.174886 0.092443 0.000000
0.174886 0.084179 0.000000
0.174886 0.082576 0.000000
0.206199 0.098925 0.000000
0.238403 0.116102 0.000000
0.271439 0.132742 0.000000
0.305255 0.148296 0.000000
0.339808 0.162637 0.000000
0.375059 0.175836 0.000000
0.410975 0.188036 0.000000
0.447526 0.199389 0.000000
0.484683 0.210022 0.000000
0.522424 0.220033 0.000000
0.560725 0.229493 0.000000
0.599566 0.238459 0.000000
0.638929 0.246974 0.000000
0.678796 0.254576 0.000000
0.719151 0.261450 0.000000
0.759987 0.268173 0.000038
0.804333 0.291629 0.024218
0.850496 0.340544 0.085567
0.893883 0.404473 0.169452
0.932224 0.469939 0.256372
0.965847 0.521368 0.323521
0.997812 0.544097 0.349234
1.000000 0.540613 0.350000
0.000000 0.206199 0.000000
0.028812 0.206199 0.000000
0.069424 0.206199 0.000000
0.115732 0.206199 0.000000
0.162662 0.206199 0.000000
0.206199 0.198068 0.000000
0.206199 0.152207 0.000000
0.206199 0.122611 0.000000
0.206199 0.106251 0.000000
0.206199 0.098767 0.000000
0.206199 0.097361 0.000000
0.238403 0.114161 0.000000
0.271439 0.131896 0.000000
0.305255 0.149274 0.000000
0.339808 0.165709 0.000000
0.375059 0.181010 0.000000
0.410975 0.195188 0.000000
0.447526 0.208346 0.000000
0.484683 0.220615 0.000000
0.522424 0.232122 0.000000
0.560725 0.242972 0.000000
0.599566 0.253246 0.000000
0.638929 0.263005 0.000000
0.678796 0.272298 0.000000
0.719151 0.281164 0.000000
0.759987 0.289661 0.000038
0.804333 0.313132 0.024218
0.850496 0.361141 0.085567
0.893883 0.423561 0.169452
0.932224 0.487387 0.256372
0.965847 0.537629 0.323521
0.997812 0.560210 0.349234
1.000000 0.556469 0.350000
0.000000 0.238403 0.000000
0.029604 0.238403 0.000000
0.071048 0.238403 0.000000
0.118909 0.238403 0.000000
0.168574 0.238403 0.000000
0.219666 0.238403 0.000000
0.238403 0.202740 0.000000
0.238403 0.161402 0.000000
0.238403 0.135330 0.000000
0.238403 0.120620 0.000000
0.238403 0.113799 0.000000
0.238403 0.112567 0.000000
0.271439 0.129779 0.000000
0.305255 0.148010 0.000000
0.339808 0.166039 0.000000
0.375059 0.183265 0.000000
0.410975 0.199445 0.000000
0.447526 0.214541 0.000000
0.484683 0.228615 0.000000
0.522424 0.241774 0.000000
0.560725 0.254134 0.000000
0.599566 0.265800 0.000000
0.638929 0.276860 0.000000
0.678796 0.287382 0.000000
0.719151 0.297420 0.000000
0.759987 0.307042 0.000038
0.804333 0.332077 0.024218
0.850496 0.380484 0.085567
0.893883 0.441930 0.169452
0.932224 0.504144 0.256372
0.965847 0.553227 0.323521
0.997812 0.575656 0.349234
1.000000 0.571665 0.350000
0.000000 0.271439 0.000000
0.030291 0.271439 0.000000
0.072366 0.271439 0.000000
0.121381 0.271439 0.000000
0.173142 0.271439 0.000000
0.224377 0.271439 0.000000
0.271439 0.260734 0.000000
0.271439 0.208969 0.000000
0.271439 0.172124 0.000000
0.271439 0.148870 0.000000
0.271439 0.135495 0.000000
0.271439 0.129246 0.000000
0.271439 0.128165 0.000000
0.305255 0.145758 0.000000
0.339808 0.164435 0.000000
0.375059 0.183044 0.000000
0.410975 0.200979 0.000000
0.447526 0.217965 0.000000
0.484683 0.233917 0.000000
0.522424 0.248862 0.000000
0.560725 0.262880 0.000000
0.599566 0.276070 0.000000
0.638929 0.288533 0.000000
0.678796 0.300359 0.000000
0.719151 0.311622 0.000000
0.759987 0.322404 0.000038
0.804333 0.348115 0.024218
0.850496 0.396400 0.085567
0.893883 0.457572 0.169452
0.932224 0.519482 0.256372
0.965847 0.568316 0.323521
0.997812 0.590565 0.349234
1.000000 0.586310 0.350000
0.000000 0.305255 0.000000
0.030899 0.305255 0.000000
0.073466 0.305255 0.000000
0.123348 0.305255 0.000000
0.176726 0.305255 0.000000
0.230312 0.305255 0.000000
0.286822 0.305255 0.000000
0.305255 0.264501 0.000000
0.305255 0.217022 0.000000
0.305255 0.184089 0.000000
0.305255 0.163098 0.000000
0.305255 0.150829 0.000000
0.305255 0.145080 0.000000
0.305255 0.144132 0.000000
0.339808 0.162081 0.000000
0.375059 0.181162 0.000000
0.410975 0.200291 0.000000
0.447526 0.218868 0.000000
0.484683 0.236589 0.000000
0.522424 0.253336 0.000000
0.560725 0.269104 0.000000
0.599566 0.283945 0.000000
0.638929 0.297943 0.000000
0.678796 0.311186 0.000000
0.719151 0.323761 0.000000
0.759987 0.335771 0.000038
0.804333 0.362257 0.024218
0.850496 0.410580 0.085567
0.893883 0.471225 0.169452
0.932224 0.532375 0.256372
0.965847 0.580679 0.323521
0.997812 0.603809 0.349234
1.000000 0.600159 0.350000
0.000000 0.339808 0.000000
0.031448 0.339808 0.000000
0.074407 0.339808 0.000000
0.124948 0.339808 0.000000
0.179580 0.339808 0.000000
0.235256 0.339808 0.000000
0.290655 0.339808 0.000000
0.339808 0.326407 0.000000
0.339808 0.269781 0.000000
0.339808 0.226728 0.000000
0.339808 0.197066 0.000000
0.339808 0.177918 0.000000
0.339808 0.166586 0.000000
0.339808 0.161278 0.000000
0.339808 0.160446 0.000000
0.375059 0.178731 0.000000
0.410975 0.198183 0.000000
0.447526 0.217782 0.000000
0.484683 0.236939 0.000000
0.522424 0.255333 0.000000
0.560725 0.272819 0.000000
0.599566 0.289361 0.000000
0.638929 0.304989 0.000000
0.678796 0.319765 0.000000
0.719151 0.333769 0.000000
0.759987 0.347103 0.000038
0.804333 0.374493 0.024218
0.850496 0.423038 0.085567
0.893883 0.483361 0.169452
0.932224 0.543942 0.256372
0.965847 0.591851 0.323521
0.997812 0.615229 0.349234
1.000000 0.611709 0.350000
0.000000 0.375059 0.000000
0.031950 0.375059 0.000000
0.075231 0.375059 0.000000
0.126276 0.375059 0.000000
0.181887 0.375059 0.000000
0.239238 0.375059 0.000000
0.295868 0.375059 0.000000
0.357436 0.375059 0.000000
0.375059 0.329494 0.000000
0.375059 0.276851 0.000000
0.375059 0.237832 0.000000
0.375059 0.210879 0.000000
0.375059 0.193261 0.000000
0.375059 0.182736 0.000000
0.375059 0.177818 0.000000
0.375059 0.177091 0.000000
0.410975 0.195692 0.000000
0.447526 0.215487 0.000000
0.484683 0.235515 0.000000
0.522424 0.255200 0.000000
0.560725 0.274212 0.000000
0.599566 0.292382 0.000000
0.638929 0.309652 0.000000
0.678796 0.326027 0.000000
0.719151 0.341553 0.000000
0.759987 0.356318 0.000038
0.804333 0.384766 0.024218
0.850496 0.433743 0.085567
0.893883 0.493972 0.169452
0.932224 0.554190 0.256372
0.965847 0.601852 0.323521
0.997812 0.625536 0.349234
1.000000 0.622203 0.350000
0.000000 0.410975 0.000000
0.032415 0.410975 0.000000
0.075966 0.410975 0.000000
0.127399 0.410975 0.000000
0.183778 0.410975 0.000000
0.242475 0.410975 0.000000
0.301177 0.410975 0.000000
0.360694 0.410975 0.000000
0.410975 0.394767 0.000000
0.410975 0.334014 0.000000
0.410975 0.285608 0.000000
0.410975 0.250097 0.000000
0.410975 0.225399 0.000000
0.410975 0.209072 0.000000
0.410975 0.199252 0.000000
0.410975 0.194683 0.000000
0.410975 0.194049 0.000000
0.447526 0.212952 0.000000
0.484683 0.233065 0.000000
0.522424 0.253487 0.000000
0.560725 0.273656 0.000000
0.599566 0.293235 0.000000
0.638929 0.312040 0.000000
0.678796 0.329992 0.000000
0.719151 0.347075 0.000000
0.759987 0.363343 0.000038
0.804333 0.392994 0.024218
0.850496 0.442629 0.085567
0.893883 0.503016 0.169452
0.932224 0.563097 0.256372
0.965847 0.610676 0.323521
0.997812 0.634736 0.349234
1.000000 0.631657 0.350000
0.000000 0.447526 0.000000
0.032850 0.447526 0.000000
0.076631 0.447526 0.000000
0.128368 0.447526 0.000000
0.185349 0.447526 0.000000
0.245134 0.447526 0.000000
0.305545 0.447526 0.000000
0.364828 0.447526 0.000000
0.431086 0.447526 0.000000
0.447526 0.397323 0.000000
0.447526 0.340249 0.000000
0.447526 0.295845 0.000000
0.447526 0.263333 0.000000
0.447526 0.240530 0.000000
0.447526 0.225310 0.000000
0.447526 0.216112 0.000000
0.447526 0.211857 0.000000
0.447526 0.211307 0.000000
0.484683 0.230496 0.000000
0.522424 0.250910 0.000000
0.560725 0.271695 0.000000
0.599566 0.292308 0.000000
0.638929 0.312410 0.000000
0.678796 0.331805 0.000000
0.719151 0.350396 0.000000
0.759987 0.368173 0.000038
0.804333 0.399132 0.024218
0.850496 0.449633 0.085567
0.893883 0.510430 0.169452
0.932224 0.570618 0.256372
0.965847 0.618293 0.323521
0.997812 0.642812 0.349234
1.000000 0.640064 0.350000
0.000000 0.484683 0.000000
0.033259 0.484683 0.000000
0.077244 0.484683 0.000000
0.129217 0.484683 0.000000
0.186674 0.484683 0.000000
0.247338 0.484683 0.000000
0.309163 0.484683 0.000000
0.370334 0.484683 0.000000
0.433952 0.484683 0.000000
0.484683 0.465569 0.000000
0.484683 0.401226 0.000000
0.484683 0.348154 0.000000
0.484683 0.307346 0.000000
0.484683 0.277389 0.000000
0.484683 0.256198 0.000000
0.484683 0.241941 0.000000
0.484683 0.233297 0.000000
0.484683 0.229325 0.000000
0.484683 0.228852 0.000000
0.522424 0.248316 0.000000
0.560725 0.269011 0.000000
0.599566 0.290134 0.000000
0.638929 0.311158 0.000000
0.678796 0.331744 0.000000
0.719151 0.351687 0.000000
0.759987 0.370899 0.000038
0.804333 0.403206 0.024218
0.850496 0.454736 0.085567
0.893883 0.516174 0.169452
0.932224 0.576702 0.256372
0.965847 0.624657 0.323521
0.997812 0.649727 0.349234
1.000000 0.647398 0.350000
0.000000 0.522424 0.000000
0.033647 0.522424 0.000000
0.077813 0.522424 0.000000
0.129974 0.522424 0.000000
0.187806 0.522424 0.000000
0.249183 0.522424 0.000000
0.312181 0.522424 0.000000
0.375075 0.522424 0.000000
0.437296 0.522424 0.000000
0.507460 0.522424 0.000000
0.522424 0.467697 0.000000
0.522424 0.406752 0.000000
0.522424 0.357568 0.000000
0.522424 0.319923 0.000000
0.522424 0.292151 0.000000
0.522424 0.272347 0.000000
0.522424 0.258936 0.000000
0.522424 0.250791 0.000000
0.522424 0.247075 0.000000
0.522424 0.246672 0.000000
0.560725 0.266399 0.000000
0.599566 0.287362 0.000000
0.638929 0.308800 0.000000
0.678796 0.330204 0.000000
0.719151 0.351240 0.000000
0.759987 0.371717 0.000038
0.804333 0.405328 0.024218
0.850496 0.457986 0.085567
0.893883 0.520252 0.169452
0.932224 0.581330 0.256372
0.965847 0.629734 0.323521
0.997812 0.655441 0.349234
1.000000 0.653625 0.350000
0.000000 0.560725 0.000000
0.034017 0.560725 0.000000
0.078348 0.560725 0.000000
0.130659 0.560725 0.000000
0.188786 0.560725 0.000000
0.250742 0.560725 0.000000
0.314715 0.560725 0.000000
0.379066 0.560725 0.000000
0.442333 0.560725 0.000000
0.510052 0.560725 0.000000
0.560725 0.538612 0.000000
0.560725 0.471088 0.000000
0.560725 0.413901 0.000000
0.560725 0.368307 0.000000
0.560725 0.333419 0.000000
0.560725 0.307529 0.000000
0.560725 0.288931 0.000000
0.560725 0.276273 0.000000
0.560725 0.268579 0.000000
0.560725 0.265095 0.000000
0.560725 0.264757 0.000000
0.599566 0.284737 0.000000
0.638929 0.305954 0.000000
0.678796 0.327688 0.000000
0.719151 0.349447 0.000000
0.759987 0.370924 0.000038
0.804333 0.405705 0.024218
0.850496 0.459508 0.085567
0.893883 0.522725 0.169452
0.932224 0.584520 0.256372
0.965847 0.633519 0.323521
0.997812 0.659933 0.349234
1.000000 0.658710 0.350000
0.000000 0.599566 0.000000
0.034370 0.599566 0.000000
0.078856 0.599566 0.000000
0.131286 0.599566 0.000000
0.189646 0.599566 0.000000
0.252073 0.599566 0.000000
0.316857 0.599566 0.000000
0.382443 0.599566 0.000000
0.447430 0.599566 0.000000
0.512840 0.599566 0.000000
0.586317 0.599566 0.000000
0.599566 0.540388 0.000000
0.599566 0.476009 0.000000
0.599566 0.422556 0.000000
0.599566 0.380196 0.000000
0.599566 0.347708 0.000000
0.599566 0.323451 0.000000
0.599566 0.305914 0.000000
0.599566 0.293930 0.000000
0.599566 0.286648 0.000000
0.599566 0.283375 0.000000
0.599566 0.283096 0.000000
0.638929 0.303322 0.000000
0.678796 0.324781 0.000000
0.719151 0.346793 0.000000
0.759987 0.368908 0.000038
0.804333 0.404631 0.024218
0.850496 0.459505 0.085567
0.893883 0.523721 0.169452
0.932224 0.586343 0.256372
0.965847 0.636043 0.323521
0.997812 0.663208 0.349234
1.000000 0.662644 0.350000
0.000000 0.638929 0.000000
0.034710 0.638929 0.000000
0.079340 0.638929 0.000000
0.131868 0.638929 0.000000
0.190411 0.638929 0.000000
0.253219 0.638929 0.000000
0.318679 0.638929 0.000000
0.385314 0.638929 0.000000
0.451783 0.638929 0.000000
0.516962 0.638929 0.000000
0.588713 0.638929 0.000000
0.638929 0.613732 0.000000
0.638929 0.543349 0.000000
0.638929 0.482491 0.000000
0.638929 0.432564 0.000000
0.638929 0.393081 0.000000
0.638929 0.362689 0.000000
0.638929 0.339861 0.000000
0.638929 0.323267 0.000000
0.638929 0.311890 0.000000
0.638929 0.304985 0.000000
0.638929 0.301906 0.000000
0.638929 0.301682 0.000000
0.678796 0.322144 0.000000
0.719151 0.343836 0.000000
0.759987 0.366135 0.000038
0.804333 0.402476 0.024218
0.850496 0.458251 0.085567
0.893883 0.523428 0.169452
0.932224 0.586921 0.256372
0.965847 0.637380 0.323521
0.997812 0.665309 0.349234
1.000000 0.665444 0.350000
0.000000 0.678796 0.000000
0.035037 0.678796 0.000000
0.079804 0.678796 0.000000
0.132414 0.678796 0.000000
0.191100 0.678796 0.000000
0.254217 0.678796 0.000000
0.320240 0.678796 0.000000
0.387767 0.678796 0.000000
0.455514 0.678796 0.000000
0.522319 0.678796 0.000000
0.591102 0.678796 0.000000
0.667462 0.678796 0.000000
0.678796 0.615212 0.000000
0.678796 0.547749 0.000000
0.678796 0.490455 0.000000
0.678796 0.443769 0.000000
0.678796 0.406835 0.000000
0.678796 0.378281 0.000000
0.678796 0.356713 0.000000
0.678796 0.340963 0.000000
0.678796 0.330140 0.000000
0.678796 0.323581 0.000000
0.678796 0.320678 0.000000
0.678796 0.320506 0.000000
0.719151 0.341197 0.000000
0.759987 0.363136 0.000038
0.804333 0.399675 0.024218
0.850496 0.456083 0.085567
0.893883 0.522092 0.169452
0.932224 0.586425 0.256372
0.965847 0.637647 0.323521
0.997812 0.666316 0.349234
1.000000 0.667158 0.350000
0.000000 0.719151 0.000000
0.035353 0.719151 0.000000
0.080252 0.719151 0.000000
0.132930 0.719151 0.000000
0.191727 0.719151 0.000000
0.255093 0.719151 0.000000
0.321587 0.719151 0.000000
0.389872 0.719151 0.000000
0.458722 0.719151 0.000000
0.527020 0.719151 0.000000
0.594467 0.719151 0.000000
0.669716 0.719151 0.000000
0.719151 0.690790 0.000000
0.719151 0.617806 0.000000
0.719151 0.553643 0.000000
0.719151 0.499777 0.000000
0.719151 0.456027 0.000000
0.719151 0.421350 0.000000
0.719151 0.394418 0.000000
0.719151 0.373972 0.000000
0.719151 0.358981 0.000000
0.719151 0.348664 0.000000
0.719151 0.342425 0.000000
0.719151 0.339685 0.000000
0.719151 0.339561 0.000000
0.759987 0.360497 0.000038
0.804333 0.396721 0.024218
0.850496 0.453392 0.085567
0.893883 0.520009 0.169452
0.932224 0.585071 0.256372
0.965847 0.637001 0.323521
0.997812 0.666345 0.349234
1.000000 0.667870 0.350000
0.000038 0.759987 0.000038
0.035696 0.759987 0.000038
0.080721 0.759987 0.000038
0.133454 0.759987 0.000038
0.192335 0.759987 0.000038
0.255899 0.759987 0.000038
0.322781 0.759987 0.000038
0.391709 0.759987 0.000038
0.461511 0.759987 0.000038
0.531111 0.759987 0.000038
0.599530 0.759987 0.000038
0.671824 0.759987 0.000038
0.750743 0.759987 0.000038
0.759987 0.692028 0.000038
0.759987 0.621767 0.000038
0.759987 0.560997 0.000038
0.759987 0.510338 0.000038
0.759987 0.469232 0.000038
0.759987 0.436558 0.000038
0.759987 0.411066 0.000038
0.759987 0.391626 0.000038
0.759987 0.377327 0.000038
0.759987 0.367474 0.000038
0.759987 0.361532 0.000038
0.759987 0.358942 0.000038
0.759987 0.358862 0.000038
0.804333 0.394154 0.024218
0.850496 0.450613 0.085567
0.893883 0.517517 0.169452
0.932224 0.583116 0.256372
0.965847 0.635637 0.323521
0.997812 0.665550 0.349234
1.000000 0.667696 0.350000
0.024218 0.804333 0.024218
0.059226 0.804333 0.024218
0.103185 0.804333 0.024218
0.154577 0.804333 0.024218
0.211969 0.804333 0.024218
0.274014 0.804333 0.024218
0.339449 0.804333 0.024218
0.407096 0.804333 0.024218
0.475862 0.804333 0.024218
0.544740 0.804333 0.024218
0.612808 0.804333 0.024218
0.681020 0.804333 0.024218
0.757227 0.804333 0.024218
0.804333 0.773568 0.024218
0.804333 0.700182 0.024218
0.804333 0.634790 0.024218
0.804333 0.578844 0.024218
0.804333 0.532394 0.024218
0.804333 0.494680 0.024218
0.804333 0.464603 0.024218
