assets/LUTs/skintone_caramel_glow_33.cube
TITLE "SkinTone Caramel Glow"
# Warm caramel skin: hue pulled to golden-orange, moderate richness, soft density, gentle contrast.
# Skin-tone selective LUT. Apply to display-referred Rec.709/sRGB (SDR) footage.
# Generated 2026-07-10 with Claude Code.
LUT_3D_SIZE 5
DOMAIN_MIN 0.0 0.0 0.0
DOMAIN_MAX 1.0 1.0 1.0
0.000000 0.000000 0.000000
0.245312 0.000000 0.000000
0.500000 0.000000 0.000000
0.754687 0.000000 0.000000
1.000000 0.000000 0.000000
0.000000 0.245312 0.000000
0.245312 0.245312 0.000000
0.500000 0.250000 0.000000
0.754687 0.251563 0.000000
1.000000 0.250000 0.000000
0.000000 0.500000 0.000000
0.250000 0.500000 0.000000
0.500000 0.500000 0.000000
0.754687 0.503125 0.000000
1.000000 0.500000 0.000000
0.000000 0.754687 0.000000
0.251563 0.754687 0.000000
0.503125 0.754687 0.000000
0.754687 0.754687 0.000000
1.000000 0.750000 0.000000
0.000000 1.000000 0.000000
0.250000 1.000000 0.000000
0.500000 1.000000 0.000000
0.750000 1.000000 0.000000
1.000000 1.000000 0.000000
0.000000 0.000000 0.245312
0.245312 0.000000 0.245312
0.500000 0.000000 0.250000
0.754687 0.000000 0.251562
1.000000 0.000000 0.250000
0.000000 0.245312 0.245312
0.245312 0.245312 0.245312
0.469747 0.247464 0.216316
0.736045 0.282540 0.219786
1.000000 0.250000 0.250000
0.000000 0.500000 0.250000
0.250000 0.500000 0.250000
0.475468 0.424573 0.222592
0.733485 0.456549 0.215477
1.000000 0.500000 0.250000
0.000000 0.754687 0.251563
0.251563 0.754687 0.251563
0.503125 0.754687 0.251563
0.739626 0.637103 0.225834
1.000000 0.750000 0.250000
0.000000 1.000000 0.250000
0.250000 1.000000 0.250000
0.500000 1.000000 0.250000
0.750000 1.000000 0.250000
1.000000 1.000000 0.250000
0.000000 0.000000 0.500000
0.250000 0.000000 0.500000
0.500000 0.000000 0.500000
0.754687 0.000000 0.503125
1.000000 0.000000 0.500000
0.000000 0.250000 0.500000
0.250000 0.250000 0.500000
0.500000 0.250000 0.500000
0.754687 0.251563 0.503125
1.000000 0.250000 0.500000
0.000000 0.500000 0.500000
0.250000 0.500000 0.500000
0.500000 0.500000 0.500000
0.735841 0.498043 0.464722
1.000000 0.500000 0.500000
0.000000 0.754687 0.503125
0.251563 0.754687 0.503125
0.503125 0.754687 0.503125
0.739461 0.685640 0.472041
1.000000 0.750000 0.500000
0.000000 1.000000 0.500000
0.250000 1.000000 0.500000
0.500000 1.000000 0.500000
0.750000 1.000000 0.500000
1.000000 1.000000 0.500000
0.000000 0.000000 0.754687
0.251562 0.000000 0.754687
0.503125 0.000000 0.754687
0.754687 0.000000 0.754687
1.000000 0.000000 0.750000
0.000000 0.251562 0.754687
0.251563 0.251563 0.754687
0.503125 0.251563 0.754687
0.754687 0.251563 0.754687
1.000000 0.250000 0.750000
0.000000 0.503125 0.754687
0.251563 0.503125 0.754687
0.503125 0.503125 0.754687
0.754687 0.503125 0.754687
1.000000 0.500000 0.750000
0.000000 0.754687 0.754687
0.251563 0.754687 0.754687
0.503125 0.754687 0.754687
0.754687 0.754687 0.754687
1.000000 0.750000 0.750000
0.000000 1.000000 0.750000
0.250000 1.000000 0.750000
0.500000 1.000000 0.750000
0.750000 1.000000 0.750000
1.000000 1.000000 0.750000
0.000000 0.000000 1.000000
0.250000 0.000000 1.000000
0.500000 0.000000 1.000000
0.750000 0.000000 1.000000
1.000000 0.000000 1.000000
0.000000 0.250000 1.000000
0.250000 0.250000 1.000000
0.500000 0.250000 1.000000
0.750000 0.250000 1.000000
1.000000 0.250000 1.000000
0.000000 0.500000 1.000000
0.250000 0.500000 1.000000
0.500000 0.500000 1.000000
0.750000 0.500000 1.000000
1.000000 0.500000 1.000000
0.000000 0.750000 1.000000
0.250000 0.750000 1.000000
0.500000 0.750000 1.000000
0.750000 0.750000 1.000000
1.000000 0.750000 1.000000
0.000000 1.000000 1.000000
0.250000 1.000000 1.000000
0.500000 1.000000 1.000000
0.750000 1.000000 1.000000
1.000000 1.000000 1.000000
