assets/LUTs/skintone_caramel_overdrive_33.cube
TITLE "SkinTone Caramel Overdrive"
# Caramel Glow with the dial snapped off: hard pull to golden-orange, heavy richness and density.
# Skin-tone selective LUT. Apply to display-referred Rec.709/sRGB (SDR) footage.
# Generated 2026-07-10 with Claude Code.
LUT_3D_SIZE 9
DOMAIN_MIN 0.0 0.0 0.0
DOMAIN_MAX 1.0 1.0 1.0
0.000000 0.000000 0.000000
0.116797 0.000000 0.000000
0.240625 0.000000 0.000000
0.369141 0.000000 0.000000
0.500000 0.000000 0.000000
0.630859 0.000000 0.000000
0.759375 0.000000 0.000000
0.883203 0.000000 0.000000
1.000000 0.000000 0.000000
0.000000 0.116797 0.000000
0.116797 0.116797 0.000000
0.240625 0.120313 0.000000
0.369141 0.123047 0.000000
0.500000 0.125000 0.000000
0.630859 0.126172 0.000000
0.759375 0.126562 0.000000
0.883203 0.126172 0.000000
1.000000 0.125000 0.000000
0.000000 0.240625 0.000000
0.120313 0.240625 0.000000
0.240625 0.240625 0.000000
0.369141 0.246094 0.000000
0.500000 0.250000 0.000000
0.630859 0.252344 0.000000
0.759375 0.253125 0.000000
0.883203 0.252344 0.000000
1.000000 0.250000 0.000000
0.000000 0.369141 0.000000
0.123047 0.369141 0.000000
0.246094 0.369141 0.000000
0.369141 0.369141 0.000000
0.500000 0.375000 0.000000
0.630859 0.378516 0.000000
0.759375 0.379688 0.000000
0.883203 0.378516 0.000000
1.000000 0.375000 0.000000
0.000000 0.500000 0.000000
0.125000 0.500000 0.000000
0.250000 0.500000 0.000000
0.375000 0.500000 0.000000
0.500000 0.500000 0.000000
0.630859 0.504688 0.000000
0.759375 0.506250 0.000000
0.883203 0.504687 0.000000
1.000000 0.500000 0.000000
0.000000 0.630859 0.000000
0.126172 0.630859 0.000000
0.252344 0.630859 0.000000
0.378516 0.630859 0.000000
0.504687 0.630859 0.000000
0.630859 0.630859 0.000000
0.759375 0.632812 0.000000
0.883203 0.630859 0.000000
1.000000 0.625000 0.000000
0.000000 0.759375 0.000000
0.126562 0.759375 0.000000
0.253125 0.759375 0.000000
0.379688 0.759375 0.000000
0.506250 0.759375 0.000000
0.632813 0.759375 0.000000
0.759375 0.759375 0.000000
0.883203 0.757031 0.000000
1.000000 0.750000 0.000000
0.000000 0.883203 0.000000
0.126172 0.883203 0.000000
0.252344 0.883203 0.000000
0.378516 0.883203 0.000000
0.504688 0.883203 0.000000
0.630859 0.883203 0.000000
0.757031 0.883203 0.000000
0.883203 0.883203 0.000000
1.000000 0.875000 0.000000
0.000000 1.000000 0.000000
0.125000 1.000000 0.000000
0.250000 1.000000 0.000000
0.375000 1.000000 0.000000
0.500000 1.000000 0.000000
0.625000 1.000000 0.000000
0.750000 1.000000 0.000000
0.875000 1.000000 0.000000
1.000000 1.000000 0.000000
0.000000 0.000000 0.116797
0.116797 0.000000 0.116797
0.240625 0.000000 0.120313
0.369141 0.000000 0.123047
0.500000 0.000000 0.125000
0.630859 0.000000 0.126172
0.759375 0.000000 0.126563
0.883203 0.000000 0.126172
1.000000 0.000000 0.125000
0.000000 0.116797 0.116797
0.116797 0.116797 0.116797
0.175532 0.096656 0.069904
0.295491 0.128028 0.072063
0.448244 0.151336 0.088454
0.603720 0.157089 0.104348
0.747921 0.153364 0.114381
0.879967 0.145373 0.119907
1.000000 0.125000 0.125000
0.000000 0.240625 0.120313
0.120313 0.240625 0.120313
0.175532 0.134594 0.069904
0.288637 0.162853 0.067665
0.443093 0.215880 0.084974
0.600917 0.248674 0.102141
0.746720 0.261387 0.113115
0.879625 0.262408 0.119249
1.000000 0.250000 0.125000
0.000000 0.369141 0.123047
0.123047 0.369141 0.123047
0.246094 0.369141 0.123047
0.295491 0.209586 0.072063
0.443093 0.277588 0.084974
0.600917 0.336969 0.102141
0.746720 0.366557 0.113115
0.879625 0.377402 0.119249
1.000000 0.375000 0.125000
0.000000 0.500000 0.125000
0.125000 0.500000 0.125000
0.250000 0.500000 0.125000
0.382534 0.497401 0.123098
0.448244 0.337943 0.088454
0.600917 0.421371 0.102141
0.746720 0.471727 0.113115
0.879625 0.492395 0.119249
1.000000 0.500000 0.125000
0.000000 0.630859 0.126172
0.126172 0.630859 0.126172
0.252344 0.630859 0.126172
0.378516 0.630859 0.126172
0.534547 0.624582 0.121051
0.603720 0.496823 0.104348
0.746720 0.566569 0.113115
0.879625 0.605753 0.119249
1.000000 0.625000 0.125000
0.000000 0.759375 0.126562
0.126562 0.759375 0.126562
0.253125 0.759375 0.126562
0.379687 0.759375 0.126562
0.506250 0.759375 0.126562
0.670521 0.754984 0.121870
0.747921 0.662758 0.114381
0.879625 0.711159 0.119249
1.000000 0.750000 0.125000
0.000000 0.883203 0.126172
0.126172 0.883203 0.126172
0.252344 0.883203 0.126172
0.378516 0.883203 0.126172
0.504687 0.883203 0.126172
0.634495 0.883048 0.125871
0.789774 0.881600 0.123065
0.879967 0.822345 0.119907
1.000000 0.875000 0.125000
0.000000 1.000000 0.125000
0.125000 1.000000 0.125000
0.250000 1.000000 0.125000
0.375000 1.000000 0.125000
0.500000 1.000000 0.125000
0.625000 1.000000 0.125000
0.750000 1.000000 0.125000
0.875000 1.000000 0.125000
1.000000 1.000000 0.125000
0.000000 0.000000 0.240625
0.120313 0.000000 0.240625
0.240625 0.000000 0.240625
0.369141 0.000000 0.246094
0.500000 0.000000 0.250000
0.630859 0.000000 0.252344
0.759375 0.000000 0.253125
0.883203 0.000000 0.252344
1.000000 0.000000 0.250000
0.000000 0.120313 0.240625
0.120313 0.120313 0.240625
0.240625 0.120313 0.240625
0.369141 0.123047 0.246094
0.500000 0.125000 0.250000
0.630671 0.126018 0.251592
0.758159 0.125261 0.245673
0.882465 0.124741 0.242833
1.000000 0.125000 0.250000
0.000000 0.240625 0.240625
0.120313 0.240625 0.240625
0.240625 0.240625 0.240625
0.294764 0.201484 0.169848
0.426728 0.234976 0.169941
0.567542 0.271859 0.171575
0.713606 0.309186 0.174030
0.863134 0.328674 0.187435
1.000000 0.250000 0.250000
0.000000 0.369141 0.246094
0.123047 0.369141 0.246094
0.246094 0.369141 0.246094
0.294764 0.246351 0.169848
0.419631 0.273128 0.162607
0.561207 0.314860 0.163872
0.708907 0.358229 0.166189
0.861033 0.395409 0.180747
1.000000 0.375000 0.250000
0.000000 0.500000 0.250000
0.125000 0.500000 0.250000
0.250000 0.500000 0.250000
0.375000 0.500000 0.250000
0.426728 0.327207 0.169941
0.561207 0.354593 0.163872
0.708907 0.399974 0.166189
0.861033 0.452861 0.180747
1.000000 0.500000 0.250000
0.000000 0.630859 0.252344
0.126172 0.630859 0.252344
0.252344 0.630859 0.252344
0.378516 0.630859 0.252344
0.515727 0.627695 0.248148
0.567542 0.414080 0.171575
0.708907 0.441719 0.166189
0.861033 0.510314 0.180747
1.000000 0.625000 0.250000
0.000000 0.759375 0.253125
0.126562 0.759375 0.253125
0.253125 0.759375 0.253125
0.379688 0.759375 0.253125
0.506250 0.759375 0.253125
0.707002 0.748746 0.234319
0.713606 0.506147 0.174030
0.861033 0.567757 0.180747
1.000000 0.750000 0.250000
0.000000 0.883203 0.252344
0.126172 0.883203 0.252344
0.252344 0.883203 0.252344
0.378516 0.883203 0.252344
0.504687 0.883203 0.252344
0.630859 0.883203 0.252344
0.875503 0.858508 0.227217
0.863134 0.631991 0.187435
1.000000 0.875000 0.250000
0.000000 1.000000 0.250000
0.125000 1.000000 0.250000
0.250000 1.000000 0.250000
0.375000 1.000000 0.250000
0.500000 1.000000 0.250000
0.625000 1.000000 0.250000
0.750000 1.000000 0.250000
0.875000 1.000000 0.250000
1.000000 1.000000 0.250000
0.000000 0.000000 0.369141
0.123047 0.000000 0.369141
0.246094 0.000000 0.369141
0.369141 0.000000 0.369141
0.500000 0.000000 0.375000
0.630859 0.000000 0.378516
0.759375 0.000000 0.379688
0.883203 0.000000 0.378516
1.000000 0.000000 0.375000
0.000000 0.123047 0.369141
0.123047 0.123047 0.369141
0.246094 0.123047 0.369141
0.369141 0.123047 0.369141
0.500000 0.125000 0.375000
0.630859 0.126172 0.378516
0.759375 0.126562 0.379688
0.883203 0.126172 0.378516
1.000000 0.125000 0.375000
0.000000 0.246094 0.369141
0.123047 0.246094 0.369141
0.246094 0.246094 0.369141
0.369141 0.246094 0.369141
0.500000 0.250000 0.375000
0.630859 0.252344 0.378516
0.759056 0.252556 0.377778
0.881071 0.245357 0.351457
1.000000 0.250000 0.375000
0.000000 0.369141 0.369141
0.123047 0.369141 0.369141
0.246094 0.369141 0.369141
0.369141 0.369141 0.369141
0.426728 0.309141 0.269260
0.567542 0.356620 0.285084
0.713112 0.392671 0.283992
0.859813 0.425925 0.285944
1.000000 0.375000 0.375000
0.000000 0.500000 0.375000
0.125000 0.500000 0.375000
0.250000 0.500000 0.375000
0.375000 0.500000 0.375000
0.426728 0.365699 0.269260
0.561207 0.398704 0.276114
0.708363 0.439362 0.274491
0.857367 0.480421 0.276441
1.000000 0.500000 0.375000
0.000000 0.630859 0.378516
0.126172 0.630859 0.378516
0.252344 0.630859 0.378516
0.378516 0.630859 0.378516
0.504688 0.630859 0.378516
0.567542 0.458072 0.285084
0.708363 0.482750 0.274491
0.857367 0.527738 0.276441
1.000000 0.625000 0.375000
0.000000 0.759375 0.379688
0.126562 0.759375 0.379687
0.253125 0.759375 0.379688
0.379688 0.759375 0.379688
0.506250 0.759375 0.379688
0.644349 0.757111 0.374874
0.713112 0.546801 0.283992
0.857367 0.575056 0.276441
1.000000 0.750000 0.375000
0.000000 0.883203 0.378516
0.126172 0.883203 0.378516
0.252344 0.883203 0.378516
0.378516 0.883203 0.378516
0.504687 0.883203 0.378516
0.630859 0.883203 0.378516
0.833272 0.877838 0.357012
0.859813 0.643236 0.285944
1.000000 0.875000 0.375000
0.000000 1.000000 0.375000
0.125000 1.000000 0.375000
0.250000 1.000000 0.375000
0.375000 1.000000 0.375000
0.500000 1.000000 0.375000
0.625000 1.000000 0.375000
0.750000 1.000000 0.375000
0.875000 1.000000 0.375000
1.000000 1.000000 0.375000
0.000000 0.000000 0.500000
0.125000 0.000000 0.500000
0.250000 0.000000 0.500000
0.375000 0.000000 0.500000
0.500000 0.000000 0.500000
0.630859 0.000000 0.504687
0.759375 0.000000 0.506250
0.883203 0.000000 0.504687
1.000000 0.000000 0.500000
0.000000 0.125000 0.500000
0.125000 0.125000 0.500000
0.250000 0.125000 0.500000
0.375000 0.125000 0.500000
0.500000 0.125000 0.500000
0.630859 0.126172 0.504688
0.759375 0.126562 0.506250
0.883203 0.126172 0.504687
1.000000 0.125000 0.500000
0.000000 0.250000 0.500000
0.125000 0.250000 0.500000
0.250000 0.250000 0.500000
0.375000 0.250000 0.500000
0.500000 0.250000 0.500000
0.630859 0.252344 0.504688
0.759375 0.253125 0.506250
0.883203 0.252344 0.504688
1.000000 0.250000 0.500000
0.000000 0.375000 0.500000
0.125000 0.375000 0.500000
0.250000 0.375000 0.500000
0.375000 0.375000 0.500000
0.500000 0.375000 0.500000
0.630859 0.378516 0.504688
0.759375 0.379688 0.506250
0.883043 0.377870 0.502800
1.000000 0.375000 0.500000
0.000000 0.500000 0.500000
0.125000 0.500000 0.500000
0.250000 0.500000 0.500000
0.375000 0.500000 0.500000
0.500000 0.500000 0.500000
0.567542 0.415003 0.363268
0.713112 0.487443 0.410906
0.859813 0.518794 0.408775
1.000000 0.500000 0.500000
0.000000 0.630859 0.504687
0.126172 0.630859 0.504688
0.252344 0.630859 0.504687
0.378516 0.630859 0.504688
0.504688 0.630859 0.504688
0.567542 0.488373 0.363268
0.708363 0.533398 0.401406
0.857367 0.572342 0.398922
1.000000 0.625000 0.500000
0.000000 0.759375 0.506250
0.126562 0.759375 0.506250
0.253125 0.759375 0.506250
0.379688 0.759375 0.506250
0.506250 0.759375 0.506250
0.632812 0.759375 0.506250
0.713112 0.595988 0.410906
0.857367 0.622131 0.398922
1.000000 0.750000 0.500000
0.000000 0.883203 0.504688
0.126172 0.883203 0.504687
0.252344 0.883203 0.504687
0.378516 0.883203 0.504687
0.504687 0.883203 0.504687
0.630859 0.883203 0.504687
0.768821 0.882076 0.499996
0.859813 0.689592 0.408775
1.000000 0.875000 0.500000
0.000000 1.000000 0.500000
0.125000 1.000000 0.500000
0.250000 1.000000 0.500000
0.375000 1.000000 0.500000
0.500000 1.000000 0.500000
0.625000 1.000000 0.500000
0.750000 1.000000 0.500000
0.875000 1.000000 0.500000
1.000000 1.000000 0.500000
0.000000 0.000000 0.630859
0.126172 0.000000 0.630859
0.252344 0.000000 0.630859
0.378516 0.000000 0.630859
0.504687 0.000000 0.630859
0.630859 0.000000 0.630859
0.759375 0.000000 0.632812
0.883203 0.000000 0.630859
1.000000 0.000000 0.625000
0.000000 0.126172 0.630859
0.126172 0.126172 0.630859
0.252344 0.126172 0.630859
0.378516 0.126172 0.630859
0.504688 0.126172 0.630859
0.630859 0.126172 0.630859
0.759375 0.126562 0.632812
0.883203 0.126172 0.630859
1.000000 0.125000 0.625000
0.000000 0.252344 0.630859
0.126172 0.252344 0.630859
0.252344 0.252344 0.630859
0.378516 0.252344 0.630859
0.504688 0.252344 0.630859
0.630859 0.252344 0.630859
0.759375 0.253125 0.632812
0.883203 0.252344 0.630859
1.000000 0.250000 0.625000
0.000000 0.378516 0.630859
0.126172 0.378516 0.630859
0.252344 0.378516 0.630859
0.378516 0.378516 0.630859
0.504688 0.378516 0.630859
0.630859 0.378516 0.630859
0.759375 0.379688 0.632813
0.883203 0.378516 0.630859
1.000000 0.375000 0.625000
0.000000 0.504687 0.630859
0.126172 0.504688 0.630859
0.252344 0.504688 0.630859
0.378516 0.504688 0.630859
0.504688 0.504688 0.630859
0.630859 0.504688 0.630859
0.759375 0.506250 0.632812
0.883203 0.504687 0.630859
1.000000 0.500000 0.625000
0.000000 0.630859 0.630859
0.126172 0.630859 0.630859
0.252344 0.630859 0.630859
0.378516 0.630859 0.630859
0.504688 0.630859 0.630859
0.630859 0.630859 0.630859
0.714438 0.529041 0.468613
0.859813 0.612378 0.532550
1.000000 0.625000 0.625000
0.000000 0.759375 0.632813
0.126562 0.759375 0.632812
0.253125 0.759375 0.632812
0.379688 0.759375 0.632812
0.506250 0.759375 0.632812
0.632812 0.759375 0.632812
0.714438 0.621168 0.468613
0.857367 0.668877 0.525179
1.000000 0.750000 0.625000
0.000000 0.883203 0.630859
0.126172 0.883203 0.630859
0.252344 0.883203 0.630859
0.378516 0.883203 0.630859
0.504687 0.883203 0.630859
0.630859 0.883203 0.630859
0.757031 0.883203 0.630859
0.859813 0.736305 0.532550
1.000000 0.875000 0.625000
0.000000 1.000000 0.625000
0.125000 1.000000 0.625000
0.250000 1.000000 0.625000
0.375000 1.000000 0.625000
0.500000 1.000000 0.625000
0.625000 1.000000 0.625000
0.750000 1.000000 0.625000
0.875000 1.000000 0.625000
1.000000 1.000000 0.625000
0.000000 0.000000 0.759375
0.126563 0.000000 0.759375
0.253125 0.000000 0.759375
0.379688 0.000000 0.759375
0.506250 0.000000 0.759375
0.632812 0.000000 0.759375
0.759375 0.000000 0.759375
0.883203 0.000000 0.757031
1.000000 0.000000 0.750000
0.000000 0.126563 0.759375
0.126562 0.126562 0.759375
0.253125 0.126562 0.759375
0.379688 0.126562 0.759375
0.506250 0.126562 0.759375
0.632812 0.126562 0.759375
0.759375 0.126562 0.759375
0.883203 0.126172 0.757031
1.000000 0.125000 0.750000
0.000000 0.253125 0.759375
0.126562 0.253125 0.759375
0.253125 0.253125 0.759375
0.379688 0.253125 0.759375
0.506250 0.253125 0.759375
0.632812 0.253125 0.759375
0.759375 0.253125 0.759375
0.883203 0.252344 0.757031
1.000000 0.250000 0.750000
0.000000 0.379688 0.759375
0.126562 0.379688 0.759375
0.253125 0.379688 0.759375
0.379688 0.379688 0.759375
0.506250 0.379688 0.759375
0.632813 0.379688 0.759375
0.759375 0.379688 0.759375
0.883203 0.378516 0.757031
1.000000 0.375000 0.750000
0.000000 0.506250 0.759375
0.126562 0.506250 0.759375
0.253125 0.506250 0.759375
0.379688 0.506250 0.759375
0.506250 0.506250 0.759375
0.632812 0.506250 0.759375
0.759375 0.506250 0.759375
0.883203 0.504687 0.757031
1.000000 0.500000 0.750000
0.000000 0.632812 0.759375
0.126562 0.632812 0.759375
0.253125 0.632812 0.759375
0.379688 0.632813 0.759375
0.506250 0.632812 0.759375
0.632812 0.632812 0.759375
0.759375 0.632812 0.759375
0.883203 0.630859 0.757031
1.000000 0.625000 0.750000
0.000000 0.759375 0.759375
0.126562 0.759375 0.759375
0.253125 0.759375 0.759375
0.379688 0.759375 0.759375
0.506250 0.759375 0.759375
0.632812 0.759375 0.759375
0.759375 0.759375 0.759375
0.864418 0.674473 0.628296
1.000000 0.750000 0.750000
0.000000 0.883203 0.757031
0.126172 0.883203 0.757031
0.252344 0.883203 0.757031
0.378516 0.883203 0.757031
0.504687 0.883203 0.757031
0.630859 0.883203 0.757031
0.757031 0.883203 0.757031
0.864418 0.786841 0.628296
1.000000 0.875000 0.750000
0.000000 1.000000 0.750000
0.125000 1.000000 0.750000
0.250000 1.000000 0.750000
0.375000 1.000000 0.750000
0.500000 1.000000 0.750000
0.625000 1.000000 0.750000
0.750000 1.000000 0.750000
0.875000 1.000000 0.750000
1.000000 1.000000 0.750000
0.000000 0.000000 0.883203
0.126172 0.000000 0.883203
0.252344 0.000000 0.883203
0.378516 0.000000 0.883203
0.504687 0.000000 0.883203
0.630859 0.000000 0.883203
0.757031 0.000000 0.883203
0.883203 0.000000 0.883203
1.000000 0.000000 0.875000
0.000000 0.126172 0.883203
0.126172 0.126172 0.883203
0.252344 0.126172 0.883203
0.378516 0.126172 0.883203
0.504687 0.126172 0.883203
0.630859 0.126172 0.883203
0.757031 0.126172 0.883203
0.883203 0.126172 0.883203
1.000000 0.125000 0.875000
0.000000 0.252344 0.883203
0.126172 0.252344 0.883203
0.252344 0.252344 0.883203
0.378516 0.252344 0.883203
0.504688 0.252344 0.883203
0.630859 0.252344 0.883203
0.757031 0.252344 0.883203
0.883203 0.252344 0.883203
1.000000 0.250000 0.875000
0.000000 0.378516 0.883203
0.126172 0.378516 0.883203
0.252344 0.378516 0.883203
0.378516 0.378516 0.883203
0.504687 0.378516 0.883203
0.630859 0.378516 0.883203
0.757031 0.378516 0.883203
0.883203 0.378516 0.883203
1.000000 0.375000 0.875000
0.000000 0.504687 0.883203
0.126172 0.504687 0.883203
0.252344 0.504688 0.883203
0.378516 0.504687 0.883203
0.504687 0.504687 0.883203
0.630859 0.504687 0.883203
0.757031 0.504687 0.883203
0.883203 0.504687 0.883203
1.000000 0.500000 0.875000
0.000000 0.630859 0.883203
0.126172 0.630859 0.883203
0.252344 0.630859 0.883203
0.378516 0.630859 0.883203
0.504687 0.630859 0.883203
0.630859 0.630859 0.883203
0.757031 0.630859 0.883203
0.883203 0.630859 0.883203
1.000000 0.625000 0.875000
0.000000 0.757031 0.883203
0.126172 0.757031 0.883203
0.252344 0.757031 0.883203
0.378516 0.757031 0.883203
0.504687 0.757031 0.883203
0.630859 0.757031 0.883203
0.757031 0.757031 0.883203
0.883203 0.757031 0.883203
1.000000 0.750000 0.875000
0.000000 0.883203 0.883203
0.126172 0.883203 0.883203
0.252344 0.883203 0.883203
0.378516 0.883203 0.883203
0.504687 0.883203 0.883203
0.630859 0.883203 0.883203
0.757031 0.883203 0.883203
0.883203 0.883203 0.883203
1.000000 0.875000 0.875000
0.000000 1.000000 0.875000
0.125000 1.000000 0.875000
0.250000 1.000000 0.875000
0.375000 1.000000 0.875000
0.500000 1.000000 0.875000
0.625000 1.000000 0.875000
0.750000 1.000000 0.875000
0.875000 1.000000 0.875000
1.000000 1.000000 0.875000
0.000000 0.000000 1.000000
0.125000 0.000000 1.000000
0.250000 0.000000 1.000000
0.375000 0.000000 1.000000
0.500000 0.000000 1.000000
0.625000 0.000000 1.000000
0.750000 0.000000 1.000000
0.875000 0.000000 1.000000
1.000000 0.000000 1.000000
0.000000 0.125000 1.000000
0.125000 0.125000 1.000000
0.250000 0.125000 1.000000
0.375000 0.125000 1.000000
0.500000 0.125000 1.000000
0.625000 0.125000 1.000000
0.750000 0.125000 1.000000
0.875000 0.125000 1.000000
1.000000 0.125000 1.000000
0.000000 0.250000 1.000000
0.125000 0.250000 1.000000
0.250000 0.250000 1.000000
0.375000 0.250000 1.000000
0.500000 0.250000 1.000000
0.625000 0.250000 1.000000
0.750000 0.250000 1.000000
0.875000 0.250000 1.000000
1.000000 0.250000 1.000000
0.000000 0.375000 1.000000
0.125000 0.375000 1.000000
0.250000 0.375000 1.000000
0.375000 0.375000 1.000000
0.500000 0.375000 1.000000
0.625000 0.375000 1.000000
0.750000 0.375000 1.000000
0.875000 0.375000 1.000000
1.000000 0.375000 1.000000
0.000000 0.500000 1.000000
0.125000 0.500000 1.000000
0.250000 0.500000 1.000000
0.375000 0.500000 1.000000
0.500000 0.500000 1.000000
0.625000 0.500000 1.000000
0.750000 0.500000 1.000000
0.875000 0.500000 1.000000
1.000000 0.500000 1.000000
0.000000 0.625000 1.000000
0.125000 0.625000 1.000000
0.250000 0.625000 1.000000
0.375000 0.625000 1.000000
0.500000 0.625000 1.000000
0.625000 0.625000 1.000000
0.750000 0.625000 1.000000
0.875000 0.625000 1.000000
1.000000 0.625000 1.000000
0.000000 0.750000 1.000000
0.125000 0.750000 1.000000
0.250000 0.750000 1.000000
0.375000 0.750000 1.000000
0.500000 0.750000 1.000000
0.625000 0.750000 1.000000
0.750000 0.750000 1.000000
0.875000 0.750000 1.000000
1.000000 0.750000 1.000000
0.000000 0.875000 1.000000
0.125000 0.875000 1.000000
0.250000 0.875000 1.000000
0.375000 0.875000 1.000000
0.500000 0.875000 1.000000
0.625000 0.875000 1.000000
0.750000 0.875000 1.000000
0.875000 0.875000 1.000000
1.000000 0.875000 1.000000
0.000000 1.000000 1.000000
0.125000 1.000000 1.000000
0.250000 1.000000 1.000000
0.375000 1.000000 1.000000
0.500000 1.000000 1.000000
0.625000 1.000000 1.000000
0.750000 1.000000 1.000000
0.875000 1.000000 1.000000
1.000000 1.000000 1.000000
