assets/LUTs/skintone_espresso_deep_33.cube
TITLE "SkinTone Espresso Deep"
# Deepest of the set: rich espresso-brown skin, heavy density, hue pulled hard to red-brown. Moody and dark.
# Skin-tone selective LUT. Apply to display-referred Rec.709/sRGB (SDR) footage.
# Generated 2026-07-10 with Claude Code.
LUT_3D_SIZE 9
DOMAIN_MIN 0.0 0.0 0.0
DOMAIN_MAX 1.0 1.0 1.0
0.000000 0.000000 0.000000
0.117617 0.000000 0.000000
0.241563 0.000000 0.000000
0.369727 0.000000 0.000000
0.500000 0.000000 0.000000
0.630273 0.000000 0.000000
0.758437 0.000000 0.000000
0.882383 0.000000 0.000000
1.000000 0.000000 0.000000
0.000000 0.117617 0.000000
0.117617 0.117617 0.000000
0.241563 0.120781 0.000000
0.369727 0.123242 0.000000
0.500000 0.125000 0.000000
0.630273 0.126055 0.000000
0.758437 0.126406 0.000000
0.882383 0.126055 0.000000
1.000000 0.125000 0.000000
0.000000 0.241563 0.000000
0.120781 0.241563 0.000000
0.241563 0.241563 0.000000
0.369727 0.246484 0.000000
0.500000 0.250000 0.000000
0.630273 0.252109 0.000000
0.758437 0.252813 0.000000
0.882383 0.252109 0.000000
1.000000 0.250000 0.000000
0.000000 0.369727 0.000000
0.123242 0.369727 0.000000
0.246484 0.369727 0.000000
0.369727 0.369727 0.000000
0.500000 0.375000 0.000000
0.630273 0.378164 0.000000
0.758437 0.379219 0.000000
0.882383 0.378164 0.000000
1.000000 0.375000 0.000000
0.000000 0.500000 0.000000
0.125000 0.500000 0.000000
0.250000 0.500000 0.000000
0.375000 0.500000 0.000000
0.500000 0.500000 0.000000
0.630273 0.504219 0.000000
0.758437 0.505625 0.000000
0.882383 0.504219 0.000000
1.000000 0.500000 0.000000
0.000000 0.630273 0.000000
0.126055 0.630273 0.000000
0.252109 0.630273 0.000000
0.378164 0.630273 0.000000
0.504219 0.630273 0.000000
0.630273 0.630273 0.000000
0.758437 0.632031 0.000000
0.882383 0.630273 0.000000
1.000000 0.625000 0.000000
0.000000 0.758437 0.000000
0.126406 0.758437 0.000000
0.252813 0.758437 0.000000
0.379219 0.758437 0.000000
0.505625 0.758437 0.000000
0.632031 0.758437 0.000000
0.758437 0.758437 0.000000
0.882383 0.756328 0.000000
1.000000 0.750000 0.000000
0.000000 0.882383 0.000000
0.126055 0.882383 0.000000
0.252109 0.882383 0.000000
0.378164 0.882383 0.000000
0.504219 0.882383 0.000000
0.630273 0.882383 0.000000
0.756328 0.882383 0.000000
0.882383 0.882383 0.000000
1.000000 0.875000 0.000000
0.000000 1.000000 0.000000
0.125000 1.000000 0.000000
0.250000 1.000000 0.000000
0.375000 1.000000 0.000000
0.500000 1.000000 0.000000
0.625000 1.000000 0.000000
0.750000 1.000000 0.000000
0.875000 1.000000 0.000000
1.000000 1.000000 0.000000
0.000000 0.000000 0.117617
0.117617 0.000000 0.117617
0.241563 0.000000 0.120781
0.369727 0.000000 0.123242
0.500000 0.000000 0.125000
0.630273 0.000000 0.126055
0.758437 0.000000 0.126406
0.882383 0.000000 0.126055
1.000000 0.000000 0.125000
0.000000 0.117617 0.117617
0.117617 0.117617 0.117617
0.106852 0.056087 0.043323
0.207629 0.082887 0.051951
0.376126 0.117290 0.075625
0.561859 0.137042 0.098194
0.728843 0.142275 0.112172
0.873912 0.139543 0.119491
1.000000 0.125000 0.125000
0.000000 0.241563 0.120781
0.120781 0.241563 0.120781
0.110665 0.078897 0.045323
0.200873 0.100724 0.049298
0.369992 0.164553 0.073348
0.558132 0.216891 0.096731
0.727166 0.243887 0.111379
0.873426 0.253566 0.119116
1.000000 0.250000 0.125000
0.000000 0.369727 0.123242
0.123242 0.369727 0.123242
0.246484 0.369727 0.123242
0.212864 0.136488 0.054028
0.369992 0.212257 0.073348
0.558132 0.296165 0.096731
0.727166 0.344604 0.111379
0.873426 0.366810 0.119116
1.000000 0.375000 0.125000
0.000000 0.500000 0.125000
0.125000 0.500000 0.125000
0.250000 0.500000 0.125000
0.381291 0.493558 0.122285
0.380807 0.269886 0.077375
0.558132 0.372460 0.096731
0.727166 0.445279 0.111379
0.873426 0.480055 0.119116
1.000000 0.500000 0.125000
0.000000 0.630273 0.126055
0.126055 0.630273 0.126055
0.252109 0.630273 0.126055
0.378164 0.630273 0.126055
0.532447 0.614745 0.119568
0.564678 0.444096 0.099304
0.727166 0.534480 0.111379
0.873426 0.590603 0.119116
1.000000 0.625000 0.125000
0.000000 0.758437 0.126406
0.126406 0.758437 0.126406
0.252813 0.758437 0.126406
0.379219 0.758437 0.126406
0.505625 0.758437 0.126406
0.671524 0.747513 0.121100
0.730106 0.628691 0.112771
0.873426 0.693101 0.119116
1.000000 0.750000 0.125000
0.000000 0.882383 0.126055
0.126055 0.882383 0.126055
0.252109 0.882383 0.126055
0.378164 0.882383 0.126055
0.504219 0.882383 0.126055
0.634401 0.881994 0.125752
0.793291 0.878365 0.122932
0.874278 0.804347 0.119773
1.000000 0.875000 0.125000
0.000000 1.000000 0.125000
0.125000 1.000000 0.125000
0.250000 1.000000 0.125000
0.375000 1.000000 0.125000
0.500000 1.000000 0.125000
0.625000 1.000000 0.125000
0.750000 1.000000 0.125000
0.875000 1.000000 0.125000
1.000000 1.000000 0.125000
0.000000 0.000000 0.241563
0.120781 0.000000 0.241563
0.241563 0.000000 0.241563
0.369727 0.000000 0.246484
0.500000 0.000000 0.250000
0.630273 0.000000 0.252109
0.758437 0.000000 0.252812
0.882383 0.000000 0.252109
1.000000 0.000000 0.250000
0.000000 0.120781 0.241563
0.120781 0.120781 0.241563
0.241563 0.120781 0.241563
0.369727 0.123242 0.246484
0.500000 0.125000 0.250000
0.628412 0.125272 0.249003
0.753791 0.124142 0.241951
0.879931 0.124148 0.240899
1.000000 0.125000 0.250000
0.000000 0.241563 0.241563
0.120781 0.241563 0.241563
0.241563 0.241563 0.241563
0.206312 0.137496 0.120193
0.330897 0.173690 0.134162
0.477765 0.214049 0.147740
0.643949 0.257068 0.161122
0.830450 0.291506 0.184370
1.000000 0.250000 0.250000
0.000000 0.369727 0.246484
0.123242 0.369727 0.246484
0.246484 0.369727 0.246484
0.211571 0.168992 0.123991
0.323108 0.194672 0.129243
0.470138 0.239723 0.142922
0.637831 0.288760 0.156536
0.827524 0.343416 0.180682
1.000000 0.375000 0.250000
0.000000 0.500000 0.250000
0.125000 0.500000 0.250000
0.250000 0.500000 0.250000
0.375000 0.500000 0.250000
0.336880 0.240175 0.137969
0.470138 0.266991 0.142922
0.637831 0.319830 0.156536
0.827524 0.392706 0.180682
1.000000 0.500000 0.250000
0.000000 0.630273 0.252109
0.126055 0.630273 0.252109
0.252109 0.630273 0.252109
0.378164 0.630273 0.252109
0.513940 0.622420 0.246385
0.483581 0.322104 0.151442
0.637831 0.350900 0.156536
0.827524 0.441995 0.180682
1.000000 0.625000 0.250000
0.000000 0.758437 0.252813
0.126406 0.758437 0.252813
0.252813 0.758437 0.252813
0.379219 0.758437 0.252813
0.505625 0.758437 0.252813
0.706434 0.732127 0.230776
0.648585 0.415873 0.164620
0.827524 0.491285 0.180682
1.000000 0.750000 0.250000
0.000000 0.882383 0.252109
0.126055 0.882383 0.252109
0.252109 0.882383 0.252109
0.378164 0.882383 0.252109
0.504219 0.882383 0.252109
0.630273 0.882383 0.252109
0.863153 0.820293 0.226523
0.832656 0.567210 0.187159
1.000000 0.875000 0.250000
0.000000 1.000000 0.250000
0.125000 1.000000 0.250000
0.250000 1.000000 0.250000
0.375000 1.000000 0.250000
0.500000 1.000000 0.250000
0.625000 1.000000 0.250000
0.750000 1.000000 0.250000
0.875000 1.000000 0.250000
1.000000 1.000000 0.250000
0.000000 0.000000 0.369727
0.123242 0.000000 0.369727
0.246484 0.000000 0.369727
0.369727 0.000000 0.369727
0.500000 0.000000 0.375000
0.630273 0.000000 0.378164
0.758437 0.000000 0.379219
0.882383 0.000000 0.378164
1.000000 0.000000 0.375000
0.000000 0.123242 0.369727
0.123242 0.123242 0.369727
0.246484 0.123242 0.369727
0.369727 0.123242 0.369727
0.500000 0.125000 0.375000
0.630273 0.126055 0.378164
0.758437 0.126406 0.379219
0.882383 0.126055 0.378164
1.000000 0.125000 0.375000
0.000000 0.246484 0.369727
0.123242 0.246484 0.369727
0.246484 0.246484 0.369727
0.369727 0.246484 0.369727
0.500000 0.250000 0.375000
0.630273 0.252109 0.378164
0.755274 0.250133 0.371528
0.874197 0.241145 0.340019
1.000000 0.250000 0.375000
0.000000 0.369727 0.369727
0.123242 0.369727 0.369727
0.246484 0.369727 0.369727
0.369727 0.369727 0.369727
0.330897 0.233829 0.209423
0.477765 0.290403 0.243293
0.642769 0.337393 0.260610
0.821995 0.384041 0.278957
1.000000 0.375000 0.375000
0.000000 0.500000 0.375000
0.125000 0.500000 0.375000
0.250000 0.500000 0.375000
0.375000 0.500000 0.375000
0.336880 0.277535 0.214813
0.470138 0.315651 0.236950
0.636594 0.367633 0.254637
0.818607 0.422973 0.273598
1.000000 0.500000 0.375000
0.000000 0.630273 0.378164
0.126055 0.630273 0.378164
0.252109 0.630273 0.378164
0.378164 0.630273 0.378164
0.504219 0.630273 0.378164
0.483581 0.369124 0.248158
0.636594 0.399463 0.254637
0.818607 0.460804 0.273598
1.000000 0.625000 0.375000
0.000000 0.758437 0.379219
0.126406 0.758437 0.379219
0.252813 0.758437 0.379219
0.379219 0.758437 0.379219
0.505625 0.758437 0.379219
0.643272 0.752795 0.373144
0.647449 0.461591 0.265162
0.818607 0.498635 0.273598
1.000000 0.750000 0.375000
0.000000 0.882383 0.378164
0.126055 0.882383 0.378164
0.252109 0.882383 0.378164
0.378164 0.882383 0.378164
0.504219 0.882383 0.378164
0.630273 0.882383 0.378164
0.839979 0.868966 0.355516
0.824551 0.570976 0.283013
1.000000 0.875000 0.375000
0.000000 1.000000 0.375000
0.125000 1.000000 0.375000
0.250000 1.000000 0.375000
0.375000 1.000000 0.375000
0.500000 1.000000 0.375000
0.625000 1.000000 0.375000
0.750000 1.000000 0.375000
0.875000 1.000000 0.375000
1.000000 1.000000 0.375000
0.000000 0.000000 0.500000
0.125000 0.000000 0.500000
0.250000 0.000000 0.500000
0.375000 0.000000 0.500000
0.500000 0.000000 0.500000
0.630273 0.000000 0.504219
0.758437 0.000000 0.505625
0.882383 0.000000 0.504219
1.000000 0.000000 0.500000
0.000000 0.125000 0.500000
0.125000 0.125000 0.500000
0.250000 0.125000 0.500000
0.375000 0.125000 0.500000
0.500000 0.125000 0.500000
0.630273 0.126055 0.504219
0.758437 0.126406 0.505625
0.882383 0.126055 0.504219
1.000000 0.125000 0.500000
0.000000 0.250000 0.500000
0.125000 0.250000 0.500000
0.250000 0.250000 0.500000
0.375000 0.250000 0.500000
0.500000 0.250000 0.500000
0.630273 0.252109 0.504219
0.758437 0.252813 0.505625
0.882383 0.252109 0.504219
1.000000 0.250000 0.500000
0.000000 0.375000 0.500000
0.125000 0.375000 0.500000
0.250000 0.375000 0.500000
0.375000 0.375000 0.500000
0.500000 0.375000 0.500000
0.630273 0.378164 0.504219
0.758437 0.379219 0.505625
0.880783 0.375445 0.497015
1.000000 0.375000 0.500000
0.000000 0.500000 0.500000
0.125000 0.500000 0.500000
0.250000 0.500000 0.500000
0.375000 0.500000 0.500000
0.500000 0.500000 0.500000
0.477765 0.341220 0.306887
0.642769 0.428372 0.374464
0.821995 0.478746 0.396385
1.000000 0.500000 0.500000
0.000000 0.630273 0.504219
0.126055 0.630273 0.504219
0.252109 0.630273 0.504219
0.378164 0.630273 0.504219
0.504219 0.630273 0.504219
0.483581 0.401572 0.314898
0.636594 0.458524 0.367810
0.818607 0.517770 0.390542
1.000000 0.625000 0.500000
0.000000 0.758437 0.505625
0.126406 0.758437 0.505625
0.252813 0.758437 0.505625
0.379219 0.758437 0.505625
0.505625 0.758437 0.505625
0.632031 0.758437 0.505625
0.647449 0.517148 0.379436
0.818607 0.557388 0.390542
1.000000 0.750000 0.500000
0.000000 0.882383 0.504219
0.126055 0.882383 0.504219
0.252109 0.882383 0.504219
0.378164 0.882383 0.504219
0.504219 0.882383 0.504219
0.630273 0.882383 0.504219
0.769148 0.879557 0.499017
0.824551 0.626133 0.400806
1.000000 0.875000 0.500000
0.000000 1.000000 0.500000
0.125000 1.000000 0.500000
0.250000 1.000000 0.500000
0.375000 1.000000 0.500000
0.500000 1.000000 0.500000
0.625000 1.000000 0.500000
0.750000 1.000000 0.500000
0.875000 1.000000 0.500000
1.000000 1.000000 0.500000
0.000000 0.000000 0.630273
0.126055 0.000000 0.630273
0.252109 0.000000 0.630273
0.378164 0.000000 0.630273
0.504219 0.000000 0.630273
0.630273 0.000000 0.630273
0.758437 0.000000 0.632031
0.882383 0.000000 0.630273
1.000000 0.000000 0.625000
0.000000 0.126055 0.630273
0.126055 0.126055 0.630273
0.252109 0.126055 0.630273
0.378164 0.126055 0.630273
0.504219 0.126055 0.630273
0.630273 0.126055 0.630273
0.758437 0.126406 0.632031
0.882383 0.126055 0.630273
1.000000 0.125000 0.625000
0.000000 0.252109 0.630273
0.126055 0.252109 0.630273
0.252109 0.252109 0.630273
0.378164 0.252109 0.630273
0.504219 0.252109 0.630273
0.630273 0.252109 0.630273
0.758437 0.252813 0.632031
0.882383 0.252109 0.630273
1.000000 0.250000 0.625000
0.000000 0.378164 0.630273
0.126055 0.378164 0.630273
0.252109 0.378164 0.630273
0.378164 0.378164 0.630273
0.504219 0.378164 0.630273
0.630273 0.378164 0.630273
0.758437 0.379219 0.632031
0.882383 0.378164 0.630273
1.000000 0.375000 0.625000
0.000000 0.504219 0.630273
0.126055 0.504219 0.630273
0.252109 0.504219 0.630273
0.378164 0.504219 0.630273
0.504219 0.504219 0.630273
0.630273 0.504219 0.630273
0.758437 0.505625 0.632031
0.882383 0.504219 0.630273
1.000000 0.500000 0.625000
0.000000 0.630273 0.630273
0.126055 0.630273 0.630273
0.252109 0.630273 0.630273
0.378164 0.630273 0.630273
0.504219 0.630273 0.630273
0.630273 0.630273 0.630273
0.645939 0.468767 0.425846
0.821995 0.571641 0.511569
1.000000 0.625000 0.625000
0.000000 0.758437 0.632031
0.126406 0.758437 0.632031
0.252813 0.758437 0.632031
0.379219 0.758437 0.632031
0.505625 0.758437 0.632031
0.632031 0.758437 0.632031
0.650501 0.549393 0.436235
0.818607 0.613575 0.506301
1.000000 0.750000 0.625000
0.000000 0.882383 0.630273
0.126055 0.882383 0.630273
0.252109 0.882383 0.630273
0.378164 0.882383 0.630273
0.504219 0.882383 0.630273
0.630273 0.882383 0.630273
0.756328 0.882383 0.630273
0.824551 0.679938 0.515714
1.000000 0.875000 0.625000
0.000000 1.000000 0.625000
0.125000 1.000000 0.625000
0.250000 1.000000 0.625000
0.375000 1.000000 0.625000
0.500000 1.000000 0.625000
0.625000 1.000000 0.625000
0.750000 1.000000 0.625000
0.875000 1.000000 0.625000
1.000000 1.000000 0.625000
0.000000 0.000000 0.758437
0.126406 0.000000 0.758437
0.252812 0.000000 0.758437
0.379219 0.000000 0.758437
0.505625 0.000000 0.758437
0.632031 0.000000 0.758437
0.758437 0.000000 0.758437
0.882383 0.000000 0.756328
1.000000 0.000000 0.750000
0.000000 0.126406 0.758437
0.126406 0.126406 0.758437
0.252813 0.126406 0.758437
0.379219 0.126406 0.758437
0.505625 0.126406 0.758437
0.632031 0.126406 0.758437
0.758437 0.126406 0.758437
0.882383 0.126055 0.756328
1.000000 0.125000 0.750000
0.000000 0.252812 0.758437
0.126406 0.252813 0.758437
0.252813 0.252813 0.758437
0.379219 0.252813 0.758437
0.505625 0.252813 0.758437
0.632031 0.252813 0.758437
0.758437 0.252813 0.758437
0.882383 0.252109 0.756328
1.000000 0.250000 0.750000
0.000000 0.379219 0.758437
0.126406 0.379219 0.758437
0.252813 0.379219 0.758437
0.379219 0.379219 0.758437
0.505625 0.379219 0.758437
0.632031 0.379219 0.758437
0.758437 0.379219 0.758437
0.882383 0.378164 0.756328
1.000000 0.375000 0.750000
0.000000 0.505625 0.758437
0.126406 0.505625 0.758437
0.252813 0.505625 0.758437
0.379219 0.505625 0.758437
0.505625 0.505625 0.758437
0.632031 0.505625 0.758437
0.758437 0.505625 0.758437
0.882383 0.504219 0.756328
1.000000 0.500000 0.750000
0.000000 0.632031 0.758437
0.126406 0.632031 0.758437
0.252813 0.632031 0.758437
0.379219 0.632031 0.758437
0.505625 0.632031 0.758437
0.632031 0.632031 0.758437
0.758437 0.632031 0.758437
0.882383 0.630273 0.756328
1.000000 0.625000 0.750000
0.000000 0.758437 0.758437
0.126406 0.758437 0.758437
0.252813 0.758437 0.758437
0.379219 0.758437 0.758437
0.505625 0.758437 0.758437
0.632031 0.758437 0.758437
0.758437 0.758437 0.758437
0.833727 0.643830 0.608958
1.000000 0.750000 0.750000
0.000000 0.882383 0.756328
0.126055 0.882383 0.756328
0.252109 0.882383 0.756328
0.378164 0.882383 0.756328
0.504219 0.882383 0.756328
0.630273 0.882383 0.756328
0.756328 0.882383 0.756328
0.835797 0.750211 0.617931
1.000000 0.875000 0.750000
0.000000 1.000000 0.750000
0.125000 1.000000 0.750000
0.250000 1.000000 0.750000
0.375000 1.000000 0.750000
0.500000 1.000000 0.750000
0.625000 1.000000 0.750000
0.750000 1.000000 0.750000
0.875000 1.000000 0.750000
1.000000 1.000000 0.750000
0.000000 0.000000 0.882383
0.126055 0.000000 0.882383
0.252109 0.000000 0.882383
0.378164 0.000000 0.882383
0.504219 0.000000 0.882383
0.630273 0.000000 0.882383
0.756328 0.000000 0.882383
0.882383 0.000000 0.882383
1.000000 0.000000 0.875000
0.000000 0.126055 0.882383
0.126055 0.126055 0.882383
0.252109 0.126055 0.882383
0.378164 0.126055 0.882383
0.504219 0.126055 0.882383
0.630273 0.126055 0.882383
0.756328 0.126055 0.882383
0.882383 0.126055 0.882383
1.000000 0.125000 0.875000
0.000000 0.252109 0.882383
0.126055 0.252109 0.882383
0.252109 0.252109 0.882383
0.378164 0.252109 0.882383
0.504219 0.252109 0.882383
0.630273 0.252109 0.882383
0.756328 0.252109 0.882383
0.882383 0.252109 0.882383
1.000000 0.250000 0.875000
0.000000 0.378164 0.882383
0.126055 0.378164 0.882383
0.252109 0.378164 0.882383
0.378164 0.378164 0.882383
0.504219 0.378164 0.882383
0.630273 0.378164 0.882383
0.756328 0.378164 0.882383
0.882383 0.378164 0.882383
1.000000 0.375000 0.875000
0.000000 0.504219 0.882383
0.126055 0.504219 0.882383
0.252109 0.504219 0.882383
0.378164 0.504219 0.882383
0.504219 0.504219 0.882383
0.630273 0.504219 0.882383
0.756328 0.504219 0.882383
0.882383 0.504219 0.882383
1.000000 0.500000 0.875000
0.000000 0.630273 0.882383
0.126055 0.630273 0.882383
0.252109 0.630273 0.882383
0.378164 0.630273 0.882383
0.504219 0.630273 0.882383
0.630273 0.630273 0.882383
0.756328 0.630273 0.882383
0.882383 0.630273 0.882383
1.000000 0.625000 0.875000
0.000000 0.756328 0.882383
0.126055 0.756328 0.882383
0.252109 0.756328 0.882383
0.378164 0.756328 0.882383
0.504219 0.756328 0.882383
0.630273 0.756328 0.882383
0.756328 0.756328 0.882383
0.882383 0.756328 0.882383
1.000000 0.750000 0.875000
0.000000 0.882383 0.882383
0.126055 0.882383 0.882383
0.252109 0.882383 0.882383
0.378164 0.882383 0.882383
0.504219 0.882383 0.882383
0.630273 0.882383 0.882383
0.756328 0.882383 0.882383
0.882383 0.882383 0.882383
1.000000 0.875000 0.875000
0.000000 1.000000 0.875000
0.125000 1.000000 0.875000
0.250000 1.000000 0.875000
0.375000 1.000000 0.875000
0.500000 1.000000 0.875000
0.625000 1.000000 0.875000
0.750000 1.000000 0.875000
0.875000 1.000000 0.875000
1.000000 1.000000 0.875000
0.000000 0.000000 1.000000
0.125000 0.000000 1.000000
0.250000 0.000000 1.000000
0.375000 0.000000 1.000000
0.500000 0.000000 1.000000
0.625000 0.000000 1.000000
0.750000 0.000000 1.000000
0.875000 0.000000 1.000000
1.000000 0.000000 1.000000
0.000000 0.125000 1.000000
0.125000 0.125000 1.000000
0.250000 0.125000 1.000000
0.375000 0.125000 1.000000
0.500000 0.125000 1.000000
0.625000 0.125000 1.000000
0.750000 0.125000 1.000000
0.875000 0.125000 1.000000
1.000000 0.125000 1.000000
0.000000 0.250000 1.000000
0.125000 0.250000 1.000000
0.250000 0.250000 1.000000
0.375000 0.250000 1.000000
0.500000 0.250000 1.000000
0.625000 0.250000 1.000000
0.750000 0.250000 1.000000
0.875000 0.250000 1.000000
1.000000 0.250000 1.000000
0.000000 0.375000 1.000000
0.125000 0.375000 1.000000
0.250000 0.375000 1.000000
0.375000 0.375000 1.000000
0.500000 0.375000 1.000000
0.625000 0.375000 1.000000
0.750000 0.375000 1.000000
0.875000 0.375000 1.000000
1.000000 0.375000 1.000000
0.000000 0.500000 1.000000
0.125000 0.500000 1.000000
0.250000 0.500000 1.000000
0.375000 0.500000 1.000000
0.500000 0.500000 1.000000
0.625000 0.500000 1.000000
0.750000 0.500000 1.000000
0.875000 0.500000 1.000000
1.000000 0.500000 1.000000
0.000000 0.625000 1.000000
0.125000 0.625000 1.000000
0.250000 0.625000 1.000000
0.375000 0.625000 1.000000
0.500000 0.625000 1.000000
0.625000 0.625000 1.000000
0.750000 0.625000 1.000000
0.875000 0.625000 1.000000
1.000000 0.625000 1.000000
0.000000 0.750000 1.000000
0.125000 0.750000 1.000000
0.250000 0.750000 1.000000
0.375000 0.750000 1.000000
0.500000 0.750000 1.000000
0.625000 0.750000 1.000000
0.750000 0.750000 1.000000
0.875000 0.750000 1.000000
1.000000 0.750000 1.000000
0.000000 0.875000 1.000000
0.125000 0.875000 1.000000
0.250000 0.875000 1.000000
0.375000 0.875000 1.000000
0.500000 0.875000 1.000000
0.625000 0.875000 1.000000
0.750000 0.875000 1.000000
0.875000 0.875000 1.000000
1.000000 0.875000 1.000000
0.000000 1.000000 1.000000
0.125000 1.000000 1.000000
0.250000 1.000000 1.000000
0.375000 1.000000 1.000000
0.500000 1.000000 1.000000
0.625000 1.000000 1.000000
0.750000 1.000000 1.000000
0.875000 1.000000 1.000000
1.000000 1.000000 1.000000
