assets/LUTs/skintone_caramel_cream_33.cube
TITLE "SkinTone Caramel Cream"
# Desaturated caramel: converges all skin saturation toward one muted caramel level -- yellows calm down, pale skin fills in, nothing goes vivid. Creamy, not golden.
# Skin-tone selective LUT. Apply to display-referred Rec.709/sRGB (SDR) footage.
# Generated 2026-07-10 with Claude Code.
LUT_3D_SIZE 5
DOMAIN_MIN 0.0 0.0 0.0
DOMAIN_MAX 1.0 1.0 1.0
0.000000 0.000000 0.000000
0.245312 0.000000 0.000000
0.500000 0.000000 0.000000
0.754687 0.000000 0.000000
1.000000 0.000000 0.000000
0.000000 0.245312 0.000000
0.245312 0.245312 0.000000
0.500000 0.250000 0.000000
0.754687 0.251563 0.000000
1.000000 0.250000 0.000000
0.000000 0.500000 0.000000
0.250000 0.500000 0.000000
0.500000 0.500000 0.000000
0.754687 0.503125 0.000000
1.000000 0.500000 0.000000
0.000000 0.754687 0.000000
0.251563 0.754687 0.000000
0.503125 0.754687 0.000000
0.754687 0.754687 0.000000
1.000000 0.750000 0.000000
0.000000 1.000000 0.000000
0.250000 1.000000 0.000000
0.500000 1.000000 0.000000
0.750000 1.000000 0.000000
1.000000 1.000000 0.000000
0.000000 0.000000 0.245312
0.245312 0.000000 0.245312
0.500000 0.000000 0.250000
0.754687 0.000000 0.251562
1.000000 0.000000 0.250000
0.000000 0.245312 0.245312
0.245312 0.245312 0.245312
0.494601 0.253204 0.247301
0.751413 0.262299 0.250471
1.000000 0.250000 0.250000
0.000000 0.500000 0.250000
0.250000 0.500000 0.250000
0.448417 0.378219 0.262822
0.721021 0.521561 0.358005
1.000000 0.500000 0.250000
0.000000 0.754687 0.251563
0.251563 0.754687 0.251563
0.503125 0.754687 0.251563
0.722448 0.583688 0.353617
1.000000 0.750000 0.250000
0.000000 1.000000 0.250000
0.250000 1.000000 0.250000
0.500000 1.000000 0.250000
0.750000 1.000000 0.250000
1.000000 1.000000 0.250000
0.000000 0.000000 0.500000
0.250000 0.000000 0.500000
0.500000 0.000000 0.500000
0.754687 0.000000 0.503125
1.000000 0.000000 0.500000
0.000000 0.250000 0.500000
0.250000 0.250000 0.500000
0.500000 0.250000 0.500000
0.754687 0.251563 0.503125
1.000000 0.250000 0.500000
0.000000 0.500000 0.500000
0.250000 0.500000 0.500000
0.500000 0.500000 0.500000
0.751377 0.506897 0.500918
1.000000 0.500000 0.500000
0.000000 0.754687 0.503125
0.251563 0.754687 0.503125
0.503125 0.754687 0.503125
0.722098 0.634977 0.491762
1.000000 0.750000 0.500000
0.000000 1.000000 0.500000
0.250000 1.000000 0.500000
0.500000 1.000000 0.500000
0.750000 1.000000 0.500000
1.000000 1.000000 0.500000
0.000000 0.000000 0.754687
0.251562 0.000000 0.754687
0.503125 0.000000 0.754687
0.754687 0.000000 0.754687
1.000000 0.000000 0.750000
0.000000 0.251562 0.754687
0.251563 0.251563 0.754687
0.503125 0.251563 0.754687
0.754687 0.251563 0.754687
1.000000 0.250000 0.750000
0.000000 0.503125 0.754687
0.251563 0.503125 0.754687
0.503125 0.503125 0.754687
0.754687 0.503125 0.754687
1.000000 0.500000 0.750000
0.000000 0.754687 0.754687
0.251563 0.754687 0.754687
0.503125 0.754687 0.754687
0.754687 0.754687 0.754687
1.000000 0.750000 0.750000
0.000000 1.000000 0.750000
0.250000 1.000000 0.750000
0.500000 1.000000 0.750000
0.750000 1.000000 0.750000
1.000000 1.000000 0.750000
0.000000 0.000000 1.000000
0.250000 0.000000 1.000000
0.500000 0.000000 1.000000
0.750000 0.000000 1.000000
1.000000 0.000000 1.000000
0.000000 0.250000 1.000000
0.250000 0.250000 1.000000
0.500000 0.250000 1.000000
0.750000 0.250000 1.000000
1.000000 0.250000 1.000000
0.000000 0.500000 1.000000
0.250000 0.500000 1.000000
0.500000 0.500000 1.000000
0.750000 0.500000 1.000000
1.000000 0.500000 1.000000
0.000000 0.750000 1.000000
0.250000 0.750000 1.000000
0.500000 0.750000 1.000000
0.750000 0.750000 1.000000
1.000000 0.750000 1.000000
0.000000 1.000000 1.000000
0.250000 1.000000 1.000000
0.500000 1.000000 1.000000
0.750000 1.000000 1.000000
1.000000 1.000000 1.000000
