assets/LUTs/skintone_tanline_pop_33.cube
TITLE "SkinTone Tanline Pop"
# Expands separation inside skin: tanned areas get deeper and more saturated, pale areas lighter and cleaner, so tan lines punch. Mild warm pull keeps it coherent.
# Skin-tone selective LUT. Apply to display-referred Rec.709/sRGB (SDR) footage.
# Generated 2026-07-10 with Claude Code.
LUT_3D_SIZE 9
DOMAIN_MIN 0.0 0.0 0.0
DOMAIN_MAX 1.0 1.0 1.0
0.000000 0.000000 0.000000
0.120898 0.000000 0.000000
0.245312 0.000000 0.000000
0.372070 0.000000 0.000000
0.500000 0.000000 0.000000
0.627930 0.000000 0.000000
0.754687 0.000000 0.000000
0.879102 0.000000 0.000000
1.000000 0.000000 0.000000
0.000000 0.120898 0.000000
0.120898 0.120898 0.000000
0.245312 0.122656 0.000000
0.372070 0.124023 0.000000
0.500000 0.125000 0.000000
0.627930 0.125586 0.000000
0.754687 0.125781 0.000000
0.879102 0.125586 0.000000
1.000000 0.125000 0.000000
0.000000 0.245312 0.000000
0.122656 0.245312 0.000000
0.245312 0.245312 0.000000
0.372070 0.248047 0.000000
0.500000 0.250000 0.000000
0.627930 0.251172 0.000000
0.754687 0.251563 0.000000
0.879102 0.251172 0.000000
1.000000 0.250000 0.000000
0.000000 0.372070 0.000000
0.124023 0.372070 0.000000
0.248047 0.372070 0.000000
0.372070 0.372070 0.000000
0.500000 0.375000 0.000000
0.627930 0.376758 0.000000
0.754687 0.377344 0.000000
0.879102 0.376758 0.000000
1.000000 0.375000 0.000000
0.000000 0.500000 0.000000
0.125000 0.500000 0.000000
0.250000 0.500000 0.000000
0.375000 0.500000 0.000000
0.500000 0.500000 0.000000
0.627930 0.502344 0.000000
0.754687 0.503125 0.000000
0.879102 0.502344 0.000000
1.000000 0.500000 0.000000
0.000000 0.627930 0.000000
0.125586 0.627930 0.000000
0.251172 0.627930 0.000000
0.376758 0.627930 0.000000
0.502344 0.627930 0.000000
0.627930 0.627930 0.000000
0.754687 0.628906 0.000000
0.879102 0.627930 0.000000
1.000000 0.625000 0.000000
0.000000 0.754687 0.000000
0.125781 0.754687 0.000000
0.251563 0.754687 0.000000
0.377344 0.754687 0.000000
0.503125 0.754687 0.000000
0.628906 0.754687 0.000000
0.754687 0.754687 0.000000
0.879102 0.753516 0.000000
1.000000 0.750000 0.000000
0.000000 0.879102 0.000000
0.125586 0.879102 0.000000
0.251172 0.879102 0.000000
0.376758 0.879102 0.000000
0.502344 0.879102 0.000000
0.627930 0.879102 0.000000
0.753516 0.879102 0.000000
0.879102 0.879102 0.000000
1.000000 0.875000 0.000000
0.000000 1.000000 0.000000
0.125000 1.000000 0.000000
0.250000 1.000000 0.000000
0.375000 1.000000 0.000000
0.500000 1.000000 0.000000
0.625000 1.000000 0.000000
0.750000 1.000000 0.000000
0.875000 1.000000 0.000000
1.000000 1.000000 0.000000
0.000000 0.000000 0.120898
0.120898 0.000000 0.120898
0.245312 0.000000 0.122656
0.372070 0.000000 0.124023
0.500000 0.000000 0.125000
0.627930 0.000000 0.125586
0.754687 0.000000 0.125781
0.879102 0.000000 0.125586
1.000000 0.000000 0.125000
0.000000 0.120898 0.120898
0.120898 0.120898 0.120898
0.111578 0.053806 0.045827
0.243862 0.081436 0.059285
0.439416 0.115060 0.085418
0.615227 0.130669 0.104844
0.758501 0.133794 0.114818
0.883174 0.131841 0.119584
1.000000 0.125000 0.125000
0.000000 0.245312 0.122656
0.122656 0.245312 0.122656
0.118972 0.100011 0.049499
0.236234 0.137920 0.056222
0.435616 0.203587 0.083318
0.614395 0.240051 0.103675
0.758707 0.252228 0.114190
0.883410 0.253677 0.119239
1.000000 0.250000 0.125000
0.000000 0.372070 0.124023
0.124023 0.372070 0.124023
0.248047 0.372070 0.124023
0.251486 0.200260 0.062431
0.435616 0.292249 0.083318
0.614395 0.349096 0.103675
0.758707 0.370170 0.114190
0.883410 0.375142 0.119239
1.000000 0.375000 0.125000
0.000000 0.500000 0.125000
0.125000 0.500000 0.125000
0.250000 0.500000 0.125000
0.375962 0.499266 0.124440
0.443190 0.369222 0.087543
0.614395 0.451650 0.103675
0.758707 0.488048 0.114190
0.883410 0.496606 0.119239
1.000000 0.500000 0.125000
0.000000 0.627930 0.125586
0.125586 0.627930 0.125586
0.251172 0.627930 0.125586
0.376758 0.627930 0.125586
0.514855 0.626177 0.122322
0.616050 0.547326 0.106018
0.758707 0.596071 0.114190
0.883410 0.616562 0.119239
1.000000 0.625000 0.125000
0.000000 0.754687 0.125781
0.125781 0.754687 0.125781
0.251563 0.754687 0.125781
0.377344 0.754687 0.125781
0.503125 0.754687 0.125781
0.649161 0.755874 0.122489
0.758293 0.706125 0.115448
0.883410 0.730476 0.119239
1.000000 0.750000 0.125000
0.000000 0.879102 0.125586
0.125586 0.879102 0.125586
0.251172 0.879102 0.125586
0.376758 0.879102 0.125586
0.502344 0.879102 0.125586
0.628570 0.879155 0.125506
0.771898 0.880770 0.123113
0.882937 0.848682 0.119929
1.000000 0.875000 0.125000
0.000000 1.000000 0.125000
0.125000 1.000000 0.125000
0.250000 1.000000 0.125000
0.375000 1.000000 0.125000
0.500000 1.000000 0.125000
0.625000 1.000000 0.125000
0.750000 1.000000 0.125000
0.875000 1.000000 0.125000
1.000000 1.000000 0.125000
0.000000 0.000000 0.245312
0.122656 0.000000 0.245312
0.245312 0.000000 0.245312
0.372070 0.000000 0.248047
0.500000 0.000000 0.250000
0.627930 0.000000 0.251172
0.754687 0.000000 0.251562
0.879102 0.000000 0.251172
1.000000 0.000000 0.250000
0.000000 0.122656 0.245312
0.122656 0.122656 0.245312
0.245312 0.122656 0.245312
0.372070 0.124023 0.248047
0.500000 0.125000 0.250000
0.627642 0.125039 0.249583
0.755306 0.124077 0.245868
0.880273 0.123848 0.244819
1.000000 0.125000 0.250000
0.000000 0.245312 0.245312
0.122656 0.245312 0.245312
0.245312 0.245312 0.245312
0.242397 0.160452 0.149135
0.408982 0.197220 0.167977
0.591943 0.230701 0.180814
0.767306 0.256237 0.186539
0.905141 0.265537 0.194355
1.000000 0.250000 0.250000
0.000000 0.372070 0.248047
0.124023 0.372070 0.248047
0.248047 0.372070 0.248047
0.250108 0.224075 0.154723
0.403118 0.272080 0.163414
0.589291 0.319097 0.176781
0.767785 0.352618 0.182726
0.906682 0.368639 0.191061
1.000000 0.375000 0.250000
0.000000 0.500000 0.250000
0.125000 0.500000 0.250000
0.250000 0.500000 0.250000
0.375000 0.500000 0.250000
0.414792 0.348685 0.172576
0.589291 0.408474 0.176781
0.767785 0.448252 0.182726
0.906682 0.470419 0.191061
1.000000 0.500000 0.250000
0.000000 0.627930 0.251172
0.125586 0.627930 0.251172
0.251172 0.627930 0.251172
0.376758 0.627930 0.251172
0.504190 0.627576 0.250250
0.594537 0.482725 0.184864
0.767785 0.540725 0.182726
0.906682 0.572200 0.191061
1.000000 0.625000 0.250000
0.000000 0.754687 0.251563
0.125781 0.754687 0.251563
0.251563 0.754687 0.251563
0.377344 0.754687 0.251563
0.503125 0.754687 0.251563
0.663806 0.757143 0.241696
0.766798 0.610606 0.190355
0.906682 0.660568 0.191061
1.000000 0.750000 0.250000
0.000000 0.879102 0.251172
0.125586 0.879102 0.251172
0.251172 0.879102 0.251172
0.376758 0.879102 0.251172
0.502344 0.879102 0.251172
0.627930 0.879102 0.251172
0.826108 0.886741 0.234245
0.903601 0.735075 0.197653
1.000000 0.875000 0.250000
0.000000 1.000000 0.250000
0.125000 1.000000 0.250000
0.250000 1.000000 0.250000
0.375000 1.000000 0.250000
0.500000 1.000000 0.250000
0.625000 1.000000 0.250000
0.750000 1.000000 0.250000
0.875000 1.000000 0.250000
1.000000 1.000000 0.250000
0.000000 0.000000 0.372070
0.124023 0.000000 0.372070
0.248047 0.000000 0.372070
0.372070 0.000000 0.372070
0.500000 0.000000 0.375000
0.627930 0.000000 0.376758
0.754687 0.000000 0.377344
0.879102 0.000000 0.376758
1.000000 0.000000 0.375000
0.000000 0.124023 0.372070
0.124023 0.124023 0.372070
0.248047 0.124023 0.372070
0.372070 0.124023 0.372070
0.500000 0.125000 0.375000
0.627930 0.125586 0.376758
0.754687 0.125781 0.377344
0.879102 0.125586 0.376758
1.000000 0.125000 0.375000
0.000000 0.248047 0.372070
0.124023 0.248047 0.372070
0.248047 0.248047 0.372070
0.372070 0.248047 0.372070
0.500000 0.250000 0.375000
0.627930 0.251172 0.376758
0.755110 0.249921 0.373579
0.883036 0.242425 0.355190
1.000000 0.250000 0.375000
0.000000 0.372070 0.372070
0.124023 0.372070 0.372070
0.248047 0.372070 0.372070
0.372070 0.372070 0.372070
0.408982 0.312686 0.299388
0.591943 0.346924 0.313088
0.767400 0.370058 0.315187
0.909615 0.377641 0.307245
1.000000 0.375000 0.375000
0.000000 0.500000 0.375000
0.125000 0.500000 0.375000
0.250000 0.500000 0.375000
0.375000 0.500000 0.375000
0.414792 0.384624 0.304256
0.589291 0.436096 0.309055
0.767878 0.468806 0.311279
0.911426 0.479053 0.303025
1.000000 0.500000 0.375000
0.000000 0.627930 0.376758
0.125586 0.627930 0.376758
0.251172 0.627930 0.376758
0.376758 0.627930 0.376758
0.502344 0.627930 0.376758
0.594537 0.518815 0.317096
0.767878 0.567736 0.311279
0.911426 0.579880 0.303025
1.000000 0.625000 0.375000
0.000000 0.754687 0.377344
0.125781 0.754687 0.377344
0.251563 0.754687 0.377344
0.377344 0.754687 0.377344
0.503125 0.754687 0.377344
0.631198 0.754907 0.376596
0.766892 0.644668 0.319069
0.911426 0.677073 0.303025
1.000000 0.750000 0.375000
0.000000 0.879102 0.376758
0.125586 0.879102 0.376758
0.251172 0.879102 0.376758
0.376758 0.879102 0.376758
0.502344 0.879102 0.376758
0.627930 0.879102 0.376758
0.789102 0.883696 0.366464
0.907806 0.749050 0.311449
1.000000 0.875000 0.375000
0.000000 1.000000 0.375000
0.125000 1.000000 0.375000
0.250000 1.000000 0.375000
0.375000 1.000000 0.375000
0.500000 1.000000 0.375000
0.625000 1.000000 0.375000
0.750000 1.000000 0.375000
0.875000 1.000000 0.375000
1.000000 1.000000 0.375000
0.000000 0.000000 0.500000
0.125000 0.000000 0.500000
0.250000 0.000000 0.500000
0.375000 0.000000 0.500000
0.500000 0.000000 0.500000
0.627930 0.000000 0.502344
0.754687 0.000000 0.503125
0.879102 0.000000 0.502344
1.000000 0.000000 0.500000
0.000000 0.125000 0.500000
0.125000 0.125000 0.500000
0.250000 0.125000 0.500000
0.375000 0.125000 0.500000
0.500000 0.125000 0.500000
0.627930 0.125586 0.502344
0.754687 0.125781 0.503125
0.879102 0.125586 0.502344
1.000000 0.125000 0.500000
0.000000 0.250000 0.500000
0.125000 0.250000 0.500000
0.250000 0.250000 0.500000
0.375000 0.250000 0.500000
0.500000 0.250000 0.500000
0.627930 0.251172 0.502344
0.754687 0.251563 0.503125
0.879102 0.251172 0.502344
1.000000 0.250000 0.500000
0.000000 0.375000 0.500000
0.125000 0.375000 0.500000
0.250000 0.375000 0.500000
0.375000 0.375000 0.500000
0.500000 0.375000 0.500000
0.627930 0.376758 0.502344
0.754687 0.377344 0.503125
0.879865 0.375050 0.498686
1.000000 0.375000 0.500000
0.000000 0.500000 0.500000
0.125000 0.500000 0.500000
0.250000 0.500000 0.500000
0.375000 0.500000 0.500000
0.500000 0.500000 0.500000
0.591943 0.491556 0.477693
0.767400 0.507971 0.472145
0.909615 0.505418 0.451930
1.000000 0.500000 0.500000
0.000000 0.627930 0.502344
0.125586 0.627930 0.502344
0.251172 0.627930 0.502344
0.376758 0.627930 0.502344
0.502344 0.627930 0.502344
0.594537 0.563223 0.479804
0.767878 0.604939 0.469819
0.911426 0.608100 0.448637
1.000000 0.625000 0.500000
0.000000 0.754687 0.503125
0.125781 0.754687 0.503125
0.251563 0.754687 0.503125
0.377344 0.754687 0.503125
0.503125 0.754687 0.503125
0.628906 0.754687 0.503125
0.766892 0.687067 0.474417
0.911426 0.710361 0.448637
1.000000 0.750000 0.500000
0.000000 0.879102 0.502344
0.125586 0.879102 0.502344
0.251172 0.879102 0.502344
0.376758 0.879102 0.502344
0.502344 0.879102 0.502344
0.627930 0.879102 0.502344
0.755884 0.879493 0.501758
0.907806 0.787314 0.455186
1.000000 0.875000 0.500000
0.000000 1.000000 0.500000
0.125000 1.000000 0.500000
0.250000 1.000000 0.500000
0.375000 1.000000 0.500000
0.500000 1.000000 0.500000
0.625000 1.000000 0.500000
0.750000 1.000000 0.500000
0.875000 1.000000 0.500000
1.000000 1.000000 0.500000
0.000000 0.000000 0.627930
0.125586 0.000000 0.627930
0.251172 0.000000 0.627930
0.376758 0.000000 0.627930
0.502344 0.000000 0.627930
0.627930 0.000000 0.627930
0.754687 0.000000 0.628906
0.879102 0.000000 0.627930
1.000000 0.000000 0.625000
0.000000 0.125586 0.627930
0.125586 0.125586 0.627930
0.251172 0.125586 0.627930
0.376758 0.125586 0.627930
0.502344 0.125586 0.627930
0.627930 0.125586 0.627930
0.754687 0.125781 0.628906
0.879102 0.125586 0.627930
1.000000 0.125000 0.625000
0.000000 0.251172 0.627930
0.125586 0.251172 0.627930
0.251172 0.251172 0.627930
0.376758 0.251172 0.627930
0.502344 0.251172 0.627930
0.627930 0.251172 0.627930
0.754687 0.251563 0.628906
0.879102 0.251172 0.627930
1.000000 0.250000 0.625000
0.000000 0.376758 0.627930
0.125586 0.376758 0.627930
0.251172 0.376758 0.627930
0.376758 0.376758 0.627930
0.502344 0.376758 0.627930
0.627930 0.376758 0.627930
0.754687 0.377344 0.628906
0.879102 0.376758 0.627930
1.000000 0.375000 0.625000
0.000000 0.502344 0.627930
0.125586 0.502344 0.627930
0.251172 0.502344 0.627930
0.376758 0.502344 0.627930
0.502344 0.502344 0.627930
0.627930 0.502344 0.627930
0.754687 0.503125 0.628906
0.879102 0.502344 0.627930
1.000000 0.500000 0.625000
0.000000 0.627930 0.627930
0.125586 0.627930 0.627930
0.251172 0.627930 0.627930
0.376758 0.627930 0.627930
0.502344 0.627930 0.627930
0.627930 0.627930 0.627930
0.767400 0.672367 0.659243
0.909615 0.654382 0.620607
1.000000 0.625000 0.625000
0.000000 0.754687 0.628906
0.125781 0.754687 0.628906
0.251563 0.754687 0.628906
0.377344 0.754687 0.628906
0.503125 0.754687 0.628906
0.628906 0.754687 0.628906
0.766892 0.737167 0.657980
0.911426 0.752478 0.619750
1.000000 0.750000 0.625000
0.000000 0.879102 0.627930
0.125586 0.879102 0.627930
0.251172 0.879102 0.627930
0.376758 0.879102 0.627930
0.502344 0.879102 0.627930
0.627930 0.879102 0.627930
0.753516 0.879102 0.627930
0.907806 0.831567 0.621418
1.000000 0.875000 0.625000
0.000000 1.000000 0.625000
0.125000 1.000000 0.625000
0.250000 1.000000 0.625000
0.375000 1.000000 0.625000
0.500000 1.000000 0.625000
0.625000 1.000000 0.625000
0.750000 1.000000 0.625000
0.875000 1.000000 0.625000
1.000000 1.000000 0.625000
0.000000 0.000000 0.754687
0.125781 0.000000 0.754687
0.251562 0.000000 0.754687
0.377344 0.000000 0.754687
0.503125 0.000000 0.754687
0.628906 0.000000 0.754687
0.754687 0.000000 0.754687
0.879102 0.000000 0.753516
1.000000 0.000000 0.750000
0.000000 0.125781 0.754687
0.125781 0.125781 0.754687
0.251563 0.125781 0.754687
0.377344 0.125781 0.754687
0.503125 0.125781 0.754687
0.628906 0.125781 0.754687
0.754687 0.125781 0.754687
0.879102 0.125586 0.753516
1.000000 0.125000 0.750000
0.000000 0.251562 0.754687
0.125781 0.251563 0.754687
0.251563 0.251563 0.754687
0.377344 0.251563 0.754687
0.503125 0.251563 0.754687
0.628906 0.251563 0.754687
0.754687 0.251563 0.754687
0.879102 0.251172 0.753516
1.000000 0.250000 0.750000
0.000000 0.377344 0.754687
0.125781 0.377344 0.754687
0.251563 0.377344 0.754687
0.377344 0.377344 0.754687
0.503125 0.377344 0.754687
0.628906 0.377344 0.754687
0.754687 0.377344 0.754687
0.879102 0.376758 0.753516
1.000000 0.375000 0.750000
0.000000 0.503125 0.754687
0.125781 0.503125 0.754687
0.251563 0.503125 0.754687
0.377344 0.503125 0.754687
0.503125 0.503125 0.754687
0.628906 0.503125 0.754687
0.754687 0.503125 0.754687
0.879102 0.502344 0.753516
1.000000 0.500000 0.750000
0.000000 0.628906 0.754687
0.125781 0.628906 0.754687
0.251563 0.628906 0.754687
0.377344 0.628906 0.754687
0.503125 0.628906 0.754687
0.628906 0.628906 0.754687
0.754687 0.628906 0.754687
0.879102 0.627930 0.753516
1.000000 0.625000 0.750000
0.000000 0.754687 0.754687
0.125781 0.754687 0.754687
0.251563 0.754687 0.754687
0.377344 0.754687 0.754687
0.503125 0.754687 0.754687
0.628906 0.754687 0.754687
0.754687 0.754687 0.754687
0.909615 0.826122 0.815073
1.000000 0.750000 0.750000
0.000000 0.879102 0.753516
0.125586 0.879102 0.753516
0.251172 0.879102 0.753516
0.376758 0.879102 0.753516
0.502344 0.879102 0.753516
0.627930 0.879102 0.753516
0.753516 0.879102 0.753516
0.907806 0.882231 0.811733
1.000000 0.875000 0.750000
0.000000 1.000000 0.750000
0.125000 1.000000 0.750000
0.250000 1.000000 0.750000
0.375000 1.000000 0.750000
0.500000 1.000000 0.750000
0.625000 1.000000 0.750000
0.750000 1.000000 0.750000
0.875000 1.000000 0.750000
1.000000 1.000000 0.750000
0.000000 0.000000 0.879102
0.125586 0.000000 0.879102
0.251172 0.000000 0.879102
0.376758 0.000000 0.879102
0.502344 0.000000 0.879102
0.627930 0.000000 0.879102
0.753516 0.000000 0.879102
0.879102 0.000000 0.879102
1.000000 0.000000 0.875000
0.000000 0.125586 0.879102
0.125586 0.125586 0.879102
0.251172 0.125586 0.879102
0.376758 0.125586 0.879102
0.502344 0.125586 0.879102
0.627930 0.125586 0.879102
0.753516 0.125586 0.879102
0.879102 0.125586 0.879102
1.000000 0.125000 0.875000
0.000000 0.251172 0.879102
0.125586 0.251172 0.879102
0.251172 0.251172 0.879102
0.376758 0.251172 0.879102
0.502344 0.251172 0.879102
0.627930 0.251172 0.879102
0.753516 0.251172 0.879102
0.879102 0.251172 0.879102
1.000000 0.250000 0.875000
0.000000 0.376758 0.879102
0.125586 0.376758 0.879102
0.251172 0.376758 0.879102
0.376758 0.376758 0.879102
0.502344 0.376758 0.879102
0.627930 0.376758 0.879102
0.753516 0.376758 0.879102
0.879102 0.376758 0.879102
1.000000 0.375000 0.875000
0.000000 0.502344 0.879102
0.125586 0.502344 0.879102
0.251172 0.502344 0.879102
0.376758 0.502344 0.879102
0.502344 0.502344 0.879102
0.627930 0.502344 0.879102
0.753516 0.502344 0.879102
0.879102 0.502344 0.879102
1.000000 0.500000 0.875000
0.000000 0.627930 0.879102
0.125586 0.627930 0.879102
0.251172 0.627930 0.879102
0.376758 0.627930 0.879102
0.502344 0.627930 0.879102
0.627930 0.627930 0.879102
0.753516 0.627930 0.879102
0.879102 0.627930 0.879102
1.000000 0.625000 0.875000
0.000000 0.753516 0.879102
0.125586 0.753516 0.879102
0.251172 0.753516 0.879102
0.376758 0.753516 0.879102
0.502344 0.753516 0.879102
0.627930 0.753516 0.879102
0.753516 0.753516 0.879102
0.879102 0.753516 0.879102
1.000000 0.750000 0.875000
0.000000 0.879102 0.879102
0.125586 0.879102 0.879102
0.251172 0.879102 0.879102
0.376758 0.879102 0.879102
0.502344 0.879102 0.879102
0.627930 0.879102 0.879102
0.753516 0.879102 0.879102
0.879102 0.879102 0.879102
1.000000 0.875000 0.875000
0.000000 1.000000 0.875000
0.125000 1.000000 0.875000
0.250000 1.000000 0.875000
0.375000 1.000000 0.875000
0.500000 1.000000 0.875000
0.625000 1.000000 0.875000
0.750000 1.000000 0.875000
0.875000 1.000000 0.875000
1.000000 1.000000 0.875000
0.000000 0.000000 1.000000
0.125000 0.000000 1.000000
0.250000 0.000000 1.000000
0.375000 0.000000 1.000000
0.500000 0.000000 1.000000
0.625000 0.000000 1.000000
0.750000 0.000000 1.000000
0.875000 0.000000 1.000000
1.000000 0.000000 1.000000
0.000000 0.125000 1.000000
0.125000 0.125000 1.000000
0.250000 0.125000 1.000000
0.375000 0.125000 1.000000
0.500000 0.125000 1.000000
0.625000 0.125000 1.000000
0.750000 0.125000 1.000000
0.875000 0.125000 1.000000
1.000000 0.125000 1.000000
0.000000 0.250000 1.000000
0.125000 0.250000 1.000000
0.250000 0.250000 1.000000
0.375000 0.250000 1.000000
0.500000 0.250000 1.000000
0.625000 0.250000 1.000000
0.750000 0.250000 1.000000
0.875000 0.250000 1.000000
1.000000 0.250000 1.000000
0.000000 0.375000 1.000000
0.125000 0.375000 1.000000
0.250000 0.375000 1.000000
0.375000 0.375000 1.000000
0.500000 0.375000 1.000000
0.625000 0.375000 1.000000
0.750000 0.375000 1.000000
0.875000 0.375000 1.000000
1.000000 0.375000 1.000000
0.000000 0.500000 1.000000
0.125000 0.500000 1.000000
0.250000 0.500000 1.000000
0.375000 0.500000 1.000000
0.500000 0.500000 1.000000
0.625000 0.500000 1.000000
0.750000 0.500000 1.000000
0.875000 0.500000 1.000000
1.000000 0.500000 1.000000
0.000000 0.625000 1.000000
0.125000 0.625000 1.000000
0.250000 0.625000 1.000000
0.375000 0.625000 1.000000
0.500000 0.625000 1.000000
0.625000 0.625000 1.000000
0.750000 0.625000 1.000000
0.875000 0.625000 1.000000
1.000000 0.625000 1.000000
0.000000 0.750000 1.000000
0.125000 0.750000 1.000000
0.250000 0.750000 1.000000
0.375000 0.750000 1.000000
0.500000 0.750000 1.000000
0.625000 0.750000 1.000000
0.750000 0.750000 1.000000
0.875000 0.750000 1.000000
1.000000 0.750000 1.000000
0.000000 0.875000 1.000000
0.125000 0.875000 1.000000
0.250000 0.875000 1.000000
0.375000 0.875000 1.000000
0.500000 0.875000 1.000000
0.625000 0.875000 1.000000
0.750000 0.875000 1.000000
0.875000 0.875000 1.000000
1.000000 0.875000 1.000000
0.000000 1.000000 1.000000
0.125000 1.000000 1.000000
0.250000 1.000000 1.000000
0.375000 1.000000 1.000000
0.500000 1.000000 1.000000
0.625000 1.000000 1.000000
0.750000 1.000000 1.000000
0.875000 1.000000 1.000000
1.000000 1.000000 1.000000
