assets/LUTs/skintone_deep_tan_restore_33.cube
TITLE "SkinTone Deep Tan Restore"
# Maximum rescue: pale-yellow skin that should be deeply tanned. Hard de-yellow, hue to red-brown, big saturation build, and a bright pulldown that drags washed-out skin into tan territory.
# Skin-tone selective LUT. Apply to display-referred Rec.709/sRGB (SDR) footage.
# Generated 2026-07-10 with Claude Code.
LUT_3D_SIZE 5
DOMAIN_MIN 0.0 0.0 0.0
DOMAIN_MAX 1.0 1.0 1.0
0.000000 0.000000 0.000000
0.243438 0.000000 0.000000
0.500000 0.000000 0.000000
0.756563 0.000000 0.000000
1.000000 0.000000 0.000000
0.000000 0.243438 0.000000
0.243438 0.243438 0.000000
0.500000 0.250000 0.000000
0.756563 0.252188 0.000000
1.000000 0.250000 0.000000
0.000000 0.500000 0.000000
0.250000 0.500000 0.000000
0.500000 0.500000 0.000000
0.756563 0.504375 0.000000
1.000000 0.500000 0.000000
0.000000 0.756563 0.000000
0.252188 0.756563 0.000000
0.504375 0.756563 0.000000
0.756563 0.756563 0.000000
1.000000 0.750000 0.000000
0.000000 1.000000 0.000000
0.250000 1.000000 0.000000
0.500000 1.000000 0.000000
0.750000 1.000000 0.000000
1.000000 1.000000 0.000000
0.000000 0.000000 0.243438
0.243438 0.000000 0.243438
0.500000 0.000000 0.250000
0.756563 0.000000 0.252187
1.000000 0.000000 0.250000
0.000000 0.243438 0.243438
0.243438 0.243438 0.243438
0.351958 0.186446 0.133061
0.596911 0.246401 0.134979
1.000000 0.250000 0.250000
0.000000 0.500000 0.250000
0.250000 0.500000 0.250000
0.350077 0.241915 0.131699
0.594179 0.306426 0.132763
1.000000 0.500000 0.250000
0.000000 0.756563 0.252188
0.252188 0.756563 0.252188
0.504375 0.756563 0.252188
0.595245 0.368946 0.133630
1.000000 0.750000 0.250000
0.000000 1.000000 0.250000
0.250000 1.000000 0.250000
0.500000 1.000000 0.250000
0.750000 1.000000 0.250000
1.000000 1.000000 0.250000
0.000000 0.000000 0.500000
0.250000 0.000000 0.500000
0.500000 0.000000 0.500000
0.756563 0.000000 0.504375
1.000000 0.000000 0.500000
0.000000 0.250000 0.500000
0.250000 0.250000 0.500000
0.500000 0.250000 0.500000
0.756563 0.252188 0.504375
1.000000 0.250000 0.500000
0.000000 0.500000 0.500000
0.250000 0.500000 0.500000
0.500000 0.500000 0.500000
0.595697 0.384065 0.315804
1.000000 0.500000 0.500000
0.000000 0.756563 0.504375
0.252188 0.756563 0.504375
0.504375 0.756563 0.504375
0.594028 0.455488 0.314319
1.000000 0.750000 0.500000
0.000000 1.000000 0.500000
0.250000 1.000000 0.500000
0.500000 1.000000 0.500000
0.750000 1.000000 0.500000
1.000000 1.000000 0.500000
0.000000 0.000000 0.756563
0.252187 0.000000 0.756563
0.504375 0.000000 0.756563
0.756563 0.000000 0.756563
1.000000 0.000000 0.750000
0.000000 0.252187 0.756563
0.252188 0.252188 0.756563
0.504375 0.252188 0.756563
0.756563 0.252188 0.756563
1.000000 0.250000 0.750000
0.000000 0.504375 0.756563
0.252188 0.504375 0.756563
0.504375 0.504375 0.756563
0.756563 0.504375 0.756563
1.000000 0.500000 0.750000
0.000000 0.756563 0.756563
0.252188 0.756563 0.756563
0.504375 0.756563 0.756563
0.756563 0.756563 0.756563
1.000000 0.750000 0.750000
0.000000 1.000000 0.750000
0.250000 1.000000 0.750000
0.500000 1.000000 0.750000
0.750000 1.000000 0.750000
1.000000 1.000000 0.750000
0.000000 0.000000 1.000000
0.250000 0.000000 1.000000
0.500000 0.000000 1.000000
0.750000 0.000000 1.000000
1.000000 0.000000 1.000000
0.000000 0.250000 1.000000
0.250000 0.250000 1.000000
0.500000 0.250000 1.000000
0.750000 0.250000 1.000000
1.000000 0.250000 1.000000
0.000000 0.500000 1.000000
0.250000 0.500000 1.000000
0.500000 0.500000 1.000000
0.750000 0.500000 1.000000
1.000000 0.500000 1.000000
0.000000 0.750000 1.000000
0.250000 0.750000 1.000000
0.500000 0.750000 1.000000
0.750000 0.750000 1.000000
1.000000 0.750000 1.000000
0.000000 1.000000 1.000000
0.250000 1.000000 1.000000
0.500000 1.000000 1.000000
0.750000 1.000000 1.000000
1.000000 1.000000 1.000000
