assets/LUTs/SkinBalanceNeutral65Davinci.cube
TITLE "Generated by Resolve"
#Copyright Sven Bayer - CameraRig 2026
LUT_3D_SIZE 5
0 0 0
0.249989 0 0
0.499992 0 0
0.749996 0 0
1 0 0
0 0.249989 0
0.249989 0.249989 0
0.520241 0.239353 0.0436408
0.749996 0.249989 0
1 0.249989 0
0 0.499992 0
0.249989 0.499992 0
0.499992 0.499992 0
0.749996 0.499992 0
1 0.499992 0
0 0.749996 0
0.249989 0.749996 0
0.499992 0.749996 0
0.749996 0.749996 0
1 0.749996 0
0 1 0
0.249989 1 0
0.499992 1 0
0.749996 1 0
1 1 0
0 0 0.249989
0.249989 0 0.249989
0.499992 0 0.249989
0.749996 0 0.249989
1 0 0.249989
0 0.249989 0.249989
0.249989 0.249989 0.249989
0.499992 0.249989 0.249989
0.749996 0.249989 0.249989
1 0.249989 0.249989
0 0.499992 0.249989
0.249989 0.499992 0.249989
0.499992 0.499992 0.249989
0.770245 0.489357 0.293614
1 0.499992 0.249989
0 0.749996 0.249989
0.249989 0.749996 0.249989
0.499992 0.749996 0.249989
0.749996 0.749996 0.249989
1 0.749996 0.249989
0 1 0.249989
0.249989 1 0.249989
0.499992 1 0.249989
0.749996 1 0.249989
1 1 0.249989
0 0 0.499992
0.249989 0 0.499992
0.499992 0 0.499992
0.749996 0 0.499992
1 0 0.499992
0 0.249989 0.499992
0.249989 0.249989 0.499992
0.499992 0.249989 0.499992
0.749996 0.249989 0.499992
1 0.249989 0.499992
0 0.499992 0.499992
0.249989 0.499992 0.499992
0.499992 0.499992 0.499992
0.749996 0.499992 0.499992
1 0.499992 0.499992
0 0.749996 0.499992
0.249989 0.749996 0.499992
0.499992 0.749996 0.499992
0.749996 0.749996 0.499992
1 0.748959 0.5037
0 1 0.499992
0.249989 1 0.499992
0.499992 1 0.499992
0.749996 1 0.499992
1 1 0.499992
0 0 0.749996
0.249989 0 0.749996
0.499992 0 0.749996
0.749996 0 0.749996
1 0 0.749996
0 0.249989 0.749996
0.249989 0.249989 0.749996
0.499992 0.249989 0.749996
0.749996 0.249989 0.749996
1 0.249989 0.749996
0 0.499992 0.749996
0.249989 0.499992 0.749996
0.499992 0.499992 0.749996
0.749996 0.499992 0.749996
1 0.499992 0.749996
0 0.749996 0.749996
0.249989 0.749996 0.749996
0.499992 0.749996 0.749996
0.749996 0.749996 0.749996
1 0.749996 0.749996
0 1 0.749996
0.249989 1 0.749996
0.499992 1 0.749996
0.749996 1 0.749996
1 1 0.749996
0 0 1
0.249989 0 1
0.499992 0 1
0.749996 0 1
1 0 1
0 0.249989 1
0.249989 0.249989 1
0.499992 0.249989 1
0.749996 0.249989 1
1 0.249989 1
0 0.499992 1
0.249989 0.499992 1
0.499992 0.499992 1
0.749996 0.499992 1
1 0.499992 1
0 0.749996 1
0.249989 0.749996 1
0.499992 0.749996 1
0.749996 0.749996 1
1 0.749996 1
0 1 1
0.249989 1 1
0.499992 1 1
0.749996 1 1
1 1 1
