assets/LUTs/skin_brown_caramel_tan_33.cube
TITLE "Skin Brown / Caramel Tan 33"
# Selective LUT: makes skin tones browner and yellowed skin more tan/caramel.
# Generated as a 33-point 3D LUT. Input/output expected in display-referred Rec.709/sRGB-like space.
LUT_3D_SIZE 9
DOMAIN_MIN 0.0 0.0 0.0
DOMAIN_MAX 1.0 1.0 1.0
0.000000 0.000000 0.000000
0.125000 0.000000 0.000000
0.250000 0.000000 0.000000
0.375000 0.000000 0.000000
0.500000 0.000000 0.000000
0.625000 0.000000 0.000000
0.750000 0.000000 0.000000
0.875000 0.000000 0.000000
1.000000 0.000000 0.000000
0.000000 0.125000 0.000000
0.125000 0.125000 0.000000
0.250000 0.125000 0.000000
0.375000 0.125000 0.000000
0.500000 0.125000 0.000000
0.625000 0.125000 0.000000
0.750000 0.125000 0.000000
0.875000 0.125000 0.000000
1.000000 0.125000 0.000000
0.000000 0.250000 0.000000
0.125000 0.250000 0.000000
0.250000 0.250000 0.000000
0.375000 0.250000 0.000000
0.500000 0.250000 0.000000
0.625000 0.250000 0.000000
0.750000 0.250000 0.000000
0.875000 0.250000 0.000000
1.000000 0.250000 0.000000
0.000000 0.375000 0.000000
0.125000 0.375000 0.000000
0.250000 0.375000 0.000000
0.375000 0.375000 0.000000
0.500000 0.375000 0.000000
0.625000 0.375000 0.000000
0.750000 0.375000 0.000000
0.875000 0.375000 0.000000
1.000000 0.375000 0.000000
0.000000 0.500000 0.000000
0.125000 0.500000 0.000000
0.250000 0.500000 0.000000
0.375000 0.500000 0.000000
0.500000 0.500000 0.000000
0.625000 0.500000 0.000000
0.750000 0.500000 0.000000
0.875000 0.500000 0.000000
1.000000 0.500000 0.000000
0.000000 0.625000 0.000000
0.125000 0.625000 0.000000
0.250000 0.625000 0.000000
0.375000 0.625000 0.000000
0.500000 0.625000 0.000000
0.625000 0.625000 0.000000
0.750000 0.625000 0.000000
0.875000 0.625000 0.000000
1.000000 0.625000 0.000000
0.000000 0.750000 0.000000
0.125000 0.750000 0.000000
0.250000 0.750000 0.000000
0.375000 0.750000 0.000000
0.500000 0.750000 0.000000
0.625000 0.750000 0.000000
0.750000 0.750000 0.000000
0.875000 0.750000 0.000000
1.000000 0.750000 0.000000
0.000000 0.875000 0.000000
0.125000 0.875000 0.000000
0.250000 0.875000 0.000000
0.375000 0.875000 0.000000
0.500000 0.875000 0.000000
0.625000 0.875000 0.000000
0.750000 0.875000 0.000000
0.875000 0.875000 0.000000
1.000000 0.875000 0.000000
0.000000 1.000000 0.000000
0.125000 1.000000 0.000000
0.250000 1.000000 0.000000
0.375000 1.000000 0.000000
0.500000 1.000000 0.000000
0.625000 1.000000 0.000000
0.750000 1.000000 0.000000
0.875000 1.000000 0.000000
1.000000 1.000000 0.000000
0.000000 0.000000 0.125000
0.125000 0.000000 0.125000
0.250000 0.000000 0.125000
0.375000 0.000000 0.125000
0.500000 0.000000 0.125000
0.625000 0.000000 0.125000
0.750000 0.000000 0.125000
0.875000 0.000000 0.125000
1.000000 0.000000 0.125000
0.000000 0.125000 0.125000
0.125000 0.125000 0.125000
0.249458 0.124911 0.123922
0.374258 0.125626 0.123061
0.499236 0.126663 0.122195
0.624391 0.127617 0.121639
0.749394 0.128500 0.121164
0.874161 0.129373 0.120681
0.999251 0.128415 0.118333
0.000000 0.250000 0.125000
0.125010 0.249994 0.124992
0.235417 0.190695 0.099954
0.361189 0.228222 0.095623
0.490157 0.243068 0.096089
0.620417 0.252044 0.103852
0.747464 0.254723 0.110463
0.872792 0.255340 0.114177
0.998524 0.253346 0.111914
0.000000 0.375000 0.125000
0.125024 0.374994 0.124990
0.258067 0.371552 0.119896
0.361249 0.275983 0.095726
0.487214 0.331947 0.089577
0.614676 0.347753 0.085466
0.740709 0.361955 0.083378
0.863968 0.373660 0.082308
0.993593 0.375957 0.069752
0.000000 0.500000 0.125000
0.125037 0.499993 0.124989
0.251060 0.499753 0.124580
0.453484 0.480519 0.101267
0.487806 0.361577 0.090831
0.614193 0.424760 0.084165
0.739170 0.452484 0.078555
0.861155 0.467292 0.074471
0.990915 0.478772 0.047861
0.000000 0.625000 0.125000
0.125051 0.624993 0.124987
0.250710 0.624884 0.124778
0.393337 0.621269 0.118049
0.617695 0.569024 0.094367
0.614726 0.447324 0.085602
0.739170 0.509160 0.078555
0.860524 0.557076 0.072821
0.990000 0.575239 0.040537
0.000000 0.750000 0.125000
0.125064 0.749992 0.124985
0.250563 0.749924 0.124848
0.378121 0.749510 0.124014
0.578873 0.736091 0.101745
0.742145 0.642761 0.088230
0.739702 0.533159 0.080182
0.860524 0.590618 0.072821
0.990000 0.662194 0.040537
0.000000 0.875000 0.125000
0.125078 0.874991 0.124983
0.250490 0.874939 0.124880
0.377253 0.874683 0.124375
0.528619 0.870341 0.116071
0.790549 0.848087 0.089891
0.863919 0.725264 0.082163
0.861220 0.619049 0.074644
0.990000 0.681050 0.040537
0.000000 1.000000 0.125000
0.125084 0.999998 0.124974
0.250423 0.999990 0.124857
0.376696 0.999958 0.124380
0.506063 0.999838 0.122594
0.711519 0.997191 0.091714
0.992985 0.982524 0.064720
0.991739 0.821623 0.054522
0.991487 0.749127 0.052477
0.000000 0.000000 0.250000
0.125000 0.000000 0.250000
0.250000 0.000000 0.250000
0.375000 0.000000 0.250000
0.500000 0.000000 0.250000
0.625000 0.000000 0.250000
0.750000 0.000000 0.250000
0.875000 0.000000 0.250000
1.000000 0.000000 0.250000
0.000000 0.125000 0.250000
0.125000 0.125000 0.250000
0.249999 0.125000 0.250000
0.374978 0.124955 0.250549
0.499911 0.124730 0.254264
0.624871 0.124392 0.261031
0.749819 0.123993 0.269865
0.874685 0.123560 0.280046
0.999668 0.122285 0.290613
0.000000 0.250000 0.250000
0.125000 0.250000 0.250000
0.250000 0.250000 0.250000
0.373767 0.249216 0.246745
0.498898 0.250162 0.246335
0.624057 0.251079 0.245896
0.749044 0.251979 0.245439
0.877717 0.249027 0.241062
0.999251 0.251551 0.242259
0.000000 0.375000 0.250000
0.125000 0.375000 0.250000
0.250009 0.374992 0.249987
0.358105 0.306856 0.210187
0.484233 0.346606 0.205466
0.613568 0.362191 0.208426
0.743253 0.373296 0.221048
0.885670 0.368925 0.215556
0.998100 0.375227 0.230481
0.000000 0.500000 0.250000
0.125000 0.500000 0.249999
0.250022 0.499992 0.249986
0.382500 0.495743 0.242399
0.484300 0.392297 0.205625
0.610242 0.450458 0.198826
0.735728 0.466137 0.195309
0.908896 0.473472 0.146705
0.991996 0.486377 0.170368
0.000000 0.625000 0.250000
0.125000 0.625000 0.249997
0.250036 0.624992 0.249984
0.376014 0.624698 0.249407
0.576949 0.601272 0.215992
0.610909 0.477914 0.200682
0.735125 0.542654 0.193464
0.913639 0.579727 0.133696
0.990354 0.585958 0.154878
0.000000 0.750000 0.250000
0.124999 0.750000 0.249993
0.250049 0.749991 0.249982
0.375688 0.749851 0.249700
0.517770 0.745235 0.240552
0.739592 0.687977 0.207845
0.735791 0.563639 0.195501
0.913639 0.646400 0.133696
0.990000 0.683374 0.151575
0.000000 0.875000 0.250000
0.124999 0.874999 0.249987
0.250047 0.875005 0.249965
0.375458 0.875052 0.249647
0.502855 0.875338 0.247713
0.714341 0.882321 0.194108
0.904338 0.791716 0.159543
0.912014 0.673201 0.138113
0.990000 0.718121 0.151575
0.000000 1.000000 0.250000
0.124997 1.000000 0.249979
0.250067 0.999998 0.249969
0.375439 0.999988 0.249785
0.502102 0.999935 0.248883
0.653456 0.999063 0.233927
0.927130 0.988024 0.185067
0.991966 0.858064 0.170084
0.992752 0.811352 0.177603
0.000000 0.000000 0.375000
0.125000 0.000000 0.375000
0.250000 0.000000 0.375000
0.375000 0.000000 0.375000
0.500000 0.000000 0.375000
0.625000 0.000000 0.375000
0.750000 0.000000 0.375000
0.875000 0.000000 0.375000
1.000000 0.000000 0.375000
0.000000 0.125000 0.375000
0.125000 0.125000 0.375000
0.250000 0.125000 0.375000
0.374998 0.125000 0.375000
0.499996 0.124988 0.375176
0.624984 0.124922 0.376326
0.749961 0.124779 0.379161
0.874905 0.124563 0.383775
0.999876 0.123982 0.389834
0.000000 0.250000 0.375000
0.125000 0.250000 0.375000
0.250000 0.250000 0.375000
0.374999 0.250000 0.375000
0.499970 0.249930 0.375609
0.624893 0.249654 0.379160
0.749796 0.249254 0.385787
0.875827 0.247608 0.393884
0.999715 0.247471 0.404118
0.000000 0.375000 0.375000
0.125000 0.375000 0.375000
0.250000 0.375000 0.375000
0.375000 0.375000 0.375000
0.498528 0.373659 0.370628
0.623679 0.374585 0.370198
0.751009 0.373190 0.367405
0.876971 0.372893 0.365731
0.999251 0.374687 0.366184
0.000000 0.500000 0.375000
0.125000 0.500000 0.375000
0.250000 0.500000 0.375000
0.375007 0.499991 0.374983
0.479965 0.422668 0.321182
0.606366 0.464982 0.316146
0.761420 0.474657 0.295535
0.888423 0.484234 0.314779
0.997097 0.494594 0.341192
0.000000 0.625000 0.375000
0.125000 0.625000 0.375000
0.250000 0.625000 0.374999
0.375021 0.624990 0.374981
0.506921 0.619802 0.365033
0.606444 0.508230 0.316359
0.764472 0.577294 0.276325
0.902540 0.584970 0.258242
0.991148 0.594733 0.274936
0.000000 0.750000 0.375000
0.125000 0.750000 0.375000
0.250000 0.750000 0.374997
0.375025 0.749999 0.374970
0.500860 0.749954 0.373906
0.716701 0.742068 0.310434
0.763868 0.608218 0.280068
0.903650 0.677240 0.254070
0.990000 0.694572 0.262612
0.000000 0.875000 0.375000
0.125000 0.875000 0.374999
0.249998 0.875000 0.374993
0.375034 0.875002 0.374964
0.500552 0.875038 0.374392
0.642843 0.876266 0.355711
0.895363 0.836461 0.286156
0.902425 0.700926 0.258676
0.990000 0.754731 0.262612
0.000000 1.000000 0.375000
0.125000 1.000000 0.374997
0.249997 1.000000 0.374986
0.375051 0.999998 0.374965
0.500474 0.999982 0.374651
0.627841 0.999885 0.372742
0.830984 0.995310 0.320364
0.992506 0.903688 0.289699
0.994277 0.871606 0.309278
0.000000 0.000000 0.500000
0.125000 0.000000 0.500000
0.250000 0.000000 0.500000
0.375000 0.000000 0.500000
0.500000 0.000000 0.500000
0.625000 0.000000 0.500000
0.750000 0.000000 0.500000
0.875000 0.000000 0.500000
1.000000 0.000000 0.500000
0.000000 0.125000 0.500000
0.125000 0.125000 0.500000
0.250000 0.125000 0.500000
0.375000 0.125000 0.500000
0.499997 0.125000 0.500000
0.624999 0.124994 0.500092
0.749994 0.124966 0.500614
0.874977 0.124896 0.502015
0.999961 0.124679 0.504553
0.000000 0.250000 0.500000
0.125000 0.250000 0.500000
0.250000 0.250000 0.500000
0.375000 0.250000 0.500000
0.499998 0.250000 0.500000
0.624995 0.249985 0.500170
0.749974 0.249905 0.501297
0.875181 0.249476 0.504039
0.999914 0.249234 0.508568
0.000000 0.375000 0.500000
0.125000 0.375000 0.500000
0.250000 0.375000 0.500000
0.375000 0.375000 0.500000
0.499999 0.375000 0.500000
0.624964 0.374914 0.500579
0.750116 0.374317 0.503950
0.875423 0.373361 0.510201
0.999771 0.372814 0.518748
0.000000 0.500000 0.500000
0.125000 0.500000 0.500000
0.250000 0.500000 0.500000
0.375000 0.500000 0.500000
0.500000 0.500000 0.500000
0.624109 0.497498 0.494094
0.750030 0.497285 0.492307
0.876132 0.496851 0.490493
0.999251 0.497824 0.490110
0.000000 0.625000 0.500000
0.125000 0.625000 0.500000
0.250000 0.625000 0.500000
0.375000 0.625000 0.500000
0.500003 0.624992 0.499977
0.613534 0.547935 0.426214
0.751322 0.583583 0.403372
0.888481 0.591717 0.400055
0.995085 0.607413 0.436359
0.000000 0.750000 0.500000
0.125000 0.750000 0.500000
0.250000 0.750000 0.500000
0.375000 0.750000 0.499999
0.500013 0.749995 0.499970
0.631663 0.747334 0.483995
0.751313 0.634872 0.403730
0.892343 0.697967 0.375736
0.990354 0.702778 0.377914
0.000000 0.875000 0.500000
0.125000 0.875000 0.500000
0.250000 0.875000 0.500000
0.374999 0.875000 0.499997
0.500021 0.874999 0.499963
0.625781 0.874962 0.498631
0.841621 0.866989 0.418874
0.891570 0.727896 0.380479
0.990000 0.788969 0.373650
0.000000 1.000000 0.500000
0.125000 1.000000 0.500000
0.250000 1.000000 0.499999
0.374998 1.000000 0.499992
0.500035 0.999998 0.499961
0.625548 0.999971 0.499350
0.766639 0.999063 0.479457
0.993583 0.971307 0.417510
0.995896 0.923468 0.446656
0.000000 0.000000 0.625000
0.125000 0.000000 0.625000
0.250000 0.000000 0.625000
0.375000 0.000000 0.625000
0.500000 0.000000 0.625000
0.625000 0.000000 0.625000
0.750000 0.000000 0.625000
0.875000 0.000000 0.625000
1.000000 0.000000 0.625000
0.000000 0.125000 0.625000
0.125000 0.125000 0.625000
0.250000 0.125000 0.625000
0.375000 0.125000 0.625000
0.500000 0.125000 0.625000
0.624996 0.125000 0.625000
0.749999 0.124996 0.625063
0.874996 0.124981 0.625361
0.999990 0.124915 0.626168
0.000000 0.250000 0.625000
0.125000 0.250000 0.625000
0.250000 0.250000 0.625000
0.375000 0.250000 0.625000
0.500000 0.250000 0.625000
0.624997 0.250000 0.625000
0.749998 0.249993 0.625090
0.875028 0.249919 0.625611
0.999979 0.249817 0.626986
0.000000 0.375000 0.625000
0.125000 0.375000 0.625000
0.250000 0.375000 0.625000
0.375000 0.375000 0.625000
0.500000 0.375000 0.625000
0.624998 0.375000 0.625000
0.750005 0.374970 0.625169
0.875054 0.374791 0.626268
0.999950 0.374521 0.628982
0.000000 0.500000 0.625000
0.125000 0.500000 0.625000
0.250000 0.500000 0.625000
0.375000 0.500000 0.625000
0.500000 0.500000 0.625000
0.624999 0.500000 0.625000
0.750001 0.499850 0.625550
0.875129 0.499162 0.628797
0.999839 0.498345 0.635012
0.000000 0.625000 0.625000
0.125000 0.625000 0.625000
0.250000 0.625000 0.625000
0.375000 0.625000 0.625000
0.500000 0.625000 0.625000
0.625000 0.625000 0.625000
0.749233 0.622675 0.619861
0.875129 0.620969 0.615418
0.999251 0.620960 0.614036
0.000000 0.750000 0.625000
0.125000 0.750000 0.625000
0.250000 0.750000 0.625000
0.375000 0.750000 0.625000
0.500000 0.750000 0.625000
0.625001 0.749993 0.624980
0.740474 0.690796 0.560181
0.878505 0.701593 0.504000
0.991996 0.710132 0.511642
0.000000 0.875000 0.625000
0.125000 0.875000 0.625000
0.250000 0.875000 0.625000
0.375000 0.875000 0.625000
0.500000 0.875000 0.624999
0.625008 0.874995 0.624962
0.755773 0.872430 0.605055
0.878484 0.753760 0.504451
0.990000 0.813468 0.484687
0.000000 1.000000 0.625000
0.125000 1.000000 0.625000
0.250000 1.000000 0.625000
0.375000 1.000000 0.625000
0.499999 1.000000 0.624997
0.625018 0.999998 0.624957
0.750693 0.999935 0.623419
0.938062 0.991066 0.555599
0.997443 0.962385 0.587875
0.000000 0.000000 0.750000
0.125000 0.000000 0.750000
0.250000 0.000000 0.750000
0.375000 0.000000 0.750000
0.500000 0.000000 0.750000
0.625000 0.000000 0.750000
0.750000 0.000000 0.750000
0.875000 0.000000 0.750000
1.000000 0.000000 0.750000
0.000000 0.125000 0.750000
0.125000 0.125000 0.750000
0.250000 0.125000 0.750000
0.375000 0.125000 0.750000
0.500000 0.125000 0.750000
0.625000 0.125000 0.750000
0.749995 0.125000 0.750000
0.874999 0.124997 0.750051
0.999998 0.124981 0.750250
0.000000 0.250000 0.750000
0.125000 0.250000 0.750000
0.250000 0.250000 0.750000
0.375000 0.250000 0.750000
0.500000 0.250000 0.750000
0.625000 0.250000 0.750000
0.749996 0.250000 0.750000
0.875003 0.249991 0.750065
0.999996 0.249966 0.750360
0.000000 0.375000 0.750000
0.125000 0.375000 0.750000
0.250000 0.375000 0.750000
0.375000 0.375000 0.750000
0.500000 0.375000 0.750000
0.625000 0.375000 0.750000
0.749997 0.374999 0.750000
0.875004 0.374985 0.750091
0.999992 0.374926 0.750597
0.000000 0.500000 0.750000
0.125000 0.500000 0.750000
0.250000 0.500000 0.750000
0.375000 0.500000 0.750000
0.500000 0.500000 0.750000
0.625000 0.500000 0.750000
0.749998 0.500000 0.750000
0.875006 0.499963 0.750165
0.999979 0.499789 0.751238
0.000000 0.625000 0.750000
0.125000 0.625000 0.750000
0.250000 0.625000 0.750000
0.375000 0.625000 0.750000
0.500000 0.625000 0.750000
0.625000 0.625000 0.750000
0.749999 0.625000 0.750000
0.875003 0.624813 0.750520
0.999914 0.624056 0.753658
0.000000 0.750000 0.750000
0.125000 0.750000 0.750000
0.250000 0.750000 0.750000
0.375000 0.750000 0.750000
0.500000 0.750000 0.750000
0.625000 0.750000 0.750000
0.750000 0.750000 0.750000
0.874489 0.747999 0.746042
0.999251 0.743991 0.737961
0.000000 0.875000 0.750000
0.125000 0.875000 0.750000
0.250000 0.875000 0.750000
0.375000 0.875000 0.750000
0.500000 0.875000 0.750000
0.625000 0.875000 0.750000
0.749999 0.874996 0.749984
0.868684 0.835753 0.699658
0.990354 0.817078 0.600949
0.000000 1.000000 0.750000
0.125000 1.000000 0.750000
0.250000 1.000000 0.750000
0.375000 1.000000 0.750000
0.500000 1.000000 0.750000
0.625000 1.000000 0.749999
0.750001 0.999998 0.749954
0.877471 0.999451 0.735293
0.998753 0.986602 0.730004
0.000000 0.000000 0.875000
0.125000 0.000000 0.875000
0.250000 0.000000 0.875000
0.375000 0.000000 0.875000
0.500000 0.000000 0.875000
0.625000 0.000000 0.875000
0.750000 0.000000 0.875000
0.875000 0.000000 0.875000
1.000000 0.000000 0.875000
0.000000 0.125000 0.875000
0.125000 0.125000 0.875000
0.250000 0.125000 0.875000
0.375000 0.125000 0.875000
0.500000 0.125000 0.875000
0.625000 0.125000 0.875000
0.749999 0.125000 0.875000
0.874994 0.125000 0.875000
1.000000 0.124997 0.875045
0.000000 0.250000 0.875000
0.125000 0.250000 0.875000
0.250000 0.250000 0.875000
0.375000 0.250000 0.875000
0.500000 0.250000 0.875000
0.625000 0.250000 0.875000
0.750000 0.250000 0.875000
0.874995 0.249999 0.875000
0.999999 0.249995 0.875051
0.000000 0.375000 0.875000
0.125000 0.375000 0.875000
0.250000 0.375000 0.875000
0.375000 0.375000 0.875000
0.500000 0.375000 0.875000
0.625000 0.375000 0.875000
0.750000 0.375000 0.875000
0.874996 0.374999 0.875000
0.999999 0.374992 0.875063
0.000000 0.500000 0.875000
0.125000 0.500000 0.875000
0.250000 0.500000 0.875000
0.375000 0.500000 0.875000
0.500000 0.500000 0.875000
0.625000 0.500000 0.875000
0.750000 0.500000 0.875000
0.874997 0.499999 0.875000
0.999998 0.499984 0.875088
0.000000 0.625000 0.875000
0.125000 0.625000 0.875000
0.250000 0.625000 0.875000
0.375000 0.625000 0.875000
0.500000 0.625000 0.875000
0.625000 0.625000 0.875000
0.750000 0.625000 0.875000
0.874998 0.624999 0.875000
0.999996 0.624958 0.875160
0.000000 0.750000 0.875000
0.125000 0.750000 0.875000
0.250000 0.750000 0.875000
0.375000 0.750000 0.875000
0.500000 0.750000 0.875000
0.625000 0.750000 0.875000
0.750000 0.750000 0.875000
0.875000 0.750000 0.875000
0.999979 0.749758 0.875491
0.000000 0.875000 0.875000
0.125000 0.875000 0.875000
0.250000 0.875000 0.875000
0.375000 0.875000 0.875000
0.500000 0.875000 0.875000
0.625000 0.875000 0.875000
0.750000 0.875000 0.875000
0.875000 0.875000 0.875000
0.999818 0.872998 0.871799
0.000000 1.000000 0.875000
0.125000 1.000000 0.875000
0.250000 1.000000 0.875000
0.375000 1.000000 0.875000
0.500000 1.000000 0.875000
0.625000 1.000000 0.875000
0.750000 1.000000 0.875000
0.874998 1.000000 0.874995
0.999917 0.999442 0.873549
0.000000 0.000000 1.000000
0.125000 0.000000 1.000000
0.250000 0.000000 1.000000
0.375000 0.000000 1.000000
0.500000 0.000000 1.000000
0.625000 0.000000 1.000000
0.750000 0.000000 1.000000
0.875000 0.000000 1.000000
1.000000 0.000000 1.000000
0.000000 0.125000 1.000000
0.125000 0.125000 1.000000
0.250000 0.125000 1.000000
0.375000 0.125000 1.000000
0.500000 0.125000 1.000000
0.625000 0.125000 1.000000
0.750000 0.125000 1.000000
0.874999 0.125000 1.000000
0.999993 0.124999 1.000000
0.000000 0.250000 1.000000
0.125000 0.250000 1.000000
0.250000 0.250000 1.000000
0.375000 0.250000 1.000000
0.500000 0.250000 1.000000
0.625000 0.250000 1.000000
0.750000 0.250000 1.000000
0.874999 0.250000 1.000000
0.999994 0.249999 1.000000
0.000000 0.375000 1.000000
0.125000 0.375000 1.000000
0.250000 0.375000 1.000000
0.375000 0.375000 1.000000
0.500000 0.375000 1.000000
0.625000 0.375000 1.000000
0.750000 0.375000 1.000000
0.875000 0.375000 1.000000
0.999995 0.374999 1.000000
0.000000 0.500000 1.000000
0.125000 0.500000 1.000000
0.250000 0.500000 1.000000
0.375000 0.500000 1.000000
0.500000 0.500000 1.000000
0.625000 0.500000 1.000000
0.750000 0.500000 1.000000
0.875000 0.500000 1.000000
0.999996 0.499999 1.000000
0.000000 0.625000 1.000000
0.125000 0.625000 1.000000
0.250000 0.625000 1.000000
0.375000 0.625000 1.000000
0.500000 0.625000 1.000000
0.625000 0.625000 1.000000
0.750000 0.625000 1.000000
0.875000 0.625000 1.000000
0.999997 0.624999 1.000000
0.000000 0.750000 1.000000
0.125000 0.750000 1.000000
0.250000 0.750000 1.000000
0.375000 0.750000 1.000000
0.500000 0.750000 1.000000
0.625000 0.750000 1.000000
0.750000 0.750000 1.000000
0.875000 0.750000 1.000000
0.999998 0.749999 1.000000
0.000000 0.875000 1.000000
0.125000 0.875000 1.000000
0.250000 0.875000 1.000000
0.375000 0.875000 1.000000
0.500000 0.875000 1.000000
0.625000 0.875000 1.000000
0.750000 0.875000 1.000000
0.875000 0.875000 1.000000
1.000000 0.875000 1.000000
0.000000 1.000000 1.000000
0.125000 1.000000 1.000000
0.250000 1.000000 1.000000
0.375000 1.000000 1.000000
0.500000 1.000000 1.000000
0.625000 1.000000 1.000000
0.750000 1.000000 1.000000
0.875000 1.000000 1.000000
1.000000 1.000000 1.000000
