assets/LUTs/skintone_deep_tan_restore_33.cube
TITLE "SkinTone Deep Tan Restore"
# Maximum rescue: pale-yellow skin that should be deeply tanned. Hard de-yellow, hue to red-brown, big saturation build, and a bright pulldown that drags washed-out skin into tan territory.
# Skin-tone selective LUT. Apply to display-referred Rec.709/sRGB (SDR) footage.
# Generated 2026-07-10 with Claude Code.
LUT_3D_SIZE 9
DOMAIN_MIN 0.0 0.0 0.0
DOMAIN_MAX 1.0 1.0 1.0
0.000000 0.000000 0.000000
0.119258 0.000000 0.000000
0.243438 0.000000 0.000000
0.370898 0.000000 0.000000
0.500000 0.000000 0.000000
0.629102 0.000000 0.000000
0.756563 0.000000 0.000000
0.880742 0.000000 0.000000
1.000000 0.000000 0.000000
0.000000 0.119258 0.000000
0.119258 0.119258 0.000000
0.243438 0.121719 0.000000
0.370898 0.123633 0.000000
0.500000 0.125000 0.000000
0.629102 0.125820 0.000000
0.756563 0.126094 0.000000
0.880742 0.125820 0.000000
1.000000 0.125000 0.000000
0.000000 0.243438 0.000000
0.121719 0.243438 0.000000
0.243438 0.243438 0.000000
0.370898 0.247266 0.000000
0.500000 0.250000 0.000000
0.629102 0.251641 0.000000
0.756563 0.252188 0.000000
0.880742 0.251641 0.000000
1.000000 0.250000 0.000000
0.000000 0.370898 0.000000
0.123633 0.370898 0.000000
0.247266 0.370898 0.000000
0.370898 0.370898 0.000000
0.500000 0.375000 0.000000
0.629102 0.377461 0.000000
0.756563 0.378281 0.000000
0.880742 0.377461 0.000000
1.000000 0.375000 0.000000
0.000000 0.500000 0.000000
0.125000 0.500000 0.000000
0.250000 0.500000 0.000000
0.375000 0.500000 0.000000
0.500000 0.500000 0.000000
0.629102 0.503281 0.000000
0.756563 0.504375 0.000000
0.880742 0.503281 0.000000
1.000000 0.500000 0.000000
0.000000 0.629102 0.000000
0.125820 0.629102 0.000000
0.251641 0.629102 0.000000
0.377461 0.629102 0.000000
0.503281 0.629102 0.000000
0.629102 0.629102 0.000000
0.756563 0.630469 0.000000
0.880742 0.629102 0.000000
1.000000 0.625000 0.000000
0.000000 0.756563 0.000000
0.126094 0.756563 0.000000
0.252188 0.756563 0.000000
0.378281 0.756563 0.000000
0.504375 0.756563 0.000000
0.630469 0.756563 0.000000
0.756563 0.756563 0.000000
0.880742 0.754922 0.000000
1.000000 0.750000 0.000000
0.000000 0.880742 0.000000
0.125820 0.880742 0.000000
0.251641 0.880742 0.000000
0.377461 0.880742 0.000000
0.503281 0.880742 0.000000
0.629102 0.880742 0.000000
0.754922 0.880742 0.000000
0.880742 0.880742 0.000000
1.000000 0.875000 0.000000
0.000000 1.000000 0.000000
0.125000 1.000000 0.000000
0.250000 1.000000 0.000000
0.375000 1.000000 0.000000
0.500000 1.000000 0.000000
0.625000 1.000000 0.000000
0.750000 1.000000 0.000000
0.875000 1.000000 0.000000
1.000000 1.000000 0.000000
0.000000 0.000000 0.119258
0.119258 0.000000 0.119258
0.243438 0.000000 0.121719
0.370898 0.000000 0.123633
0.500000 0.000000 0.125000
0.629102 0.000000 0.125820
0.756563 0.000000 0.126094
0.880742 0.000000 0.125820
1.000000 0.000000 0.125000
0.000000 0.119258 0.119258
0.119258 0.119258 0.119258
0.121345 0.064281 0.045876
0.226957 0.093687 0.051322
0.392469 0.127056 0.073347
0.560289 0.141264 0.093824
0.707632 0.141923 0.106292
0.852404 0.139489 0.114779
1.000000 0.125000 0.125000
0.000000 0.243438 0.121719
0.121719 0.243438 0.121719
0.120073 0.082974 0.045172
0.224187 0.115616 0.050092
0.390088 0.178219 0.072285
0.558845 0.221694 0.093126
0.706488 0.240553 0.105828
0.851698 0.250031 0.114509
1.000000 0.250000 0.125000
0.000000 0.370898 0.123633
0.123633 0.370898 0.123633
0.247266 0.370898 0.123633
0.225270 0.139628 0.050572
0.390088 0.229326 0.072285
0.558845 0.301709 0.093126
0.706488 0.338795 0.105828
0.851698 0.360238 0.114509
1.000000 0.375000 0.125000
0.000000 0.500000 0.125000
0.125000 0.500000 0.125000
0.250000 0.500000 0.125000
0.412577 0.473035 0.111458
0.391021 0.262875 0.072701
0.558845 0.371135 0.093126
0.706488 0.435396 0.105828
0.851698 0.470446 0.114509
1.000000 0.500000 0.125000
0.000000 0.629102 0.125820
0.125820 0.629102 0.125820
0.251641 0.629102 0.125820
0.377461 0.629102 0.125820
0.566220 0.594322 0.109923
0.559411 0.418970 0.093399
0.706488 0.513823 0.105828
0.851698 0.574051 0.114509
1.000000 0.625000 0.125000
0.000000 0.756563 0.126094
0.126094 0.756563 0.126094
0.252188 0.756563 0.126094
0.378281 0.756563 0.126094
0.515528 0.752083 0.124278
0.690783 0.725826 0.113653
0.706937 0.590839 0.106010
0.851698 0.668799 0.114509
1.000000 0.750000 0.125000
0.000000 0.880742 0.125820
0.125820 0.880742 0.125820
0.251641 0.880742 0.125820
0.377461 0.880742 0.125820
0.503281 0.880742 0.125820
0.648756 0.874254 0.123260
0.804427 0.860619 0.117942
0.851975 0.768910 0.114615
1.000000 0.875000 0.125000
0.000000 1.000000 0.125000
0.125000 1.000000 0.125000
0.250000 1.000000 0.125000
0.375000 1.000000 0.125000
0.500000 1.000000 0.125000
0.625000 1.000000 0.125000
0.750000 1.000000 0.125000
0.875000 1.000000 0.125000
1.000000 1.000000 0.125000
0.000000 0.000000 0.243438
0.121719 0.000000 0.243438
0.243438 0.000000 0.243438
0.370898 0.000000 0.247266
0.500000 0.000000 0.250000
0.629102 0.000000 0.251641
0.756563 0.000000 0.252187
0.880742 0.000000 0.251641
1.000000 0.000000 0.250000
0.000000 0.121719 0.243438
0.121719 0.121719 0.243438
0.243438 0.121719 0.243438
0.370898 0.123633 0.247266
0.500000 0.125000 0.250000
0.624593 0.123783 0.244006
0.745690 0.121689 0.233990
0.870663 0.121851 0.233327
1.000000 0.125000 0.250000
0.000000 0.243438 0.243438
0.121719 0.243438 0.243438
0.243438 0.243438 0.243438
0.225729 0.145535 0.119669
0.351958 0.186446 0.133061
0.492592 0.225516 0.139372
0.596911 0.246401 0.134979
0.712799 0.261966 0.142854
1.000000 0.250000 0.250000
0.000000 0.370898 0.247266
0.123633 0.370898 0.247266
0.247266 0.370898 0.247266
0.224033 0.171784 0.118543
0.348867 0.212591 0.130825
0.490034 0.254818 0.137209
0.594179 0.276640 0.132763
0.708923 0.302937 0.140560
1.000000 0.375000 0.250000
0.000000 0.500000 0.250000
0.125000 0.500000 0.250000
0.250000 0.500000 0.250000
0.375000 0.500000 0.250000
0.350077 0.241915 0.131699
0.490034 0.284220 0.137209
0.594179 0.306426 0.132763
0.708923 0.343553 0.140560
1.000000 0.500000 0.250000
0.000000 0.629102 0.251641
0.125820 0.629102 0.251641
0.251641 0.629102 0.251641
0.377461 0.629102 0.251641
0.554434 0.588589 0.219741
0.491037 0.316206 0.138056
0.594179 0.336213 0.132763
0.708923 0.384169 0.140560
1.000000 0.625000 0.250000
0.000000 0.756563 0.252188
0.126094 0.756563 0.252188
0.252188 0.756563 0.252188
0.378281 0.756563 0.252188
0.504375 0.756563 0.252188
0.669845 0.571847 0.190083
0.595245 0.368946 0.133630
0.708923 0.424784 0.140560
1.000000 0.750000 0.250000
0.000000 0.880742 0.251641
0.125820 0.880742 0.251641
0.251641 0.880742 0.251641
0.377461 0.880742 0.251641
0.503281 0.880742 0.251641
0.666719 0.865424 0.240887
0.775031 0.606578 0.180942
0.710442 0.457676 0.141458
1.000000 0.875000 0.250000
0.000000 1.000000 0.250000
0.125000 1.000000 0.250000
0.250000 1.000000 0.250000
0.375000 1.000000 0.250000
0.500000 1.000000 0.250000
0.625000 1.000000 0.250000
0.750000 1.000000 0.250000
0.875000 1.000000 0.250000
1.000000 1.000000 0.250000
0.000000 0.000000 0.370898
0.123633 0.000000 0.370898
0.247266 0.000000 0.370898
0.370898 0.000000 0.370898
0.500000 0.000000 0.375000
0.629102 0.000000 0.377461
0.756563 0.000000 0.378281
0.880742 0.000000 0.377461
1.000000 0.000000 0.375000
0.000000 0.123633 0.370898
0.123633 0.123633 0.370898
0.247266 0.123633 0.370898
0.370898 0.123633 0.370898
0.500000 0.125000 0.375000
0.629102 0.125820 0.377461
0.756563 0.126094 0.378281
0.880742 0.125820 0.377461
1.000000 0.125000 0.375000
0.000000 0.247266 0.370898
0.123633 0.247266 0.370898
0.247266 0.247266 0.370898
0.370898 0.247266 0.370898
0.500000 0.250000 0.375000
0.629102 0.251641 0.377461
0.744871 0.243829 0.357275
0.843475 0.225791 0.305690
1.000000 0.250000 0.375000
0.000000 0.370898 0.370898
0.123633 0.370898 0.370898
0.247266 0.370898 0.370898
0.370898 0.370898 0.370898
0.351958 0.219858 0.177250
0.492592 0.300008 0.237891
0.595697 0.315564 0.225209
0.687378 0.328301 0.212482
1.000000 0.375000 0.375000
0.000000 0.500000 0.375000
0.125000 0.500000 0.375000
0.250000 0.500000 0.375000
0.375000 0.500000 0.375000
0.350077 0.263295 0.174866
0.490034 0.330773 0.235216
0.592960 0.345893 0.222360
0.683015 0.357189 0.209086
1.000000 0.500000 0.375000
0.000000 0.629102 0.377461
0.125820 0.629102 0.377461
0.251641 0.629102 0.377461
0.377461 0.629102 0.377461
0.503281 0.629102 0.377461
0.491037 0.364848 0.236264
0.592960 0.376776 0.222360
0.683015 0.386809 0.209086
1.000000 0.625000 0.375000
0.000000 0.756563 0.378281
0.126094 0.756563 0.378281
0.252188 0.756563 0.378281
0.378281 0.756563 0.378281
0.504375 0.756563 0.378281
0.675774 0.710497 0.335513
0.594028 0.410492 0.223474
0.683015 0.416430 0.209086
1.000000 0.750000 0.375000
0.000000 0.880742 0.377461
0.125820 0.880742 0.377461
0.251641 0.880742 0.377461
0.377461 0.880742 0.377461
0.503281 0.880742 0.377461
0.629102 0.880742 0.377461
0.787219 0.684135 0.293907
0.684725 0.449799 0.210415
1.000000 0.875000 0.375000
0.000000 1.000000 0.375000
0.125000 1.000000 0.375000
0.250000 1.000000 0.375000
0.375000 1.000000 0.375000
0.500000 1.000000 0.375000
0.625000 1.000000 0.375000
0.750000 1.000000 0.375000
0.875000 1.000000 0.375000
1.000000 1.000000 0.375000
0.000000 0.000000 0.500000
0.125000 0.000000 0.500000
0.250000 0.000000 0.500000
0.375000 0.000000 0.500000
0.500000 0.000000 0.500000
0.629102 0.000000 0.503281
0.756563 0.000000 0.504375
0.880742 0.000000 0.503281
1.000000 0.000000 0.500000
0.000000 0.125000 0.500000
0.125000 0.125000 0.500000
0.250000 0.125000 0.500000
0.375000 0.125000 0.500000
0.500000 0.125000 0.500000
0.629102 0.125820 0.503281
0.756563 0.126094 0.504375
0.880742 0.125820 0.503281
1.000000 0.125000 0.500000
0.000000 0.250000 0.500000
0.125000 0.250000 0.500000
0.250000 0.250000 0.500000
0.375000 0.250000 0.500000
0.500000 0.250000 0.500000
0.629102 0.251641 0.503281
0.756563 0.252188 0.504375
0.880742 0.251641 0.503281
1.000000 0.250000 0.500000
0.000000 0.375000 0.500000
0.125000 0.375000 0.500000
0.250000 0.375000 0.500000
0.375000 0.375000 0.500000
0.500000 0.375000 0.500000
0.629102 0.377461 0.503281
0.756563 0.378281 0.504375
0.869171 0.366702 0.480339
1.000000 0.375000 0.500000
0.000000 0.500000 0.500000
0.125000 0.500000 0.500000
0.250000 0.500000 0.500000
0.375000 0.500000 0.500000
0.500000 0.500000 0.500000
0.492592 0.300542 0.238597
0.595697 0.384065 0.315804
0.687378 0.402549 0.310679
1.000000 0.500000 0.500000
0.000000 0.629102 0.503281
0.125820 0.629102 0.503281
0.251641 0.629102 0.503281
0.377461 0.629102 0.503281
0.503281 0.629102 0.503281
0.491037 0.363896 0.234342
0.592960 0.418223 0.313380
0.683015 0.432112 0.306660
1.000000 0.625000 0.500000
0.000000 0.756563 0.504375
0.126094 0.756563 0.504375
0.252188 0.756563 0.504375
0.378281 0.756563 0.504375
0.504375 0.756563 0.504375
0.630469 0.756563 0.504375
0.594028 0.455488 0.314319
0.683015 0.463474 0.306660
1.000000 0.750000 0.500000
0.000000 0.880742 0.503281
0.125820 0.880742 0.503281
0.251641 0.880742 0.503281
0.377461 0.880742 0.503281
0.503281 0.880742 0.503281
0.629102 0.880742 0.503281
0.798709 0.833974 0.453138
0.684725 0.498248 0.308233
1.000000 0.875000 0.500000
0.000000 1.000000 0.500000
0.125000 1.000000 0.500000
0.250000 1.000000 0.500000
0.375000 1.000000 0.500000
0.500000 1.000000 0.500000
0.625000 1.000000 0.500000
0.750000 1.000000 0.500000
0.875000 1.000000 0.500000
1.000000 1.000000 0.500000
0.000000 0.000000 0.629102
0.125820 0.000000 0.629102
0.251641 0.000000 0.629102
0.377461 0.000000 0.629102
0.503281 0.000000 0.629102
0.629102 0.000000 0.629102
0.756563 0.000000 0.630469
0.880742 0.000000 0.629102
1.000000 0.000000 0.625000
0.000000 0.125820 0.629102
0.125820 0.125820 0.629102
0.251641 0.125820 0.629102
0.377461 0.125820 0.629102
0.503281 0.125820 0.629102
0.629102 0.125820 0.629102
0.756563 0.126094 0.630469
0.880742 0.125820 0.629102
1.000000 0.125000 0.625000
0.000000 0.251641 0.629102
0.125820 0.251641 0.629102
0.251641 0.251641 0.629102
0.377461 0.251641 0.629102
0.503281 0.251641 0.629102
0.629102 0.251641 0.629102
0.756563 0.252188 0.630469
0.880742 0.251641 0.629102
1.000000 0.250000 0.625000
0.000000 0.377461 0.629102
0.125820 0.377461 0.629102
0.251641 0.377461 0.629102
0.377461 0.377461 0.629102
0.503281 0.377461 0.629102
0.629102 0.377461 0.629102
0.756563 0.378281 0.630469
0.880742 0.377461 0.629102
1.000000 0.375000 0.625000
0.000000 0.503281 0.629102
0.125820 0.503281 0.629102
0.251641 0.503281 0.629102
0.377461 0.503281 0.629102
0.503281 0.503281 0.629102
0.629102 0.503281 0.629102
0.756563 0.504375 0.630469
0.880742 0.503281 0.629102
1.000000 0.500000 0.625000
0.000000 0.629102 0.629102
0.125820 0.629102 0.629102
0.251641 0.629102 0.629102
0.377461 0.629102 0.629102
0.503281 0.629102 0.629102
0.629102 0.629102 0.629102
0.595697 0.366209 0.292189
0.687378 0.438630 0.358397
1.000000 0.625000 0.625000
0.000000 0.756563 0.630469
0.126094 0.756563 0.630469
0.252188 0.756563 0.630469
0.378281 0.756563 0.630469
0.504375 0.756563 0.630469
0.630469 0.756563 0.630469
0.594028 0.441516 0.286110
0.683015 0.477121 0.353584
1.000000 0.750000 0.625000
0.000000 0.880742 0.629102
0.125820 0.880742 0.629102
0.251641 0.880742 0.629102
0.377461 0.880742 0.629102
0.503281 0.880742 0.629102
0.629102 0.880742 0.629102
0.754922 0.880742 0.629102
0.684725 0.521636 0.355452
1.000000 0.875000 0.625000
0.000000 1.000000 0.625000
0.125000 1.000000 0.625000
0.250000 1.000000 0.625000
0.375000 1.000000 0.625000
0.500000 1.000000 0.625000
0.625000 1.000000 0.625000
0.750000 1.000000 0.625000
0.875000 1.000000 0.625000
1.000000 1.000000 0.625000
0.000000 0.000000 0.756563
0.126094 0.000000 0.756563
0.252187 0.000000 0.756563
0.378281 0.000000 0.756563
0.504375 0.000000 0.756563
0.630469 0.000000 0.756563
0.756563 0.000000 0.756563
0.880742 0.000000 0.754922
1.000000 0.000000 0.750000
0.000000 0.126094 0.756563
0.126094 0.126094 0.756563
0.252188 0.126094 0.756563
0.378281 0.126094 0.756563
0.504375 0.126094 0.756563
0.630469 0.126094 0.756563
0.756563 0.126094 0.756563
0.880742 0.125820 0.754922
1.000000 0.125000 0.750000
0.000000 0.252187 0.756563
0.126094 0.252188 0.756563
0.252188 0.252188 0.756563
0.378281 0.252188 0.756563
0.504375 0.252188 0.756563
0.630469 0.252188 0.756563
0.756563 0.252188 0.756563
0.880742 0.251641 0.754922
1.000000 0.250000 0.750000
0.000000 0.378281 0.756563
0.126094 0.378281 0.756563
0.252188 0.378281 0.756563
0.378281 0.378281 0.756563
0.504375 0.378281 0.756563
0.630469 0.378281 0.756563
0.756563 0.378281 0.756563
0.880742 0.377461 0.754922
1.000000 0.375000 0.750000
0.000000 0.504375 0.756563
0.126094 0.504375 0.756563
0.252188 0.504375 0.756563
0.378281 0.504375 0.756563
0.504375 0.504375 0.756563
0.630469 0.504375 0.756563
0.756563 0.504375 0.756563
0.880742 0.503281 0.754922
1.000000 0.500000 0.750000
0.000000 0.630469 0.756563
0.126094 0.630469 0.756563
0.252188 0.630469 0.756563
0.378281 0.630469 0.756563
0.504375 0.630469 0.756563
0.630469 0.630469 0.756563
0.756563 0.630469 0.756563
0.880742 0.629102 0.754922
1.000000 0.625000 0.750000
0.000000 0.756563 0.756563
0.126094 0.756563 0.756563
0.252188 0.756563 0.756563
0.378281 0.756563 0.756563
0.504375 0.756563 0.756563
0.630469 0.756563 0.756563
0.756563 0.756563 0.756563
0.687378 0.433737 0.351926
1.000000 0.750000 0.750000
0.000000 0.880742 0.754922
0.125820 0.880742 0.754922
0.251641 0.880742 0.754922
0.377461 0.880742 0.754922
0.503281 0.880742 0.754922
0.629102 0.880742 0.754922
0.754922 0.880742 0.754922
0.684725 0.515953 0.343980
1.000000 0.875000 0.750000
0.000000 1.000000 0.750000
0.125000 1.000000 0.750000
0.250000 1.000000 0.750000
0.375000 1.000000 0.750000
0.500000 1.000000 0.750000
0.625000 1.000000 0.750000
0.750000 1.000000 0.750000
0.875000 1.000000 0.750000
1.000000 1.000000 0.750000
0.000000 0.000000 0.880742
0.125820 0.000000 0.880742
0.251641 0.000000 0.880742
0.377461 0.000000 0.880742
0.503281 0.000000 0.880742
0.629102 0.000000 0.880742
0.754922 0.000000 0.880742
0.880742 0.000000 0.880742
1.000000 0.000000 0.875000
0.000000 0.125820 0.880742
0.125820 0.125820 0.880742
0.251641 0.125820 0.880742
0.377461 0.125820 0.880742
0.503281 0.125820 0.880742
0.629102 0.125820 0.880742
0.754922 0.125820 0.880742
0.880742 0.125820 0.880742
1.000000 0.125000 0.875000
0.000000 0.251641 0.880742
0.125820 0.251641 0.880742
0.251641 0.251641 0.880742
0.377461 0.251641 0.880742
0.503281 0.251641 0.880742
0.629102 0.251641 0.880742
0.754922 0.251641 0.880742
0.880742 0.251641 0.880742
1.000000 0.250000 0.875000
0.000000 0.377461 0.880742
0.125820 0.377461 0.880742
0.251641 0.377461 0.880742
0.377461 0.377461 0.880742
0.503281 0.377461 0.880742
0.629102 0.377461 0.880742
0.754922 0.377461 0.880742
0.880742 0.377461 0.880742
1.000000 0.375000 0.875000
0.000000 0.503281 0.880742
0.125820 0.503281 0.880742
0.251641 0.503281 0.880742
0.377461 0.503281 0.880742
0.503281 0.503281 0.880742
0.629102 0.503281 0.880742
0.754922 0.503281 0.880742
0.880742 0.503281 0.880742
1.000000 0.500000 0.875000
0.000000 0.629102 0.880742
0.125820 0.629102 0.880742
0.251641 0.629102 0.880742
0.377461 0.629102 0.880742
0.503281 0.629102 0.880742
0.629102 0.629102 0.880742
0.754922 0.629102 0.880742
0.880742 0.629102 0.880742
1.000000 0.625000 0.875000
0.000000 0.754922 0.880742
0.125820 0.754922 0.880742
0.251641 0.754922 0.880742
0.377461 0.754922 0.880742
0.503281 0.754922 0.880742
0.629102 0.754922 0.880742
0.754922 0.754922 0.880742
0.880742 0.754922 0.880742
1.000000 0.750000 0.875000
0.000000 0.880742 0.880742
0.125820 0.880742 0.880742
0.251641 0.880742 0.880742
0.377461 0.880742 0.880742
0.503281 0.880742 0.880742
0.629102 0.880742 0.880742
0.754922 0.880742 0.880742
0.880742 0.880742 0.880742
1.000000 0.875000 0.875000
0.000000 1.000000 0.875000
0.125000 1.000000 0.875000
0.250000 1.000000 0.875000
0.375000 1.000000 0.875000
0.500000 1.000000 0.875000
0.625000 1.000000 0.875000
0.750000 1.000000 0.875000
0.875000 1.000000 0.875000
1.000000 1.000000 0.875000
0.000000 0.000000 1.000000
0.125000 0.000000 1.000000
0.250000 0.000000 1.000000
0.375000 0.000000 1.000000
0.500000 0.000000 1.000000
0.625000 0.000000 1.000000
0.750000 0.000000 1.000000
0.875000 0.000000 1.000000
1.000000 0.000000 1.000000
0.000000 0.125000 1.000000
0.125000 0.125000 1.000000
0.250000 0.125000 1.000000
0.375000 0.125000 1.000000
0.500000 0.125000 1.000000
0.625000 0.125000 1.000000
0.750000 0.125000 1.000000
0.875000 0.125000 1.000000
1.000000 0.125000 1.000000
0.000000 0.250000 1.000000
0.125000 0.250000 1.000000
0.250000 0.250000 1.000000
0.375000 0.250000 1.000000
0.500000 0.250000 1.000000
0.625000 0.250000 1.000000
0.750000 0.250000 1.000000
0.875000 0.250000 1.000000
1.000000 0.250000 1.000000
0.000000 0.375000 1.000000
0.125000 0.375000 1.000000
0.250000 0.375000 1.000000
0.375000 0.375000 1.000000
0.500000 0.375000 1.000000
0.625000 0.375000 1.000000
0.750000 0.375000 1.000000
0.875000 0.375000 1.000000
1.000000 0.375000 1.000000
0.000000 0.500000 1.000000
0.125000 0.500000 1.000000
0.250000 0.500000 1.000000
0.375000 0.500000 1.000000
0.500000 0.500000 1.000000
0.625000 0.500000 1.000000
0.750000 0.500000 1.000000
0.875000 0.500000 1.000000
1.000000 0.500000 1.000000
0.000000 0.625000 1.000000
0.125000 0.625000 1.000000
0.250000 0.625000 1.000000
0.375000 0.625000 1.000000
0.500000 0.625000 1.000000
0.625000 0.625000 1.000000
0.750000 0.625000 1.000000
0.875000 0.625000 1.000000
1.000000 0.625000 1.000000
0.000000 0.750000 1.000000
0.125000 0.750000 1.000000
0.250000 0.750000 1.000000
0.375000 0.750000 1.000000
0.500000 0.750000 1.000000
0.625000 0.750000 1.000000
0.750000 0.750000 1.000000
0.875000 0.750000 1.000000
1.000000 0.750000 1.000000
0.000000 0.875000 1.000000
0.125000 0.875000 1.000000
0.250000 0.875000 1.000000
0.375000 0.875000 1.000000
0.500000 0.875000 1.000000
0.625000 0.875000 1.000000
0.750000 0.875000 1.000000
0.875000 0.875000 1.000000
1.000000 0.875000 1.000000
0.000000 1.000000 1.000000
0.125000 1.000000 1.000000
0.250000 1.000000 1.000000
0.375000 1.000000 1.000000
0.500000 1.000000 1.000000
0.625000 1.000000 1.000000
0.750000 1.000000 1.000000
0.875000 1.000000 1.000000
1.000000 1.000000 1.000000
