assets/LUTs/skintone_warm_brown_rich_33.cube
TITLE "SkinTone Warm Brown Rich"
# Deeper warm brown: stronger hue pull toward red-orange, more saturation and density.
# Skin-tone selective LUT. Apply to display-referred Rec.709/sRGB (SDR) footage.
# Generated 2026-07-10 with Claude Code.
LUT_3D_SIZE 5
DOMAIN_MIN 0.0 0.0 0.0
DOMAIN_MAX 1.0 1.0 1.0
0.000000 0.000000 0.000000
0.243438 0.000000 0.000000
0.500000 0.000000 0.000000
0.756563 0.000000 0.000000
1.000000 0.000000 0.000000
0.000000 0.243438 0.000000
0.243438 0.243438 0.000000
0.500000 0.250000 0.000000
0.756563 0.252188 0.000000
1.000000 0.250000 0.000000
0.000000 0.500000 0.000000
0.250000 0.500000 0.000000
0.500000 0.500000 0.000000
0.756563 0.504375 0.000000
1.000000 0.500000 0.000000
0.000000 0.756563 0.000000
0.252188 0.756563 0.000000
0.504375 0.756563 0.000000
0.756563 0.756563 0.000000
1.000000 0.750000 0.000000
0.000000 1.000000 0.000000
0.250000 1.000000 0.000000
0.500000 1.000000 0.000000
0.750000 1.000000 0.000000
1.000000 1.000000 0.000000
0.000000 0.000000 0.243438
0.243438 0.000000 0.243438
0.500000 0.000000 0.250000
0.756563 0.000000 0.252187
1.000000 0.000000 0.250000
0.000000 0.243438 0.243438
0.243438 0.243438 0.243438
0.446332 0.232919 0.198677
0.723191 0.276881 0.206180
1.000000 0.250000 0.250000
0.000000 0.500000 0.250000
0.250000 0.500000 0.250000
0.456276 0.390887 0.207956
0.718651 0.424736 0.200063
1.000000 0.500000 0.250000
0.000000 0.756563 0.252188
0.252188 0.756563 0.252188
0.504375 0.756563 0.252188
0.729559 0.595063 0.214817
1.000000 0.750000 0.250000
0.000000 1.000000 0.250000
0.250000 1.000000 0.250000
0.500000 1.000000 0.250000
0.750000 1.000000 0.250000
1.000000 1.000000 0.250000
0.000000 0.000000 0.500000
0.250000 0.000000 0.500000
0.500000 0.000000 0.500000
0.756563 0.000000 0.504375
1.000000 0.000000 0.500000
0.000000 0.250000 0.500000
0.250000 0.250000 0.500000
0.500000 0.250000 0.500000
0.756563 0.252188 0.504375
1.000000 0.250000 0.500000
0.000000 0.500000 0.500000
0.250000 0.500000 0.500000
0.500000 0.500000 0.500000
0.722829 0.484821 0.446633
1.000000 0.500000 0.500000
0.000000 0.756563 0.504375
0.252188 0.756563 0.504375
0.504375 0.756563 0.504375
0.729265 0.657703 0.457504
1.000000 0.750000 0.500000
0.000000 1.000000 0.500000
0.250000 1.000000 0.500000
0.500000 1.000000 0.500000
0.750000 1.000000 0.500000
1.000000 1.000000 0.500000
0.000000 0.000000 0.756563
0.252187 0.000000 0.756563
0.504375 0.000000 0.756563
0.756563 0.000000 0.756563
1.000000 0.000000 0.750000
0.000000 0.252187 0.756563
0.252188 0.252188 0.756563
0.504375 0.252188 0.756563
0.756563 0.252188 0.756563
1.000000 0.250000 0.750000
0.000000 0.504375 0.756563
0.252188 0.504375 0.756563
0.504375 0.504375 0.756563
0.756563 0.504375 0.756563
1.000000 0.500000 0.750000
0.000000 0.756563 0.756563
0.252188 0.756563 0.756563
0.504375 0.756563 0.756563
0.756563 0.756563 0.756563
1.000000 0.750000 0.750000
0.000000 1.000000 0.750000
0.250000 1.000000 0.750000
0.500000 1.000000 0.750000
0.750000 1.000000 0.750000
1.000000 1.000000 0.750000
0.000000 0.000000 1.000000
0.250000 0.000000 1.000000
0.500000 0.000000 1.000000
0.750000 0.000000 1.000000
1.000000 0.000000 1.000000
0.000000 0.250000 1.000000
0.250000 0.250000 1.000000
0.500000 0.250000 1.000000
0.750000 0.250000 1.000000
1.000000 0.250000 1.000000
0.000000 0.500000 1.000000
0.250000 0.500000 1.000000
0.500000 0.500000 1.000000
0.750000 0.500000 1.000000
1.000000 0.500000 1.000000
0.000000 0.750000 1.000000
0.250000 0.750000 1.000000
0.500000 0.750000 1.000000
0.750000 0.750000 1.000000
1.000000 0.750000 1.000000
0.000000 1.000000 1.000000
0.250000 1.000000 1.000000
0.500000 1.000000 1.000000
0.750000 1.000000 1.000000
1.000000 1.000000 1.000000
