assets/LUTs/skintone_natural_balance_33.cube
TITLE "SkinTone Natural Balance"
# Subtle everyday fix: nudges yellowish skin back to warm neutral, tiny richness. Safe default.
# Skin-tone selective LUT. Apply to display-referred Rec.709/sRGB (SDR) footage.
# Generated 2026-07-10 with Claude Code.
LUT_3D_SIZE 9
DOMAIN_MIN 0.0 0.0 0.0
DOMAIN_MAX 1.0 1.0 1.0
0.000000 0.000000 0.000000
0.125000 0.000000 0.000000
0.250000 0.000000 0.000000
0.375000 0.000000 0.000000
0.500000 0.000000 0.000000
0.625000 0.000000 0.000000
0.750000 0.000000 0.000000
0.875000 0.000000 0.000000
1.000000 0.000000 0.000000
0.000000 0.125000 0.000000
0.125000 0.125000 0.000000
0.250000 0.125000 0.000000
0.375000 0.125000 0.000000
0.500000 0.125000 0.000000
0.625000 0.125000 0.000000
0.750000 0.125000 0.000000
0.875000 0.125000 0.000000
1.000000 0.125000 0.000000
0.000000 0.250000 0.000000
0.125000 0.250000 0.000000
0.250000 0.250000 0.000000
0.375000 0.250000 0.000000
0.500000 0.250000 0.000000
0.625000 0.250000 0.000000
0.750000 0.250000 0.000000
0.875000 0.250000 0.000000
1.000000 0.250000 0.000000
0.000000 0.375000 0.000000
0.125000 0.375000 0.000000
0.250000 0.375000 0.000000
0.375000 0.375000 0.000000
0.500000 0.375000 0.000000
0.625000 0.375000 0.000000
0.750000 0.375000 0.000000
0.875000 0.375000 0.000000
1.000000 0.375000 0.000000
0.000000 0.500000 0.000000
0.125000 0.500000 0.000000
0.250000 0.500000 0.000000
0.375000 0.500000 0.000000
0.500000 0.500000 0.000000
0.625000 0.500000 0.000000
0.750000 0.500000 0.000000
0.875000 0.500000 0.000000
1.000000 0.500000 0.000000
0.000000 0.625000 0.000000
0.125000 0.625000 0.000000
0.250000 0.625000 0.000000
0.375000 0.625000 0.000000
0.500000 0.625000 0.000000
0.625000 0.625000 0.000000
0.750000 0.625000 0.000000
0.875000 0.625000 0.000000
1.000000 0.625000 0.000000
0.000000 0.750000 0.000000
0.125000 0.750000 0.000000
0.250000 0.750000 0.000000
0.375000 0.750000 0.000000
0.500000 0.750000 0.000000
0.625000 0.750000 0.000000
0.750000 0.750000 0.000000
0.875000 0.750000 0.000000
1.000000 0.750000 0.000000
0.000000 0.875000 0.000000
0.125000 0.875000 0.000000
0.250000 0.875000 0.000000
0.375000 0.875000 0.000000
0.500000 0.875000 0.000000
0.625000 0.875000 0.000000
0.750000 0.875000 0.000000
0.875000 0.875000 0.000000
1.000000 0.875000 0.000000
0.000000 1.000000 0.000000
0.125000 1.000000 0.000000
0.250000 1.000000 0.000000
0.375000 1.000000 0.000000
0.500000 1.000000 0.000000
0.625000 1.000000 0.000000
0.750000 1.000000 0.000000
0.875000 1.000000 0.000000
1.000000 1.000000 0.000000
0.000000 0.000000 0.125000
0.125000 0.000000 0.125000
0.250000 0.000000 0.125000
0.375000 0.000000 0.125000
0.500000 0.000000 0.125000
0.625000 0.000000 0.125000
0.750000 0.000000 0.125000
0.875000 0.000000 0.125000
1.000000 0.000000 0.125000
0.000000 0.125000 0.125000
0.125000 0.125000 0.125000
0.235708 0.120420 0.113684
0.359867 0.127762 0.114358
0.489947 0.132169 0.118000
0.619820 0.132519 0.121037
0.747777 0.131225 0.122844
0.874344 0.129384 0.123904
1.000000 0.125000 0.125000
0.000000 0.250000 0.125000
0.125000 0.250000 0.125000
0.243995 0.236295 0.120215
0.353796 0.229085 0.110156
0.485854 0.243340 0.115177
0.617693 0.250843 0.119417
0.746861 0.253314 0.121957
0.874073 0.253322 0.123452
1.000000 0.250000 0.125000
0.000000 0.375000 0.125000
0.125000 0.375000 0.125000
0.250000 0.375000 0.125000
0.368674 0.353402 0.120523
0.485854 0.349688 0.115177
0.617693 0.366062 0.119417
0.746861 0.372830 0.121957
0.874073 0.375446 0.123452
1.000000 0.375000 0.125000
0.000000 0.500000 0.125000
0.125000 0.500000 0.125000
0.250000 0.500000 0.125000
0.375000 0.500000 0.125000
0.495823 0.479664 0.122081
0.617693 0.474716 0.119417
0.746861 0.492185 0.121957
0.874073 0.497571 0.123452
1.000000 0.500000 0.125000
0.000000 0.625000 0.125000
0.125000 0.625000 0.125000
0.250000 0.625000 0.125000
0.375000 0.625000 0.125000
0.500000 0.625000 0.125000
0.622855 0.609734 0.123356
0.746925 0.604324 0.122018
0.874073 0.618464 0.123452
1.000000 0.625000 0.125000
0.000000 0.750000 0.125000
0.125000 0.750000 0.125000
0.250000 0.750000 0.125000
0.375000 0.750000 0.125000
0.500000 0.750000 0.125000
0.625000 0.750000 0.125000
0.749081 0.739487 0.124108
0.874147 0.736298 0.123574
1.000000 0.750000 0.125000
0.000000 0.875000 0.125000
0.125000 0.875000 0.125000
0.250000 0.875000 0.125000
0.375000 0.875000 0.125000
0.500000 0.875000 0.125000
0.625000 0.875000 0.125000
0.750000 0.875000 0.125000
0.874729 0.868447 0.124547
1.000000 0.875000 0.125000
0.000000 1.000000 0.125000
0.125000 1.000000 0.125000
0.250000 1.000000 0.125000
0.375000 1.000000 0.125000
0.500000 1.000000 0.125000
0.625000 1.000000 0.125000
0.750000 1.000000 0.125000
0.875000 1.000000 0.125000
1.000000 1.000000 0.125000
0.000000 0.000000 0.250000
0.125000 0.000000 0.250000
0.250000 0.000000 0.250000
0.375000 0.000000 0.250000
0.500000 0.000000 0.250000
0.625000 0.000000 0.250000
0.750000 0.000000 0.250000
0.875000 0.000000 0.250000
1.000000 0.000000 0.250000
0.000000 0.125000 0.250000
0.125000 0.125000 0.250000
0.250000 0.125000 0.250000
0.375000 0.125000 0.250000
0.500000 0.125000 0.250000
0.625000 0.125000 0.250000
0.749936 0.124938 0.249587
0.874926 0.124877 0.249035
1.000000 0.125000 0.250000
0.000000 0.250000 0.250000
0.125000 0.250000 0.250000
0.250000 0.250000 0.250000
0.359703 0.241003 0.234068
0.485498 0.248033 0.234159
0.612650 0.255520 0.234654
0.740993 0.263071 0.235472
0.870915 0.267266 0.238451
1.000000 0.250000 0.250000
0.000000 0.375000 0.250000
0.125000 0.375000 0.250000
0.250000 0.375000 0.250000
0.368605 0.360808 0.243273
0.479632 0.350707 0.227825
0.607621 0.361675 0.228466
0.737305 0.373071 0.229563
0.869233 0.382845 0.233711
1.000000 0.375000 0.250000
0.000000 0.500000 0.250000
0.125000 0.500000 0.250000
0.250000 0.500000 0.250000
0.375000 0.500000 0.250000
0.493959 0.478370 0.243370
0.607621 0.463431 0.228466
0.737305 0.477408 0.229563
0.869233 0.491067 0.233711
1.000000 0.500000 0.250000
0.000000 0.625000 0.250000
0.125000 0.625000 0.250000
0.250000 0.625000 0.250000
0.375000 0.625000 0.250000
0.500000 0.625000 0.250000
0.619869 0.596462 0.243599
0.737305 0.571096 0.229563
0.869233 0.599228 0.233711
1.000000 0.625000 0.250000
0.000000 0.750000 0.250000
0.125000 0.750000 0.250000
0.250000 0.750000 0.250000
0.375000 0.750000 0.250000
0.500000 0.750000 0.250000
0.625000 0.750000 0.250000
0.746267 0.715352 0.243961
0.869350 0.688517 0.234039
1.000000 0.750000 0.250000
0.000000 0.875000 0.250000
0.125000 0.875000 0.250000
0.250000 0.875000 0.250000
0.375000 0.875000 0.250000
0.500000 0.875000 0.250000
0.625000 0.875000 0.250000
0.750000 0.875000 0.250000
0.873310 0.840928 0.245218
1.000000 0.875000 0.250000
0.000000 1.000000 0.250000
0.125000 1.000000 0.250000
0.250000 1.000000 0.250000
0.375000 1.000000 0.250000
0.500000 1.000000 0.250000
0.625000 1.000000 0.250000
0.750000 1.000000 0.250000
0.875000 1.000000 0.250000
1.000000 1.000000 0.250000
0.000000 0.000000 0.375000
0.125000 0.000000 0.375000
0.250000 0.000000 0.375000
0.375000 0.000000 0.375000
0.500000 0.000000 0.375000
0.625000 0.000000 0.375000
0.750000 0.000000 0.375000
0.875000 0.000000 0.375000
1.000000 0.000000 0.375000
0.000000 0.125000 0.375000
0.125000 0.125000 0.375000
0.250000 0.125000 0.375000
0.375000 0.125000 0.375000
0.500000 0.125000 0.375000
0.625000 0.125000 0.375000
0.750000 0.125000 0.375000
0.875000 0.125000 0.375000
1.000000 0.125000 0.375000
0.000000 0.250000 0.375000
0.125000 0.250000 0.375000
0.250000 0.250000 0.375000
0.375000 0.250000 0.375000
0.500000 0.250000 0.375000
0.625000 0.250000 0.375000
0.750000 0.250000 0.375000
0.874883 0.249668 0.373520
1.000000 0.250000 0.375000
0.000000 0.375000 0.375000
0.125000 0.375000 0.375000
0.250000 0.375000 0.375000
0.375000 0.375000 0.375000
0.485498 0.359139 0.351756
0.612650 0.371286 0.357184
0.740894 0.378511 0.357339
0.870235 0.385642 0.358431
1.000000 0.375000 0.375000
0.000000 0.500000 0.375000
0.125000 0.500000 0.375000
0.250000 0.500000 0.375000
0.375000 0.500000 0.375000
0.493959 0.485996 0.365956
0.607621 0.475714 0.349990
0.737165 0.486124 0.350154
0.868274 0.497217 0.351638
1.000000 0.500000 0.375000
0.000000 0.625000 0.375000
0.125000 0.625000 0.375000
0.250000 0.625000 0.375000
0.375000 0.625000 0.375000
0.500000 0.625000 0.375000
0.619869 0.604174 0.367573
0.737165 0.589988 0.350154
0.868274 0.603985 0.351638
1.000000 0.625000 0.375000
0.000000 0.750000 0.375000
0.125000 0.750000 0.375000
0.250000 0.750000 0.375000
0.375000 0.750000 0.375000
0.500000 0.750000 0.375000
0.625000 0.750000 0.375000
0.746226 0.722675 0.367660
0.868274 0.699981 0.351638
1.000000 0.750000 0.375000
0.000000 0.875000 0.375000
0.125000 0.875000 0.375000
0.250000 0.875000 0.375000
0.375000 0.875000 0.375000
0.500000 0.875000 0.375000
0.625000 0.875000 0.375000
0.750000 0.875000 0.375000
0.873029 0.842750 0.368136
1.000000 0.875000 0.375000
0.000000 1.000000 0.375000
0.125000 1.000000 0.375000
0.250000 1.000000 0.375000
0.375000 1.000000 0.375000
0.500000 1.000000 0.375000
0.625000 1.000000 0.375000
0.750000 1.000000 0.375000
0.875000 1.000000 0.375000
1.000000 1.000000 0.375000
0.000000 0.000000 0.500000
0.125000 0.000000 0.500000
0.250000 0.000000 0.500000
0.375000 0.000000 0.500000
0.500000 0.000000 0.500000
0.625000 0.000000 0.500000
0.750000 0.000000 0.500000
0.875000 0.000000 0.500000
1.000000 0.000000 0.500000
0.000000 0.125000 0.500000
0.125000 0.125000 0.500000
0.250000 0.125000 0.500000
0.375000 0.125000 0.500000
0.500000 0.125000 0.500000
0.625000 0.125000 0.500000
0.750000 0.125000 0.500000
0.875000 0.125000 0.500000
1.000000 0.125000 0.500000
0.000000 0.250000 0.500000
0.125000 0.250000 0.500000
0.250000 0.250000 0.500000
0.375000 0.250000 0.500000
0.500000 0.250000 0.500000
0.625000 0.250000 0.500000
0.750000 0.250000 0.500000
0.875000 0.250000 0.500000
1.000000 0.250000 0.500000
0.000000 0.375000 0.500000
0.125000 0.375000 0.500000
0.250000 0.375000 0.500000
0.375000 0.375000 0.500000
0.500000 0.375000 0.500000
0.625000 0.375000 0.500000
0.750000 0.375000 0.500000
0.875000 0.375000 0.500000
1.000000 0.375000 0.500000
0.000000 0.500000 0.500000
0.125000 0.500000 0.500000
0.250000 0.500000 0.500000
0.375000 0.500000 0.500000
0.500000 0.500000 0.500000
0.612650 0.477358 0.469453
0.740894 0.496404 0.482119
0.870235 0.503351 0.482750
1.000000 0.500000 0.500000
0.000000 0.625000 0.500000
0.125000 0.625000 0.500000
0.250000 0.625000 0.500000
0.375000 0.625000 0.500000
0.500000 0.625000 0.500000
0.619869 0.611735 0.489120
0.737165 0.602946 0.475018
0.868274 0.613349 0.475677
1.000000 0.625000 0.500000
0.000000 0.750000 0.500000
0.125000 0.750000 0.500000
0.250000 0.750000 0.500000
0.375000 0.750000 0.500000
0.500000 0.750000 0.500000
0.625000 0.750000 0.500000
0.746226 0.730441 0.492497
0.868274 0.719556 0.475677
1.000000 0.750000 0.500000
0.000000 0.875000 0.500000
0.125000 0.875000 0.500000
0.250000 0.875000 0.500000
0.375000 0.875000 0.500000
0.500000 0.875000 0.500000
0.625000 0.875000 0.500000
0.750000 0.875000 0.500000
0.873029 0.850229 0.492855
1.000000 0.875000 0.500000
0.000000 1.000000 0.500000
0.125000 1.000000 0.500000
0.250000 1.000000 0.500000
0.375000 1.000000 0.500000
0.500000 1.000000 0.500000
0.625000 1.000000 0.500000
0.750000 1.000000 0.500000
0.875000 1.000000 0.500000
1.000000 1.000000 0.500000
0.000000 0.000000 0.625000
0.125000 0.000000 0.625000
0.250000 0.000000 0.625000
0.375000 0.000000 0.625000
0.500000 0.000000 0.625000
0.625000 0.000000 0.625000
0.750000 0.000000 0.625000
0.875000 0.000000 0.625000
1.000000 0.000000 0.625000
0.000000 0.125000 0.625000
0.125000 0.125000 0.625000
0.250000 0.125000 0.625000
0.375000 0.125000 0.625000
0.500000 0.125000 0.625000
0.625000 0.125000 0.625000
0.750000 0.125000 0.625000
0.875000 0.125000 0.625000
1.000000 0.125000 0.625000
0.000000 0.250000 0.625000
0.125000 0.250000 0.625000
0.250000 0.250000 0.625000
0.375000 0.250000 0.625000
0.500000 0.250000 0.625000
0.625000 0.250000 0.625000
0.750000 0.250000 0.625000
0.875000 0.250000 0.625000
1.000000 0.250000 0.625000
0.000000 0.375000 0.625000
0.125000 0.375000 0.625000
0.250000 0.375000 0.625000
0.375000 0.375000 0.625000
0.500000 0.375000 0.625000
0.625000 0.375000 0.625000
0.750000 0.375000 0.625000
0.875000 0.375000 0.625000
1.000000 0.375000 0.625000
0.000000 0.500000 0.625000
0.125000 0.500000 0.625000
0.250000 0.500000 0.625000
0.375000 0.500000 0.625000
0.500000 0.500000 0.625000
0.625000 0.500000 0.625000
0.750000 0.500000 0.625000
0.875000 0.500000 0.625000
1.000000 0.500000 0.625000
0.000000 0.625000 0.625000
0.125000 0.625000 0.625000
0.250000 0.625000 0.625000
0.375000 0.625000 0.625000
0.500000 0.625000 0.625000
0.625000 0.625000 0.625000
0.741160 0.599037 0.590992
0.870235 0.619074 0.604971
1.000000 0.625000 0.625000
0.000000 0.750000 0.625000
0.125000 0.750000 0.625000
0.250000 0.750000 0.625000
0.375000 0.750000 0.625000
0.500000 0.750000 0.625000
0.625000 0.750000 0.625000
0.746336 0.738320 0.613664
0.868274 0.729397 0.596795
1.000000 0.750000 0.625000
0.000000 0.875000 0.625000
0.125000 0.875000 0.625000
0.250000 0.875000 0.625000
0.375000 0.875000 0.625000
0.500000 0.875000 0.625000
0.625000 0.875000 0.625000
0.750000 0.875000 0.625000
0.873029 0.857679 0.617072
1.000000 0.875000 0.625000
0.000000 1.000000 0.625000
0.125000 1.000000 0.625000
0.250000 1.000000 0.625000
0.375000 1.000000 0.625000
0.500000 1.000000 0.625000
0.625000 1.000000 0.625000
0.750000 1.000000 0.625000
0.875000 1.000000 0.625000
1.000000 1.000000 0.625000
0.000000 0.000000 0.750000
0.125000 0.000000 0.750000
0.250000 0.000000 0.750000
0.375000 0.000000 0.750000
0.500000 0.000000 0.750000
0.625000 0.000000 0.750000
0.750000 0.000000 0.750000
0.875000 0.000000 0.750000
1.000000 0.000000 0.750000
0.000000 0.125000 0.750000
0.125000 0.125000 0.750000
0.250000 0.125000 0.750000
0.375000 0.125000 0.750000
0.500000 0.125000 0.750000
0.625000 0.125000 0.750000
0.750000 0.125000 0.750000
0.875000 0.125000 0.750000
1.000000 0.125000 0.750000
0.000000 0.250000 0.750000
0.125000 0.250000 0.750000
0.250000 0.250000 0.750000
0.375000 0.250000 0.750000
0.500000 0.250000 0.750000
0.625000 0.250000 0.750000
0.750000 0.250000 0.750000
0.875000 0.250000 0.750000
1.000000 0.250000 0.750000
0.000000 0.375000 0.750000
0.125000 0.375000 0.750000
0.250000 0.375000 0.750000
0.375000 0.375000 0.750000
0.500000 0.375000 0.750000
0.625000 0.375000 0.750000
0.750000 0.375000 0.750000
0.875000 0.375000 0.750000
1.000000 0.375000 0.750000
0.000000 0.500000 0.750000
0.125000 0.500000 0.750000
0.250000 0.500000 0.750000
0.375000 0.500000 0.750000
0.500000 0.500000 0.750000
0.625000 0.500000 0.750000
0.750000 0.500000 0.750000
0.875000 0.500000 0.750000
1.000000 0.500000 0.750000
0.000000 0.625000 0.750000
0.125000 0.625000 0.750000
0.250000 0.625000 0.750000
0.375000 0.625000 0.750000
0.500000 0.625000 0.750000
0.625000 0.625000 0.750000
0.750000 0.625000 0.750000
0.875000 0.625000 0.750000
1.000000 0.625000 0.750000
0.000000 0.750000 0.750000
0.125000 0.750000 0.750000
0.250000 0.750000 0.750000
0.375000 0.750000 0.750000
0.500000 0.750000 0.750000
0.625000 0.750000 0.750000
0.750000 0.750000 0.750000
0.871177 0.729693 0.723393
1.000000 0.750000 0.750000
0.000000 0.875000 0.750000
0.125000 0.875000 0.750000
0.250000 0.875000 0.750000
0.375000 0.875000 0.750000
0.500000 0.875000 0.750000
0.625000 0.875000 0.750000
0.750000 0.875000 0.750000
0.873419 0.867051 0.741557
1.000000 0.875000 0.750000
0.000000 1.000000 0.750000
0.125000 1.000000 0.750000
0.250000 1.000000 0.750000
0.375000 1.000000 0.750000
0.500000 1.000000 0.750000
0.625000 1.000000 0.750000
0.750000 1.000000 0.750000
0.875000 1.000000 0.750000
1.000000 1.000000 0.750000
0.000000 0.000000 0.875000
0.125000 0.000000 0.875000
0.250000 0.000000 0.875000
0.375000 0.000000 0.875000
0.500000 0.000000 0.875000
0.625000 0.000000 0.875000
0.750000 0.000000 0.875000
0.875000 0.000000 0.875000
1.000000 0.000000 0.875000
0.000000 0.125000 0.875000
0.125000 0.125000 0.875000
0.250000 0.125000 0.875000
0.375000 0.125000 0.875000
0.500000 0.125000 0.875000
0.625000 0.125000 0.875000
0.750000 0.125000 0.875000
0.875000 0.125000 0.875000
1.000000 0.125000 0.875000
0.000000 0.250000 0.875000
0.125000 0.250000 0.875000
0.250000 0.250000 0.875000
0.375000 0.250000 0.875000
0.500000 0.250000 0.875000
0.625000 0.250000 0.875000
0.750000 0.250000 0.875000
0.875000 0.250000 0.875000
1.000000 0.250000 0.875000
0.000000 0.375000 0.875000
0.125000 0.375000 0.875000
0.250000 0.375000 0.875000
0.375000 0.375000 0.875000
0.500000 0.375000 0.875000
0.625000 0.375000 0.875000
0.750000 0.375000 0.875000
0.875000 0.375000 0.875000
1.000000 0.375000 0.875000
0.000000 0.500000 0.875000
0.125000 0.500000 0.875000
0.250000 0.500000 0.875000
0.375000 0.500000 0.875000
0.500000 0.500000 0.875000
0.625000 0.500000 0.875000
0.750000 0.500000 0.875000
0.875000 0.500000 0.875000
1.000000 0.500000 0.875000
0.000000 0.625000 0.875000
0.125000 0.625000 0.875000
0.250000 0.625000 0.875000
0.375000 0.625000 0.875000
0.500000 0.625000 0.875000
0.625000 0.625000 0.875000
0.750000 0.625000 0.875000
0.875000 0.625000 0.875000
1.000000 0.625000 0.875000
0.000000 0.750000 0.875000
0.125000 0.750000 0.875000
0.250000 0.750000 0.875000
0.375000 0.750000 0.875000
0.500000 0.750000 0.875000
0.625000 0.750000 0.875000
0.750000 0.750000 0.875000
0.875000 0.750000 0.875000
1.000000 0.750000 0.875000
0.000000 0.875000 0.875000
0.125000 0.875000 0.875000
0.250000 0.875000 0.875000
0.375000 0.875000 0.875000
0.500000 0.875000 0.875000
0.625000 0.875000 0.875000
0.750000 0.875000 0.875000
0.875000 0.875000 0.875000
1.000000 0.875000 0.875000
0.000000 1.000000 0.875000
0.125000 1.000000 0.875000
0.250000 1.000000 0.875000
0.375000 1.000000 0.875000
0.500000 1.000000 0.875000
0.625000 1.000000 0.875000
0.750000 1.000000 0.875000
0.875000 1.000000 0.875000
1.000000 1.000000 0.875000
0.000000 0.000000 1.000000
0.125000 0.000000 1.000000
0.250000 0.000000 1.000000
0.375000 0.000000 1.000000
0.500000 0.000000 1.000000
0.625000 0.000000 1.000000
0.750000 0.000000 1.000000
0.875000 0.000000 1.000000
1.000000 0.000000 1.000000
0.000000 0.125000 1.000000
0.125000 0.125000 1.000000
0.250000 0.125000 1.000000
0.375000 0.125000 1.000000
0.500000 0.125000 1.000000
0.625000 0.125000 1.000000
0.750000 0.125000 1.000000
0.875000 0.125000 1.000000
1.000000 0.125000 1.000000
0.000000 0.250000 1.000000
0.125000 0.250000 1.000000
0.250000 0.250000 1.000000
0.375000 0.250000 1.000000
0.500000 0.250000 1.000000
0.625000 0.250000 1.000000
0.750000 0.250000 1.000000
0.875000 0.250000 1.000000
1.000000 0.250000 1.000000
0.000000 0.375000 1.000000
0.125000 0.375000 1.000000
0.250000 0.375000 1.000000
0.375000 0.375000 1.000000
0.500000 0.375000 1.000000
0.625000 0.375000 1.000000
0.750000 0.375000 1.000000
0.875000 0.375000 1.000000
1.000000 0.375000 1.000000
0.000000 0.500000 1.000000
0.125000 0.500000 1.000000
0.250000 0.500000 1.000000
0.375000 0.500000 1.000000
0.500000 0.500000 1.000000
0.625000 0.500000 1.000000
0.750000 0.500000 1.000000
0.875000 0.500000 1.000000
1.000000 0.500000 1.000000
0.000000 0.625000 1.000000
0.125000 0.625000 1.000000
0.250000 0.625000 1.000000
0.375000 0.625000 1.000000
0.500000 0.625000 1.000000
0.625000 0.625000 1.000000
0.750000 0.625000 1.000000
0.875000 0.625000 1.000000
1.000000 0.625000 1.000000
0.000000 0.750000 1.000000
0.125000 0.750000 1.000000
0.250000 0.750000 1.000000
0.375000 0.750000 1.000000
0.500000 0.750000 1.000000
0.625000 0.750000 1.000000
0.750000 0.750000 1.000000
0.875000 0.750000 1.000000
1.000000 0.750000 1.000000
0.000000 0.875000 1.000000
0.125000 0.875000 1.000000
0.250000 0.875000 1.000000
0.375000 0.875000 1.000000
0.500000 0.875000 1.000000
0.625000 0.875000 1.000000
0.750000 0.875000 1.000000
0.875000 0.875000 1.000000
1.000000 0.875000 1.000000
0.000000 1.000000 1.000000
0.125000 1.000000 1.000000
0.250000 1.000000 1.000000
0.375000 1.000000 1.000000
0.500000 1.000000 1.000000
0.625000 1.000000 1.000000
0.750000 1.000000 1.000000
0.875000 1.000000 1.000000
1.000000 1.000000 1.000000
