assets/LUTs/skintone_warm_brown_rich_33.cube
TITLE "SkinTone Warm Brown Rich"
# Deeper warm brown: stronger hue pull toward red-orange, more saturation and density.
# Skin-tone selective LUT. Apply to display-referred Rec.709/sRGB (SDR) footage.
# Generated 2026-07-10 with Claude Code.
LUT_3D_SIZE 9
DOMAIN_MIN 0.0 0.0 0.0
DOMAIN_MAX 1.0 1.0 1.0
0.000000 0.000000 0.000000
0.119258 0.000000 0.000000
0.243438 0.000000 0.000000
0.370898 0.000000 0.000000
0.500000 0.000000 0.000000
0.629102 0.000000 0.000000
0.756563 0.000000 0.000000
0.880742 0.000000 0.000000
1.000000 0.000000 0.000000
0.000000 0.119258 0.000000
0.119258 0.119258 0.000000
0.243438 0.121719 0.000000
0.370898 0.123633 0.000000
0.500000 0.125000 0.000000
0.629102 0.125820 0.000000
0.756563 0.126094 0.000000
0.880742 0.125820 0.000000
1.000000 0.125000 0.000000
0.000000 0.243438 0.000000
0.121719 0.243438 0.000000
0.243438 0.243438 0.000000
0.370898 0.247266 0.000000
0.500000 0.250000 0.000000
0.629102 0.251641 0.000000
0.756563 0.252188 0.000000
0.880742 0.251641 0.000000
1.000000 0.250000 0.000000
0.000000 0.370898 0.000000
0.123633 0.370898 0.000000
0.247266 0.370898 0.000000
0.370898 0.370898 0.000000
0.500000 0.375000 0.000000
0.629102 0.377461 0.000000
0.756563 0.378281 0.000000
0.880742 0.377461 0.000000
1.000000 0.375000 0.000000
0.000000 0.500000 0.000000
0.125000 0.500000 0.000000
0.250000 0.500000 0.000000
0.375000 0.500000 0.000000
0.500000 0.500000 0.000000
0.629102 0.503281 0.000000
0.756563 0.504375 0.000000
0.880742 0.503281 0.000000
1.000000 0.500000 0.000000
0.000000 0.629102 0.000000
0.125820 0.629102 0.000000
0.251641 0.629102 0.000000
0.377461 0.629102 0.000000
0.503281 0.629102 0.000000
0.629102 0.629102 0.000000
0.756563 0.630469 0.000000
0.880742 0.629102 0.000000
1.000000 0.625000 0.000000
0.000000 0.756563 0.000000
0.126094 0.756563 0.000000
0.252188 0.756563 0.000000
0.378281 0.756563 0.000000
0.504375 0.756563 0.000000
0.630469 0.756563 0.000000
0.756563 0.756563 0.000000
0.880742 0.754922 0.000000
1.000000 0.750000 0.000000
0.000000 0.880742 0.000000
0.125820 0.880742 0.000000
0.251641 0.880742 0.000000
0.377461 0.880742 0.000000
0.503281 0.880742 0.000000
0.629102 0.880742 0.000000
0.754922 0.880742 0.000000
0.880742 0.880742 0.000000
1.000000 0.875000 0.000000
0.000000 1.000000 0.000000
0.125000 1.000000 0.000000
0.250000 1.000000 0.000000
0.375000 1.000000 0.000000
0.500000 1.000000 0.000000
0.625000 1.000000 0.000000
0.750000 1.000000 0.000000
0.875000 1.000000 0.000000
1.000000 1.000000 0.000000
0.000000 0.000000 0.119258
0.119258 0.000000 0.119258
0.243438 0.000000 0.121719
0.370898 0.000000 0.123633
0.500000 0.000000 0.125000
0.629102 0.000000 0.125820
0.756563 0.000000 0.126094
0.880742 0.000000 0.125820
1.000000 0.000000 0.125000
0.000000 0.119258 0.119258
0.119258 0.119258 0.119258
0.194096 0.101290 0.086399
0.316259 0.121083 0.090164
0.462333 0.136792 0.102454
0.609481 0.141599 0.112971
0.748246 0.140298 0.119166
0.878361 0.136186 0.122357
1.000000 0.125000 0.125000
0.000000 0.243438 0.121719
0.121719 0.243438 0.121719
0.202794 0.173732 0.092427
0.309328 0.182818 0.086113
0.457317 0.220648 0.099536
0.606797 0.244427 0.111238
0.747095 0.254303 0.118213
0.878030 0.256155 0.121877
1.000000 0.250000 0.125000
0.000000 0.370898 0.123633
0.123633 0.370898 0.123633
0.247266 0.370898 0.123633
0.326178 0.266046 0.096042
0.457317 0.302872 0.099536
0.606797 0.345068 0.111238
0.747095 0.366328 0.118213
0.878030 0.374678 0.121877
1.000000 0.375000 0.125000
0.000000 0.500000 0.125000
0.125000 0.500000 0.125000
0.250000 0.500000 0.125000
0.375000 0.500000 0.125000
0.469412 0.397503 0.106607
0.606797 0.441008 0.111238
0.747095 0.478341 0.118213
0.878030 0.493201 0.121877
1.000000 0.500000 0.125000
0.000000 0.629102 0.125820
0.125820 0.629102 0.125820
0.251641 0.629102 0.125820
0.377461 0.629102 0.125820
0.503281 0.629102 0.125820
0.613240 0.549783 0.115409
0.747095 0.581613 0.118213
0.878030 0.610387 0.121877
1.000000 0.625000 0.125000
0.000000 0.756563 0.126094
0.126094 0.756563 0.126094
0.252188 0.756563 0.126094
0.378281 0.756563 0.126094
0.504375 0.756563 0.126094
0.631986 0.756370 0.125932
0.749852 0.701694 0.120499
0.878030 0.721666 0.121877
1.000000 0.750000 0.125000
0.000000 0.880742 0.125820
0.125820 0.880742 0.125820
0.251641 0.880742 0.125820
0.377461 0.880742 0.125820
0.503281 0.880742 0.125820
0.629102 0.880742 0.125820
0.758925 0.880527 0.125506
0.878822 0.846878 0.123027
1.000000 0.875000 0.125000
0.000000 1.000000 0.125000
0.125000 1.000000 0.125000
0.250000 1.000000 0.125000
0.375000 1.000000 0.125000
0.500000 1.000000 0.125000
0.625000 1.000000 0.125000
0.750000 1.000000 0.125000
0.875000 1.000000 0.125000
1.000000 1.000000 0.125000
0.000000 0.000000 0.243438
0.121719 0.000000 0.243438
0.243438 0.000000 0.243438
0.370898 0.000000 0.247266
0.500000 0.000000 0.250000
0.629102 0.000000 0.251641
0.756563 0.000000 0.252187
0.880742 0.000000 0.251641
1.000000 0.000000 0.250000
0.000000 0.121719 0.243438
0.121719 0.121719 0.243438
0.243438 0.121719 0.243438
0.370898 0.123633 0.247266
0.500000 0.125000 0.250000
0.628642 0.125516 0.250150
0.755401 0.125122 0.246549
0.880119 0.124913 0.245445
1.000000 0.125000 0.250000
0.000000 0.243438 0.243438
0.121719 0.243438 0.243438
0.243438 0.243438 0.243438
0.315701 0.211749 0.195070
0.446332 0.232919 0.198677
0.583001 0.255103 0.202492
0.723191 0.276881 0.206180
0.865964 0.289645 0.215407
1.000000 0.250000 0.250000
0.000000 0.370898 0.247266
0.123633 0.370898 0.247266
0.247266 0.370898 0.247266
0.325714 0.293752 0.204337
0.439327 0.299086 0.192206
0.576843 0.325887 0.196126
0.718651 0.352790 0.200063
0.863923 0.377554 0.210456
1.000000 0.375000 0.250000
0.000000 0.500000 0.250000
0.125000 0.500000 0.250000
0.250000 0.500000 0.250000
0.375000 0.500000 0.250000
0.456276 0.390887 0.207956
0.576843 0.395685 0.196126
0.718651 0.424736 0.200063
0.863923 0.459708 0.210456
1.000000 0.500000 0.250000
0.000000 0.629102 0.251641
0.125820 0.629102 0.251641
0.251641 0.629102 0.251641
0.377461 0.629102 0.251641
0.503281 0.629102 0.251641
0.591684 0.491585 0.211549
0.718651 0.496648 0.200063
0.863923 0.541862 0.210456
1.000000 0.625000 0.250000
0.000000 0.756563 0.252188
0.126094 0.756563 0.252188
0.252188 0.756563 0.252188
0.378281 0.756563 0.252188
0.504375 0.756563 0.252188
0.630469 0.756563 0.252188
0.729559 0.595063 0.214817
0.863923 0.619102 0.210456
1.000000 0.750000 0.250000
0.000000 0.880742 0.251641
0.125820 0.880742 0.251641
0.251641 0.880742 0.251641
0.377461 0.880742 0.251641
0.503281 0.880742 0.251641
0.629102 0.880742 0.251641
0.760257 0.880399 0.250792
0.868814 0.721033 0.222341
1.000000 0.875000 0.250000
0.000000 1.000000 0.250000
0.125000 1.000000 0.250000
0.250000 1.000000 0.250000
0.375000 1.000000 0.250000
0.500000 1.000000 0.250000
0.625000 1.000000 0.250000
0.750000 1.000000 0.250000
0.875000 1.000000 0.250000
1.000000 1.000000 0.250000
0.000000 0.000000 0.370898
0.123633 0.000000 0.370898
0.247266 0.000000 0.370898
0.370898 0.000000 0.370898
0.500000 0.000000 0.375000
0.629102 0.000000 0.377461
0.756563 0.000000 0.378281
0.880742 0.000000 0.377461
1.000000 0.000000 0.375000
0.000000 0.123633 0.370898
0.123633 0.123633 0.370898
0.247266 0.123633 0.370898
0.370898 0.123633 0.370898
0.500000 0.125000 0.375000
0.629102 0.125820 0.377461
0.756563 0.126094 0.378281
0.880742 0.125820 0.377461
1.000000 0.125000 0.375000
0.000000 0.247266 0.370898
0.123633 0.247266 0.370898
0.247266 0.247266 0.370898
0.370898 0.247266 0.370898
0.500000 0.250000 0.375000
0.629102 0.251641 0.377461
0.755778 0.251085 0.374529
0.878675 0.246531 0.357190
1.000000 0.250000 0.375000
0.000000 0.370898 0.370898
0.123633 0.370898 0.370898
0.247266 0.370898 0.370898
0.370898 0.370898 0.370898
0.446332 0.325523 0.306139
0.583001 0.355582 0.319092
0.722829 0.377209 0.321755
0.863515 0.397040 0.325377
1.000000 0.375000 0.375000
0.000000 0.500000 0.375000
0.125000 0.500000 0.375000
0.250000 0.500000 0.375000
0.375000 0.500000 0.375000
0.456276 0.419843 0.317921
0.576843 0.426258 0.311495
0.718240 0.451930 0.314230
0.861139 0.477523 0.318281
1.000000 0.500000 0.375000
0.000000 0.629102 0.377461
0.125820 0.629102 0.377461
0.251641 0.629102 0.377461
0.377461 0.629102 0.377461
0.503281 0.629102 0.377461
0.591684 0.522746 0.329886
0.718240 0.525998 0.314230
0.861139 0.554418 0.318281
1.000000 0.625000 0.375000
0.000000 0.756563 0.378281
0.126094 0.756563 0.378281
0.252188 0.756563 0.378281
0.378281 0.756563 0.378281
0.504375 0.756563 0.378281
0.630469 0.756563 0.378281
0.729265 0.624754 0.332376
0.861139 0.631195 0.318281
1.000000 0.750000 0.375000
0.000000 0.880742 0.377461
0.125820 0.880742 0.377461
0.251641 0.880742 0.377461
0.377461 0.880742 0.377461
0.503281 0.880742 0.377461
0.629102 0.880742 0.377461
0.754922 0.880742 0.377461
0.866834 0.730554 0.335326
1.000000 0.875000 0.375000
0.000000 1.000000 0.375000
0.125000 1.000000 0.375000
0.250000 1.000000 0.375000
0.375000 1.000000 0.375000
0.500000 1.000000 0.375000
0.625000 1.000000 0.375000
0.750000 1.000000 0.375000
0.875000 1.000000 0.375000
1.000000 1.000000 0.375000
0.000000 0.000000 0.500000
0.125000 0.000000 0.500000
0.250000 0.000000 0.500000
0.375000 0.000000 0.500000
0.500000 0.000000 0.500000
0.629102 0.000000 0.503281
0.756563 0.000000 0.504375
0.880742 0.000000 0.503281
1.000000 0.000000 0.500000
0.000000 0.125000 0.500000
0.125000 0.125000 0.500000
0.250000 0.125000 0.500000
0.375000 0.125000 0.500000
0.500000 0.125000 0.500000
0.629102 0.125820 0.503281
0.756563 0.126094 0.504375
0.880742 0.125820 0.503281
1.000000 0.125000 0.500000
0.000000 0.250000 0.500000
0.125000 0.250000 0.500000
0.250000 0.250000 0.500000
0.375000 0.250000 0.500000
0.500000 0.250000 0.500000
0.629102 0.251641 0.503281
0.756563 0.252188 0.504375
0.880742 0.251641 0.503281
1.000000 0.250000 0.500000
0.000000 0.375000 0.500000
0.125000 0.375000 0.500000
0.250000 0.375000 0.500000
0.375000 0.375000 0.500000
0.500000 0.375000 0.500000
0.629102 0.377461 0.503281
0.756563 0.378281 0.504375
0.880342 0.376238 0.499609
1.000000 0.375000 0.500000
0.000000 0.500000 0.500000
0.125000 0.500000 0.500000
0.250000 0.500000 0.500000
0.375000 0.500000 0.500000
0.500000 0.500000 0.500000
0.583001 0.435085 0.411352
0.722829 0.484821 0.446633
0.863515 0.503972 0.448737
1.000000 0.500000 0.500000
0.000000 0.629102 0.503281
0.125820 0.629102 0.503281
0.251641 0.629102 0.503281
0.377461 0.629102 0.503281
0.503281 0.629102 0.503281
0.591684 0.548922 0.429291
0.718240 0.559728 0.438924
0.861139 0.584279 0.441300
1.000000 0.625000 0.500000
0.000000 0.756563 0.504375
0.126094 0.756563 0.504375
0.252188 0.756563 0.504375
0.378281 0.756563 0.504375
0.504375 0.756563 0.504375
0.630469 0.756563 0.504375
0.729265 0.657703 0.457504
0.861139 0.663571 0.441300
1.000000 0.750000 0.500000
0.000000 0.880742 0.503281
0.125820 0.880742 0.503281
0.251641 0.880742 0.503281
0.377461 0.880742 0.503281
0.503281 0.880742 0.503281
0.629102 0.880742 0.503281
0.754922 0.880742 0.503281
0.866834 0.762305 0.459160
1.000000 0.875000 0.500000
0.000000 1.000000 0.500000
0.125000 1.000000 0.500000
0.250000 1.000000 0.500000
0.375000 1.000000 0.500000
0.500000 1.000000 0.500000
0.625000 1.000000 0.500000
0.750000 1.000000 0.500000
0.875000 1.000000 0.500000
1.000000 1.000000 0.500000
0.000000 0.000000 0.629102
0.125820 0.000000 0.629102
0.251641 0.000000 0.629102
0.377461 0.000000 0.629102
0.503281 0.000000 0.629102
0.629102 0.000000 0.629102
0.756563 0.000000 0.630469
0.880742 0.000000 0.629102
1.000000 0.000000 0.625000
0.000000 0.125820 0.629102
0.125820 0.125820 0.629102
0.251641 0.125820 0.629102
0.377461 0.125820 0.629102
0.503281 0.125820 0.629102
0.629102 0.125820 0.629102
0.756563 0.126094 0.630469
0.880742 0.125820 0.629102
1.000000 0.125000 0.625000
0.000000 0.251641 0.629102
0.125820 0.251641 0.629102
0.251641 0.251641 0.629102
0.377461 0.251641 0.629102
0.503281 0.251641 0.629102
0.629102 0.251641 0.629102
0.756563 0.252188 0.630469
0.880742 0.251641 0.629102
1.000000 0.250000 0.625000
0.000000 0.377461 0.629102
0.125820 0.377461 0.629102
0.251641 0.377461 0.629102
0.377461 0.377461 0.629102
0.503281 0.377461 0.629102
0.629102 0.377461 0.629102
0.756563 0.378281 0.630469
0.880742 0.377461 0.629102
1.000000 0.375000 0.625000
0.000000 0.503281 0.629102
0.125820 0.503281 0.629102
0.251641 0.503281 0.629102
0.377461 0.503281 0.629102
0.503281 0.503281 0.629102
0.629102 0.503281 0.629102
0.756563 0.504375 0.630469
0.880742 0.503281 0.629102
1.000000 0.500000 0.625000
0.000000 0.629102 0.629102
0.125820 0.629102 0.629102
0.251641 0.629102 0.629102
0.377461 0.629102 0.629102
0.503281 0.629102 0.629102
0.629102 0.629102 0.629102
0.723802 0.551294 0.524555
0.863515 0.613558 0.575159
1.000000 0.625000 0.625000
0.000000 0.756563 0.630469
0.126094 0.756563 0.630469
0.252188 0.756563 0.630469
0.378281 0.756563 0.630469
0.504375 0.756563 0.630469
0.630469 0.756563 0.630469
0.730055 0.683059 0.547774
0.861139 0.696216 0.569247
1.000000 0.750000 0.625000
0.000000 0.880742 0.629102
0.125820 0.880742 0.629102
0.251641 0.880742 0.629102
0.377461 0.880742 0.629102
0.503281 0.880742 0.629102
0.629102 0.880742 0.629102
0.754922 0.880742 0.629102
0.866834 0.794324 0.584037
1.000000 0.875000 0.625000
0.000000 1.000000 0.625000
0.125000 1.000000 0.625000
0.250000 1.000000 0.625000
0.375000 1.000000 0.625000
0.500000 1.000000 0.625000
0.625000 1.000000 0.625000
0.750000 1.000000 0.625000
0.875000 1.000000 0.625000
1.000000 1.000000 0.625000
0.000000 0.000000 0.756563
0.126094 0.000000 0.756563
0.252187 0.000000 0.756563
0.378281 0.000000 0.756563
0.504375 0.000000 0.756563
0.630469 0.000000 0.756563
0.756563 0.000000 0.756563
0.880742 0.000000 0.754922
1.000000 0.000000 0.750000
0.000000 0.126094 0.756563
0.126094 0.126094 0.756563
0.252188 0.126094 0.756563
0.378281 0.126094 0.756563
0.504375 0.126094 0.756563
0.630469 0.126094 0.756563
0.756563 0.126094 0.756563
0.880742 0.125820 0.754922
1.000000 0.125000 0.750000
0.000000 0.252187 0.756563
0.126094 0.252188 0.756563
0.252188 0.252188 0.756563
0.378281 0.252188 0.756563
0.504375 0.252188 0.756563
0.630469 0.252188 0.756563
0.756563 0.252188 0.756563
0.880742 0.251641 0.754922
1.000000 0.250000 0.750000
0.000000 0.378281 0.756563
0.126094 0.378281 0.756563
0.252188 0.378281 0.756563
0.378281 0.378281 0.756563
0.504375 0.378281 0.756563
0.630469 0.378281 0.756563
0.756563 0.378281 0.756563
0.880742 0.377461 0.754922
1.000000 0.375000 0.750000
0.000000 0.504375 0.756563
0.126094 0.504375 0.756563
0.252188 0.504375 0.756563
0.378281 0.504375 0.756563
0.504375 0.504375 0.756563
0.630469 0.504375 0.756563
0.756563 0.504375 0.756563
0.880742 0.503281 0.754922
1.000000 0.500000 0.750000
0.000000 0.630469 0.756563
0.126094 0.630469 0.756563
0.252188 0.630469 0.756563
0.378281 0.630469 0.756563
0.504375 0.630469 0.756563
0.630469 0.630469 0.756563
0.756563 0.630469 0.756563
0.880742 0.629102 0.754922
1.000000 0.625000 0.750000
0.000000 0.756563 0.756563
0.126094 0.756563 0.756563
0.252188 0.756563 0.756563
0.378281 0.756563 0.756563
0.504375 0.756563 0.756563
0.630469 0.756563 0.756563
0.756563 0.756563 0.756563
0.866910 0.690020 0.668877
1.000000 0.750000 0.750000
0.000000 0.880742 0.754922
0.125820 0.880742 0.754922
0.251641 0.880742 0.754922
0.377461 0.880742 0.754922
0.503281 0.880742 0.754922
0.629102 0.880742 0.754922
0.754922 0.880742 0.754922
0.869579 0.830517 0.689593
1.000000 0.875000 0.750000
0.000000 1.000000 0.750000
0.125000 1.000000 0.750000
0.250000 1.000000 0.750000
0.375000 1.000000 0.750000
0.500000 1.000000 0.750000
0.625000 1.000000 0.750000
0.750000 1.000000 0.750000
0.875000 1.000000 0.750000
1.000000 1.000000 0.750000
0.000000 0.000000 0.880742
0.125820 0.000000 0.880742
0.251641 0.000000 0.880742
0.377461 0.000000 0.880742
0.503281 0.000000 0.880742
0.629102 0.000000 0.880742
0.754922 0.000000 0.880742
0.880742 0.000000 0.880742
1.000000 0.000000 0.875000
0.000000 0.125820 0.880742
0.125820 0.125820 0.880742
0.251641 0.125820 0.880742
0.377461 0.125820 0.880742
0.503281 0.125820 0.880742
0.629102 0.125820 0.880742
0.754922 0.125820 0.880742
0.880742 0.125820 0.880742
1.000000 0.125000 0.875000
0.000000 0.251641 0.880742
0.125820 0.251641 0.880742
0.251641 0.251641 0.880742
0.377461 0.251641 0.880742
0.503281 0.251641 0.880742
0.629102 0.251641 0.880742
0.754922 0.251641 0.880742
0.880742 0.251641 0.880742
1.000000 0.250000 0.875000
0.000000 0.377461 0.880742
0.125820 0.377461 0.880742
0.251641 0.377461 0.880742
0.377461 0.377461 0.880742
0.503281 0.377461 0.880742
0.629102 0.377461 0.880742
0.754922 0.377461 0.880742
0.880742 0.377461 0.880742
1.000000 0.375000 0.875000
0.000000 0.503281 0.880742
0.125820 0.503281 0.880742
0.251641 0.503281 0.880742
0.377461 0.503281 0.880742
0.503281 0.503281 0.880742
0.629102 0.503281 0.880742
0.754922 0.503281 0.880742
0.880742 0.503281 0.880742
1.000000 0.500000 0.875000
0.000000 0.629102 0.880742
0.125820 0.629102 0.880742
0.251641 0.629102 0.880742
0.377461 0.629102 0.880742
0.503281 0.629102 0.880742
0.629102 0.629102 0.880742
0.754922 0.629102 0.880742
0.880742 0.629102 0.880742
1.000000 0.625000 0.875000
0.000000 0.754922 0.880742
0.125820 0.754922 0.880742
0.251641 0.754922 0.880742
0.377461 0.754922 0.880742
0.503281 0.754922 0.880742
0.629102 0.754922 0.880742
0.754922 0.754922 0.880742
0.880742 0.754922 0.880742
1.000000 0.750000 0.875000
0.000000 0.880742 0.880742
0.125820 0.880742 0.880742
0.251641 0.880742 0.880742
0.377461 0.880742 0.880742
0.503281 0.880742 0.880742
0.629102 0.880742 0.880742
0.754922 0.880742 0.880742
0.880742 0.880742 0.880742
1.000000 0.875000 0.875000
0.000000 1.000000 0.875000
0.125000 1.000000 0.875000
0.250000 1.000000 0.875000
0.375000 1.000000 0.875000
0.500000 1.000000 0.875000
0.625000 1.000000 0.875000
0.750000 1.000000 0.875000
0.875000 1.000000 0.875000
1.000000 1.000000 0.875000
0.000000 0.000000 1.000000
0.125000 0.000000 1.000000
0.250000 0.000000 1.000000
0.375000 0.000000 1.000000
0.500000 0.000000 1.000000
0.625000 0.000000 1.000000
0.750000 0.000000 1.000000
0.875000 0.000000 1.000000
1.000000 0.000000 1.000000
0.000000 0.125000 1.000000
0.125000 0.125000 1.000000
0.250000 0.125000 1.000000
0.375000 0.125000 1.000000
0.500000 0.125000 1.000000
0.625000 0.125000 1.000000
0.750000 0.125000 1.000000
0.875000 0.125000 1.000000
1.000000 0.125000 1.000000
0.000000 0.250000 1.000000
0.125000 0.250000 1.000000
0.250000 0.250000 1.000000
0.375000 0.250000 1.000000
0.500000 0.250000 1.000000
0.625000 0.250000 1.000000
0.750000 0.250000 1.000000
0.875000 0.250000 1.000000
1.000000 0.250000 1.000000
0.000000 0.375000 1.000000
0.125000 0.375000 1.000000
0.250000 0.375000 1.000000
0.375000 0.375000 1.000000
0.500000 0.375000 1.000000
0.625000 0.375000 1.000000
0.750000 0.375000 1.000000
0.875000 0.375000 1.000000
1.000000 0.375000 1.000000
0.000000 0.500000 1.000000
0.125000 0.500000 1.000000
0.250000 0.500000 1.000000
0.375000 0.500000 1.000000
0.500000 0.500000 1.000000
0.625000 0.500000 1.000000
0.750000 0.500000 1.000000
0.875000 0.500000 1.000000
1.000000 0.500000 1.000000
0.000000 0.625000 1.000000
0.125000 0.625000 1.000000
0.250000 0.625000 1.000000
0.375000 0.625000 1.000000
0.500000 0.625000 1.000000
0.625000 0.625000 1.000000
0.750000 0.625000 1.000000
0.875000 0.625000 1.000000
1.000000 0.625000 1.000000
0.000000 0.750000 1.000000
0.125000 0.750000 1.000000
0.250000 0.750000 1.000000
0.375000 0.750000 1.000000
0.500000 0.750000 1.000000
0.625000 0.750000 1.000000
0.750000 0.750000 1.000000
0.875000 0.750000 1.000000
1.000000 0.750000 1.000000
0.000000 0.875000 1.000000
0.125000 0.875000 1.000000
0.250000 0.875000 1.000000
0.375000 0.875000 1.000000
0.500000 0.875000 1.000000
0.625000 0.875000 1.000000
0.750000 0.875000 1.000000
0.875000 0.875000 1.000000
1.000000 0.875000 1.000000
0.000000 1.000000 1.000000
0.125000 1.000000 1.000000
0.250000 1.000000 1.000000
0.375000 1.000000 1.000000
0.500000 1.000000 1.000000
0.625000 1.000000 1.000000
0.750000 1.000000 1.000000
0.875000 1.000000 1.000000
1.000000 1.000000 1.000000
